;Sliced by ideaMaker 4.3.2.6470, 2023-04-08 15:52:22 UTC+0200
;Dimension: 170.000 190.000 170.000 0.500
;Plate Shape: 0
;Origin Center: 0
;Extruder Offset #1: 25.000 0.000
;Filament Diameter #1: 1.750
;Filament Diameter #2: 1.750
;Filament Compensation #1: 100.00
;Filament Compensation #2: 90.00
;Filament Density #1: 1240.00
;Filament Density #2: 1240.00
;Filament Type #1: PLA
;Filament Type #2: 
;Filament Name #1: [FILOALFA] PLA 1.75mm
;Filament Name #2: 
;Firmware: Marlin
;Bounding Box: 54.587 90.481 58.612 94.507 0.000 13.000
;Model Gap: 0.000
M221 T0 S100.00
M140 S50.00
M104 T0 S200.00
M109 T0 S200.00
T0
M190 S50.00
G28 ; home all
M420 S1 ; Enable Bed leveling
G92 E0
G1 Z0.2 F1000
G1 X8.0 F2000
G1 Y60.0 E4.0 F1000.0 ; prime
G1 Y100.0 E8.5 F1000.0 ; prime
G92 E0
;TOTAL_NUM: 1
;PRINTING_TIME: 0
;REMAINING_TIME: 1558
M83
;LAYER:0
;Z:0.200
;HEIGHT:0.200
M106 S0
M140 S50
M104 T0 S200
;PRINTING: NON-OBJECT
;PRINTING_ID: -1
G1 F2400 E-0.5000
G0 F4200 X60.402 Y63.330
G0 F960 Z0.200
;TYPE:SKIRT
;WIDTH:0.500
G1 F1500 E0.5000
G1 F1800 X61.209 Y62.633 E0.0443
G1 X61.935 Y62.072 E0.0381
G1 X62.695 Y61.546 E0.0384
G1 X63.307 Y61.162 E0.0300
G1 X64.299 Y60.611 E0.0472
G1 X65.508 Y60.041 E0.0556
G1 X66.208 Y59.761 E0.0313
G1 X67.223 Y59.411 E0.0446
G1 X67.946 Y59.205 E0.0313
G1 X68.995 Y58.960 E0.0448
G1 X69.731 Y58.829 E0.0311
G1 X70.843 Y58.690 E0.0466
G1 X72.166 Y58.612 E0.0551
G1 X73.057 Y58.616 E0.0370
G1 X74.004 Y58.669 E0.0394
G1 X74.884 Y58.763 E0.0368
G1 X75.809 Y58.910 E0.0389
G1 X76.693 Y59.097 E0.0376
G1 X77.568 Y59.329 E0.0376
G1 X78.300 Y59.561 E0.0319
G1 X79.309 Y59.936 E0.0448
G1 X79.973 Y60.222 E0.0301
G1 X80.966 Y60.713 E0.0461
G1 X81.968 Y61.289 E0.0481
G1 X82.891 Y61.898 E0.0460
G1 X83.617 Y62.439 E0.0376
G1 X84.311 Y63.013 E0.0374
G1 X85.007 Y63.651 E0.0393
G1 X85.651 Y64.306 E0.0382
G1 X86.244 Y64.972 E0.0371
G1 X86.815 Y65.685 E0.0380
G1 X87.360 Y66.441 E0.0387
G1 X87.765 Y67.063 E0.0309
G1 X88.328 Y68.032 E0.0466
G1 X88.826 Y69.027 E0.0463
G1 X89.268 Y70.066 E0.0469
G1 X89.571 Y70.914 E0.0374
G1 X89.838 Y71.791 E0.0381
G1 X90.056 Y72.668 E0.0376
G1 X90.233 Y73.567 E0.0381
G1 X90.362 Y74.478 E0.0383
G1 X90.445 Y75.386 E0.0379
G1 X90.481 Y76.303 E0.0382
G1 X90.472 Y77.205 E0.0375
G1 X90.415 Y78.123 E0.0382
G1 X90.316 Y79.012 E0.0372
G1 X90.163 Y79.936 E0.0389
G1 X89.971 Y80.817 E0.0375
G1 X89.732 Y81.694 E0.0378
G1 X89.448 Y82.564 E0.0380
G1 X89.120 Y83.419 E0.0381
G1 X88.814 Y84.116 E0.0316
G1 X88.340 Y85.062 E0.0440
G1 X87.887 Y85.857 E0.0380
G1 X87.399 Y86.619 E0.0376
G1 X86.952 Y87.250 E0.0321
G1 X86.256 Y88.127 E0.0465
G1 X85.517 Y88.951 E0.0460
G1 X84.719 Y89.736 E0.0465
G1 X84.022 Y90.349 E0.0386
G1 X83.450 Y90.806 E0.0304
G1 X82.563 Y91.444 E0.0454
G1 X81.943 Y91.844 E0.0307
G1 X80.977 Y92.396 E0.0463
G1 X79.959 Y92.898 E0.0472
G1 X78.923 Y93.332 E0.0467
G1 X78.068 Y93.633 E0.0377
G1 X77.195 Y93.892 E0.0379
G1 X76.309 Y94.106 E0.0379
G1 X75.560 Y94.250 E0.0317
G1 X74.508 Y94.398 E0.0442
G1 X73.594 Y94.476 E0.0381
G1 X72.675 Y94.507 E0.0382
G1 X71.923 Y94.497 E0.0313
G1 X70.861 Y94.429 E0.0442
G1 X70.114 Y94.343 E0.0313
G1 X69.047 Y94.165 E0.0450
G1 X68.310 Y94.003 E0.0314
G1 X67.249 Y93.710 E0.0458
G1 X65.966 Y93.262 E0.0565
G1 X65.158 Y92.921 E0.0365
G1 X64.335 Y92.524 E0.0380
G1 X63.503 Y92.070 E0.0394
G1 X62.752 Y91.606 E0.0367
G1 X61.984 Y91.079 E0.0387
G1 X61.273 Y90.535 E0.0372
G1 X60.689 Y90.044 E0.0317
G1 X59.899 Y89.307 E0.0449
G1 X59.383 Y88.774 E0.0308
G1 X58.670 Y87.959 E0.0450
G1 X58.211 Y87.377 E0.0308
G1 X57.674 Y86.626 E0.0384
G1 X57.182 Y85.857 E0.0380
G1 X56.652 Y84.920 E0.0448
G1 X56.253 Y84.115 E0.0374
G1 X55.947 Y83.417 E0.0317
G1 X55.626 Y82.580 E0.0373
G1 X55.279 Y81.497 E0.0473
G1 X55.003 Y80.406 E0.0468
G1 X54.797 Y79.308 E0.0464
G1 X54.682 Y78.419 E0.0373
G1 X54.619 Y77.659 E0.0317
G1 X54.587 Y76.761 E0.0374
G1 X54.600 Y75.836 E0.0385
G1 X54.672 Y74.787 E0.0437
G1 X54.786 Y73.875 E0.0382
G1 X54.951 Y72.955 E0.0389
G1 X55.156 Y72.066 E0.0379
G1 X55.410 Y71.174 E0.0386
G1 X55.641 Y70.489 E0.0301
G1 X55.974 Y69.634 E0.0381
G1 X56.351 Y68.793 E0.0383
G1 X56.838 Y67.851 E0.0441
G1 X57.214 Y67.205 E0.0311
G1 X57.809 Y66.293 E0.0453
G1 X58.247 Y65.693 E0.0309
G1 X58.953 Y64.824 E0.0465
G1 X59.717 Y63.993 E0.0469
G1 X60.402 Y63.330 E0.0396
;PRINTING: diff_front_lock.stl
;PRINTING_ID: 0
G1 F2400 E-0.5000
G0 F4200 X63.059 Y77.115
;TYPE:WALL-INNER
;WIDTH:0.500
G1 F1500 E0.5000
G1 F1800 X63.074 Y77.324 E0.0087
G1 X60.966 Y77.845 E0.0903
G1 X60.414 Y78.061 E0.0246
G1 X59.991 Y78.350 E0.0213
G1 X59.641 Y78.687 E0.0202
G1 X59.456 Y78.946 E0.0132
G1 X59.296 Y78.911 E0.0068
G1 X59.164 Y78.016 E0.0376
G1 X59.106 Y77.319 E0.0291
G1 X59.085 Y76.651 E0.0278
G1 X59.094 Y76.206 E0.0185
G1 X59.247 Y76.145 E0.0068
G1 X59.416 Y76.317 E0.0100
G1 X59.827 Y76.593 E0.0206
G1 X60.281 Y76.786 E0.0205
G1 X60.703 Y76.873 E0.0179
G1 X63.059 Y77.115 E0.0985
G0 F4200 X63.449 Y76.653
G1 F1800 X63.986 Y76.580 E0.0225
G1 X64.406 Y76.417 E0.0187
G1 X64.878 Y76.077 E0.0242
G1 X65.230 Y75.616 E0.0241
G1 X65.390 Y75.250 E0.0166
G1 X65.637 Y74.330 E0.0396
G1 X65.881 Y73.685 E0.0287
G1 X66.084 Y73.722 E0.0086
G1 X66.084 Y79.385 E0.2354
G1 X65.888 Y79.427 E0.0083
G1 X65.691 Y78.988 E0.0200
G1 X65.511 Y78.687 E0.0146
G1 X65.262 Y78.397 E0.0159
G1 X64.947 Y78.134 E0.0171
G1 X64.454 Y77.880 E0.0231
G1 X63.896 Y77.754 E0.0238
G1 X63.347 Y77.771 E0.0228
G1 X61.118 Y78.322 E0.0955
G1 X60.649 Y78.506 E0.0209
G1 X60.308 Y78.739 E0.0172
G1 X60.021 Y79.015 E0.0166
G1 X59.786 Y79.344 E0.0168
G1 X59.615 Y79.701 E0.0165
G1 X59.509 Y80.085 E0.0166
G1 X59.473 Y80.481 E0.0165
G1 X59.507 Y80.881 E0.0167
G1 X59.290 Y80.924 E0.0092
G1 X59.151 Y80.493 E0.0188
G1 X58.887 Y79.448 E0.0448
G1 X58.759 Y78.760 E0.0291
G1 X58.667 Y78.070 E0.0289
G1 X58.607 Y77.348 E0.0301
G1 X58.585 Y76.654 E0.0289
G1 X58.599 Y75.929 E0.0301
G1 X58.646 Y75.246 E0.0285
G1 X58.773 Y74.295 E0.0399
G1 X59.004 Y74.320 E0.0097
G1 X58.994 Y74.551 E0.0096
G1 X59.142 Y75.135 E0.0250
G1 X59.433 Y75.622 E0.0236
G1 X59.737 Y75.930 E0.0180
G1 X60.066 Y76.151 E0.0165
G1 X60.431 Y76.306 E0.0165
G1 X60.779 Y76.378 E0.0148
G1 X63.449 Y76.653 E0.1116
G1 F2400 E-0.5000
G0 F4200 X58.185 Y76.648
G0 X58.085 Y76.657
;TYPE:WALL-OUTER
;WIDTH:0.500
G1 F1500 E0.5000
G1 F1800 X58.099 Y75.907 E0.0312
G1 X58.148 Y75.199 E0.0295
G1 X58.235 Y74.470 E0.0305
G1 X58.366 Y73.721 E0.0316
G1 X58.528 Y73.003 E0.0306
G1 X58.729 Y72.287 E0.0309
G1 X58.956 Y71.614 E0.0295
G1 X59.228 Y70.922 E0.0309
G1 X59.535 Y70.246 E0.0309
G1 X59.866 Y69.606 E0.0300
G1 X60.236 Y68.971 E0.0306
G1 X60.640 Y68.351 E0.0308
G1 X61.070 Y67.761 E0.0304
G1 X61.535 Y67.187 E0.0307
G1 X62.289 Y66.368 E0.0463
G1 X62.815 Y65.865 E0.0303
G1 X63.366 Y65.389 E0.0303
G1 X63.946 Y64.937 E0.0306
G1 X64.560 Y64.507 E0.0312
G1 X65.161 Y64.130 E0.0295
G1 X65.813 Y63.766 E0.0310
G1 X66.815 Y63.288 E0.0462
G1 X67.502 Y63.013 E0.0308
G1 X68.189 Y62.777 E0.0302
G1 X68.900 Y62.573 E0.0308
G1 X69.616 Y62.405 E0.0306
G1 X70.339 Y62.276 E0.0305
G1 X71.073 Y62.182 E0.0308
G1 X72.174 Y62.112 E0.0459
G1 X72.885 Y62.112 E0.0296
G1 X73.653 Y62.151 E0.0320
G1 X74.360 Y62.224 E0.0295
G1 X75.105 Y62.338 E0.0313
G1 X75.820 Y62.487 E0.0304
G1 X76.517 Y62.667 E0.0299
G1 X77.237 Y62.895 E0.0314
G1 X77.930 Y63.153 E0.0307
G1 X78.582 Y63.434 E0.0295
G1 X79.228 Y63.752 E0.0299
G1 X80.217 Y64.320 E0.0474
G1 X80.817 Y64.717 E0.0299
G1 X81.403 Y65.150 E0.0303
G1 X81.964 Y65.609 E0.0301
G1 X82.527 Y66.121 E0.0316
G1 X83.051 Y66.649 E0.0309
G1 X83.527 Y67.178 E0.0296
G1 X83.989 Y67.749 E0.0305
G1 X84.430 Y68.356 E0.0312
G1 X84.828 Y68.967 E0.0303
G1 X85.202 Y69.606 E0.0308
G1 X85.693 Y70.587 E0.0456
G1 X85.979 Y71.262 E0.0305
G1 X86.230 Y71.956 E0.0307
G1 X86.446 Y72.654 E0.0304
G1 X86.626 Y73.366 E0.0305
G1 X86.771 Y74.082 E0.0304
G1 X86.879 Y74.818 E0.0309
G1 X86.949 Y75.545 E0.0304
G1 X86.981 Y76.290 E0.0310
G1 X86.977 Y77.010 E0.0299
G1 X86.934 Y77.760 E0.0312
G1 X86.859 Y78.464 E0.0294
G1 X86.739 Y79.211 E0.0315
G1 X86.588 Y79.920 E0.0301
G1 X86.398 Y80.629 E0.0305
G1 X86.173 Y81.330 E0.0306
G1 X85.912 Y82.018 E0.0306
G1 X85.612 Y82.704 E0.0311
G1 X85.289 Y83.348 E0.0300
G1 X84.927 Y83.989 E0.0306
G1 X84.539 Y84.601 E0.0301
G1 X84.100 Y85.221 E0.0316
G1 X83.646 Y85.796 E0.0305
G1 X82.917 Y86.608 E0.0454
G1 X82.394 Y87.121 E0.0305
G1 X81.832 Y87.619 E0.0312
G1 X81.270 Y88.068 E0.0299
G1 X80.660 Y88.506 E0.0312
G1 X80.051 Y88.899 E0.0301
G1 X79.422 Y89.260 E0.0302
G1 X78.419 Y89.755 E0.0465
G1 X77.737 Y90.039 E0.0307
G1 X77.054 Y90.283 E0.0302
G1 X76.351 Y90.495 E0.0305
G1 X75.641 Y90.670 E0.0304
G1 X74.905 Y90.811 E0.0312
G1 X74.190 Y90.913 E0.0300
G1 X73.452 Y90.978 E0.0308
G1 X72.715 Y91.007 E0.0307
G1 X71.976 Y90.997 E0.0307
G1 X71.255 Y90.951 E0.0300
G1 X70.521 Y90.866 E0.0307
G1 X69.792 Y90.745 E0.0307
G1 X69.068 Y90.586 E0.0308
G1 X68.380 Y90.398 E0.0297
G1 X67.305 Y90.028 E0.0473
G1 X66.658 Y89.759 E0.0291
G1 X65.993 Y89.442 E0.0306
G1 X65.322 Y89.079 E0.0317
G1 X64.713 Y88.708 E0.0296
G1 X64.094 Y88.287 E0.0311
G1 X63.520 Y87.852 E0.0299
G1 X62.946 Y87.369 E0.0312
G1 X62.409 Y86.868 E0.0305
G1 X61.902 Y86.344 E0.0303
G1 X61.414 Y85.786 E0.0308
G1 X60.963 Y85.214 E0.0303
G1 X60.535 Y84.609 E0.0308
G1 X60.141 Y83.988 E0.0306
G1 X59.779 Y83.347 E0.0306
G1 X59.456 Y82.704 E0.0299
G1 X59.155 Y82.017 E0.0312
G1 X58.900 Y81.344 E0.0299
G1 X58.670 Y80.631 E0.0311
G1 X58.398 Y79.555 E0.0461
G1 X58.265 Y78.839 E0.0303
G1 X58.170 Y78.124 E0.0300
G1 X58.108 Y77.377 E0.0312
G1 X58.085 Y76.657 E0.0299
G1 F2400 E-0.5000
G0 F4200 X58.185 Y76.648
G0 X65.415 Y76.197
;TYPE:WALL-INNER
;WIDTH:0.500
G1 F1500 E0.5000
G1 F1800 X65.584 Y76.254 E0.0074
G1 X65.584 Y77.828 E0.0654
G1 X65.441 Y77.895 E0.0066
G1 X65.225 Y77.715 E0.0117
G1 X64.626 Y77.406 E0.0280
G1 X64.056 Y77.278 E0.0243
G1 X64.042 Y77.094 E0.0077
G1 X64.646 Y76.860 E0.0269
G1 X65.230 Y76.439 E0.0299
G1 X65.415 Y76.197 E0.0127
G1 F2400 E-0.5000
G0 F4200 X63.444 Y76.350
G0 X60.210 Y75.885
G0 X59.299 Y74.519
G0 X60.337 Y70.892
G0 X62.806 Y67.271
G0 X66.321 Y64.629
G0 X70.469 Y63.268
G0 X74.897 Y63.317
G0 X76.233 Y64.274
G0 X76.339 Y65.095
G0 X76.142 Y68.864
G1 F1500 E0.5000
G1 F1800 X76.312 Y68.941 E0.0078
G1 X76.215 Y69.608 E0.0280
G1 X75.596 Y69.608 E0.0257
G1 X75.537 Y69.445 E0.0072
G1 X75.919 Y69.124 E0.0207
G1 X76.142 Y68.864 E0.0142
G0 F4200 X75.829 Y68.460
G1 F1800 X76.078 Y67.994 E0.0220
G1 X76.716 Y65.787 E0.0955
G1 X76.787 Y65.292 E0.0208
G1 X76.760 Y64.880 E0.0172
G1 X76.662 Y64.493 E0.0166
G1 X76.496 Y64.126 E0.0167
G1 X76.273 Y63.801 E0.0164
G1 X75.999 Y63.519 E0.0163
G1 X75.667 Y63.285 E0.0169
G1 X75.300 Y63.113 E0.0169
G1 X75.370 Y62.904 E0.0092
G1 X75.706 Y62.974 E0.0143
G1 X76.379 Y63.148 E0.0289
G1 X77.074 Y63.368 E0.0303
G1 X77.744 Y63.617 E0.0297
G1 X78.373 Y63.888 E0.0285
G1 X78.993 Y64.194 E0.0287
G1 X79.954 Y64.746 E0.0461
G1 X80.530 Y65.127 E0.0287
G1 X81.364 Y65.764 E0.0436
G1 X81.227 Y65.954 E0.0097
G1 X81.037 Y65.832 E0.0094
G1 X80.468 Y65.674 E0.0246
G1 X79.898 Y65.677 E0.0237
G1 X79.481 Y65.786 E0.0179
G1 X79.122 Y65.963 E0.0166
G1 X78.805 Y66.202 E0.0165
G1 X78.570 Y66.463 E0.0146
G1 X76.995 Y68.641 E0.1117
G1 X76.787 Y69.147 E0.0227
G1 X76.722 Y69.594 E0.0188
G1 X76.773 Y70.108 E0.0215
G1 X69.695 Y70.108 E0.2943
G1 X69.652 Y69.914 E0.0083
G1 X69.817 Y69.837 E0.0076
G1 X70.490 Y69.604 E0.0296
G1 X70.960 Y69.483 E0.0202
G1 X71.700 Y69.358 E0.0312
G1 X72.428 Y69.309 E0.0303
G1 X72.906 Y69.319 E0.0199
G1 X73.851 Y69.416 E0.0395
G1 X74.224 Y69.411 E0.0155
G1 X74.765 Y69.286 E0.0231
G1 X75.251 Y69.032 E0.0228
G1 X75.566 Y68.768 E0.0171
G1 X75.829 Y68.460 E0.0168
G0 F4200 X76.603 Y67.980
G1 F1800 X77.206 Y65.892 E0.0904
G1 X77.289 Y65.311 E0.0244
G1 X77.256 Y64.802 E0.0212
G1 X77.136 Y64.327 E0.0204
G1 X77.005 Y64.039 E0.0132
G1 X77.118 Y63.918 E0.0069
G1 X77.558 Y64.081 E0.0195
G1 X78.163 Y64.342 E0.0274
G1 X78.758 Y64.635 E0.0276
G1 X79.552 Y65.092 E0.0381
G1 X79.530 Y65.256 E0.0069
G1 X79.305 Y65.315 E0.0097
G1 X78.859 Y65.535 E0.0207
G1 X78.466 Y65.832 E0.0205
G1 X78.181 Y66.148 E0.0177
G1 X76.790 Y68.071 E0.0987
G1 X76.603 Y67.980 E0.0086
G1 F2400 E-0.5000
G0 F4200 X79.939 Y65.979
G0 X81.307 Y66.363
G0 X83.960 Y69.463
G0 X85.628 Y73.487
G0 X85.949 Y77.508
G0 X85.072 Y81.428
G0 X82.821 Y85.223
G0 X81.324 Y85.904
G0 X77.754 Y84.483
G1 F1500 E0.5000
G1 F1800 X77.927 Y84.366 E0.0087
G1 X79.432 Y85.932 E0.0903
G1 X79.896 Y86.303 E0.0247
G1 X80.365 Y86.529 E0.0216
G1 X80.827 Y86.659 E0.0200
G1 X81.144 Y86.691 E0.0132
G1 X81.191 Y86.851 E0.0069
G1 X80.666 Y87.270 E0.0279
G1 X80.096 Y87.680 E0.0292
G1 X79.531 Y88.045 E0.0280
G1 X78.950 Y88.378 E0.0278
G1 X78.819 Y88.277 E0.0069
G1 X78.882 Y88.044 E0.0100
G1 X78.917 Y87.551 E0.0205
G1 X78.859 Y87.061 E0.0205
G1 X78.724 Y86.649 E0.0180
G1 X77.754 Y84.483 E0.0987
G0 F4200 X77.160 Y84.380
G1 F1800 X76.827 Y83.946 E0.0227
G1 X76.485 Y83.678 E0.0181
G1 X76.135 Y83.501 E0.0163
G1 X75.727 Y83.382 E0.0177
G1 X75.150 Y83.364 E0.0240
G1 X74.057 Y83.644 E0.0469
G1 X73.323 Y83.763 E0.0309
G1 X72.607 Y83.807 E0.0298
G1 X71.867 Y83.776 E0.0308
G1 X71.152 Y83.674 E0.0300
G1 X70.450 Y83.502 E0.0300
G1 X69.645 Y83.203 E0.0357
G1 X69.688 Y83.008 E0.0083
G1 X76.809 Y83.008 E0.2961
G1 X76.953 Y83.134 E0.0080
G1 X77.483 Y83.345 E0.0237
G1 X77.863 Y83.356 E0.0158
G1 X77.900 Y83.460 E0.0046
G1 X78.181 Y83.909 E0.0220
G1 X79.770 Y85.562 E0.0953
G1 X80.164 Y85.877 E0.0210
G1 X80.543 Y86.060 E0.0175
G1 X80.920 Y86.166 E0.0163
G1 X81.320 Y86.206 E0.0167
G1 X81.720 Y86.174 E0.0167
G1 X82.102 Y86.072 E0.0164
G1 X82.460 Y85.909 E0.0164
G1 X82.775 Y85.689 E0.0160
G1 X82.921 Y85.855 E0.0092
G1 X82.556 Y86.262 E0.0227
G1 X82.053 Y86.755 E0.0293
G1 X81.510 Y87.236 E0.0302
G1 X80.968 Y87.669 E0.0288
G1 X80.378 Y88.093 E0.0302
G1 X79.791 Y88.472 E0.0290
G1 X79.187 Y88.819 E0.0290
G1 X78.212 Y89.300 E0.0452
G1 X77.480 Y89.604 E0.0330
G1 X77.370 Y89.419 E0.0089
G1 X77.850 Y89.035 E0.0256
G1 X78.104 Y88.703 E0.0174
G1 X78.282 Y88.346 E0.0166
G1 X78.387 Y87.960 E0.0166
G1 X78.415 Y87.563 E0.0165
G1 X78.368 Y87.169 E0.0165
G1 X78.257 Y86.829 E0.0149
G1 X77.160 Y84.380 E0.1116
G1 F2400 E-0.5000
G0 F4200 X75.560 Y83.805
G0 X68.061 Y82.659
G0 X67.980 Y82.601
;TYPE:WALL-OUTER
;WIDTH:0.500
G1 F1500 E0.5000
G1 F1800 X68.061 Y82.508 E0.0051
G1 X76.997 Y82.508 E0.3715
G1 X77.218 Y82.701 E0.0122
G1 X77.586 Y82.848 E0.0165
G1 X77.912 Y82.857 E0.0136
G1 X78.216 Y82.761 E0.0133
G1 X78.249 Y82.947 E0.0079
G1 X78.353 Y83.242 E0.0130
G1 X78.577 Y83.600 E0.0176
G1 X80.108 Y85.192 E0.0918
G1 X80.432 Y85.451 E0.0172
G1 X80.721 Y85.591 E0.0134
G1 X81.013 Y85.673 E0.0126
G1 X81.325 Y85.704 E0.0130
G1 X81.635 Y85.679 E0.0129
G1 X81.933 Y85.600 E0.0128
G1 X82.211 Y85.473 E0.0127
G1 X82.466 Y85.295 E0.0129
G1 X82.672 Y85.090 E0.0121
G1 X83.140 Y84.499 E0.0313
G1 X83.558 Y83.910 E0.0300
G1 X83.935 Y83.309 E0.0295
G1 X84.293 Y82.664 E0.0307
G1 X84.608 Y82.015 E0.0300
G1 X84.886 Y81.357 E0.0297
G1 X85.233 Y80.338 E0.0448
G1 X85.425 Y79.624 E0.0307
G1 X85.570 Y78.929 E0.0295
G1 X85.681 Y78.214 E0.0301
G1 X85.750 Y77.495 E0.0300
G1 X85.783 Y76.760 E0.0306
G1 X85.775 Y76.046 E0.0297
G1 X85.689 Y74.959 E0.0453
G1 X85.580 Y74.239 E0.0303
G1 X85.434 Y73.532 E0.0300
G1 X85.254 Y72.846 E0.0295
G1 X85.029 Y72.145 E0.0306
G1 X84.774 Y71.483 E0.0295
G1 X84.472 Y70.811 E0.0306
G1 X84.142 Y70.168 E0.0300
G1 X83.791 Y69.568 E0.0289
G1 X83.377 Y68.941 E0.0312
G1 X82.952 Y68.369 E0.0296
G1 X82.263 Y67.561 E0.0441
G1 X81.744 Y67.031 E0.0308
G1 X81.186 Y66.521 E0.0314
G1 X80.831 Y66.294 E0.0175
G1 X80.401 Y66.174 E0.0186
G1 X79.964 Y66.177 E0.0182
G1 X79.656 Y66.257 E0.0132
G1 X79.385 Y66.391 E0.0126
G1 X79.144 Y66.572 E0.0125
G1 X78.960 Y66.777 E0.0115
G1 X77.435 Y68.886 E0.1082
G1 X77.273 Y69.280 E0.0177
G1 X77.226 Y69.605 E0.0137
G1 X77.269 Y70.042 E0.0183
G1 X77.391 Y70.339 E0.0133
G1 X77.273 Y70.387 E0.0053
G1 X77.059 Y70.541 E0.0110
G1 X77.005 Y70.608 E0.0036
G1 X68.064 Y70.608 E0.3717
G1 X68.011 Y70.542 E0.0035
G1 X67.822 Y70.406 E0.0097
G1 X68.247 Y70.103 E0.0217
G1 X68.921 Y69.702 E0.0326
G1 X69.629 Y69.373 E0.0325
G1 X70.345 Y69.125 E0.0315
G1 X70.856 Y68.993 E0.0219
G1 X71.642 Y68.861 E0.0331
