;Sliced by ideaMaker 4.3.2.6470, 2023-04-08 12:16:21 UTC+0200
;Dimension: 170.000 190.000 170.000 0.500
;Plate Shape: 0
;Origin Center: 0
;Extruder Offset #1: 25.000 0.000
;Filament Diameter #1: 1.750
;Filament Diameter #2: 1.750
;Filament Compensation #1: 100.00
;Filament Compensation #2: 90.00
;Filament Density #1: 1240.00
;Filament Density #2: 1240.00
;Filament Type #1: PLA
;Filament Type #2: 
;Filament Name #1: [FILOALFA] PLA 1.75mm
;Filament Name #2: 
;Firmware: Marlin
;Bounding Box: 39.208 89.108 42.388 88.288 0.000 8.000
;Model Gap: 0.000
M221 T0 S100.00
M140 S50.00
M104 T0 S200.00
M109 T0 S200.00
T0
M190 S50.00
G28 ; home all
M420 S1 ; Enable Bed leveling
G92 E0
G1 Z0.2 F1000
G1 X8.0 F2000
G1 Y60.0 E4.0 F1000.0 ; prime
G1 Y100.0 E8.5 F1000.0 ; prime
G92 E0
;TOTAL_NUM: 4
;PRINTING_TIME: 0
;REMAINING_TIME: 2247
M83
;LAYER:0
;Z:0.200
;HEIGHT:0.200
M106 S0
M140 S50
M104 T0 S200
;PRINTING: NON-OBJECT
;PRINTING_ID: -1
G1 F2400 E-0.5000
G0 F4200 X40.294 Y43.213
G0 F960 Z0.200
;TYPE:SKIRT
;WIDTH:0.500
G1 F1500 E0.5000
G1 F1800 X40.654 Y42.934 E0.0189
G1 X41.050 Y42.709 E0.0189
G1 X41.474 Y42.541 E0.0190
G1 X41.917 Y42.433 E0.0190
G1 X42.458 Y42.388 E0.0226
G1 X57.858 Y42.388 E0.6403
G1 X58.313 Y42.420 E0.0190
G1 X58.758 Y42.515 E0.0189
G1 X59.186 Y42.672 E0.0190
G1 X59.588 Y42.887 E0.0190
G1 X59.956 Y43.156 E0.0190
G1 X60.158 Y43.353 E0.0117
G1 X60.294 Y43.213 E0.0081
G1 X60.654 Y42.934 E0.0189
G1 X61.050 Y42.709 E0.0189
G1 X61.474 Y42.541 E0.0190
G1 X61.917 Y42.433 E0.0190
G1 X62.458 Y42.388 E0.0226
G1 X77.858 Y42.388 E0.6403
G1 X78.313 Y42.420 E0.0190
G1 X78.758 Y42.515 E0.0189
G1 X79.186 Y42.672 E0.0190
G1 X79.588 Y42.887 E0.0190
G1 X79.956 Y43.156 E0.0190
G1 X80.283 Y43.474 E0.0190
G1 X80.562 Y43.834 E0.0189
G1 X80.787 Y44.230 E0.0189
G1 X80.955 Y44.654 E0.0190
G1 X81.063 Y45.097 E0.0190
G1 X81.108 Y45.638 E0.0226
G1 X81.108 Y65.038 E0.8066
G1 X81.076 Y65.493 E0.0190
G1 X80.981 Y65.938 E0.0189
G1 X80.812 Y66.388 E0.0200
G1 X85.858 Y66.388 E0.2098
G1 X86.313 Y66.420 E0.0190
G1 X86.758 Y66.515 E0.0189
G1 X87.186 Y66.672 E0.0190
G1 X87.588 Y66.887 E0.0190
G1 X87.956 Y67.156 E0.0190
G1 X88.283 Y67.474 E0.0190
G1 X88.562 Y67.834 E0.0189
G1 X88.787 Y68.230 E0.0189
G1 X88.955 Y68.654 E0.0190
G1 X89.063 Y69.097 E0.0190
G1 X89.108 Y69.638 E0.0226
G1 X89.108 Y85.038 E0.6403
G1 X89.076 Y85.493 E0.0190
G1 X88.981 Y85.938 E0.0189
G1 X88.824 Y86.366 E0.0190
G1 X88.609 Y86.768 E0.0190
G1 X88.340 Y87.136 E0.0190
G1 X88.022 Y87.463 E0.0190
G1 X87.662 Y87.742 E0.0189
G1 X87.266 Y87.967 E0.0189
G1 X86.842 Y88.135 E0.0190
G1 X86.399 Y88.243 E0.0190
G1 X85.858 Y88.288 E0.0226
G1 X66.458 Y88.288 E0.8066
G1 X66.003 Y88.256 E0.0190
G1 X65.558 Y88.161 E0.0189
G1 X65.130 Y88.004 E0.0190
G1 X64.728 Y87.789 E0.0190
G1 X64.360 Y87.520 E0.0190
G1 X64.158 Y87.323 E0.0117
G1 X64.022 Y87.463 E0.0081
G1 X63.662 Y87.742 E0.0189
G1 X63.266 Y87.967 E0.0189
G1 X62.842 Y88.135 E0.0190
G1 X62.399 Y88.243 E0.0190
G1 X61.858 Y88.288 E0.0226
G1 X42.458 Y88.288 E0.8066
G1 X42.003 Y88.256 E0.0190
G1 X41.558 Y88.161 E0.0189
G1 X41.130 Y88.004 E0.0190
G1 X40.728 Y87.789 E0.0190
G1 X40.360 Y87.520 E0.0190
G1 X40.033 Y87.202 E0.0190
G1 X39.754 Y86.842 E0.0189
G1 X39.529 Y86.446 E0.0189
G1 X39.361 Y86.022 E0.0190
G1 X39.253 Y85.579 E0.0190
G1 X39.208 Y85.038 E0.0226
G1 X39.208 Y69.638 E0.6403
G1 X39.240 Y69.183 E0.0190
G1 X39.335 Y68.738 E0.0189
G1 X39.492 Y68.310 E0.0190
G1 X39.707 Y67.908 E0.0190
G1 X39.976 Y67.540 E0.0190
G1 X40.173 Y67.338 E0.0117
G1 X40.033 Y67.202 E0.0081
G1 X39.754 Y66.842 E0.0189
G1 X39.529 Y66.446 E0.0189
G1 X39.361 Y66.022 E0.0190
G1 X39.253 Y65.579 E0.0190
G1 X39.208 Y65.038 E0.0226
G1 X39.208 Y45.638 E0.8066
G1 X39.240 Y45.183 E0.0190
G1 X39.335 Y44.738 E0.0189
G1 X39.492 Y44.310 E0.0190
G1 X39.707 Y43.908 E0.0190
G1 X39.976 Y43.540 E0.0190
G1 X40.294 Y43.213 E0.0190
;PRINTING: diff-rear-gear-lock-TOOL.stl
;PRINTING_ID: 0
G1 F2400 E-0.5000
G0 F4200 X45.355 Y52.551
;TYPE:WALL-INNER
;WIDTH:0.500
G1 F1500 E0.5000
G1 F1800 X45.073 Y53.109 E0.0260
G1 X44.860 Y53.679 E0.0253
G1 X44.748 Y54.095 E0.0179
G1 X44.667 Y54.516 E0.0178
G1 X44.612 Y55.104 E0.0246
G1 X44.610 Y55.551 E0.0186
G1 X44.667 Y56.161 E0.0255
G1 X44.794 Y56.768 E0.0258
G1 X44.986 Y57.360 E0.0259
G1 X45.241 Y57.915 E0.0254
G1 X45.462 Y58.301 E0.0185
G1 X45.807 Y58.787 E0.0248
G1 X46.097 Y59.123 E0.0185
G1 X46.535 Y59.547 E0.0253
G1 X47.017 Y59.915 E0.0252
G1 X47.393 Y60.152 E0.0185
G1 X47.926 Y60.422 E0.0248
G1 X48.496 Y60.635 E0.0253
G1 X48.924 Y60.750 E0.0184
G1 X49.510 Y60.851 E0.0247
G1 X49.951 Y60.884 E0.0184
G1 X50.559 Y60.878 E0.0253
G1 X51.169 Y60.798 E0.0256
G1 X51.601 Y60.698 E0.0184
G1 X52.164 Y60.515 E0.0246
G1 X52.573 Y60.338 E0.0185
G1 X53.096 Y60.049 E0.0248
G1 X53.462 Y59.799 E0.0184
G1 X53.918 Y59.423 E0.0246
G1 X54.234 Y59.110 E0.0185
G1 X54.624 Y58.638 E0.0255
G1 X54.966 Y58.116 E0.0259
G1 X55.246 Y57.560 E0.0259
G1 X55.458 Y56.992 E0.0252
G1 X55.570 Y56.577 E0.0179
G1 X55.650 Y56.152 E0.0180
G1 X55.706 Y55.549 E0.0252
G1 X55.696 Y54.937 E0.0254
G1 X55.616 Y54.319 E0.0259
G1 X55.472 Y53.728 E0.0253
G1 X55.326 Y53.308 E0.0185
G1 X55.078 Y52.765 E0.0248
G1 X54.857 Y52.380 E0.0185
G1 X54.516 Y51.899 E0.0245
G1 X54.227 Y51.559 E0.0186
G1 X53.786 Y51.134 E0.0255
G1 X53.291 Y50.755 E0.0259
G1 X52.774 Y50.441 E0.0251
G1 X52.387 Y50.254 E0.0179
G1 X51.984 Y50.095 E0.0180
G1 X51.398 Y49.926 E0.0254
G1 X50.796 Y49.824 E0.0254
G1 X50.360 Y49.792 E0.0182
G1 X49.766 Y49.798 E0.0247
G1 X49.317 Y49.850 E0.0188
G1 X48.725 Y49.973 E0.0251
G1 X48.144 Y50.162 E0.0254
G1 X47.737 Y50.342 E0.0185
G1 X47.214 Y50.630 E0.0248
G1 X46.719 Y50.981 E0.0252
G1 X46.397 Y51.257 E0.0176
G1 X46.088 Y51.562 E0.0181
G1 X45.699 Y52.032 E0.0254
G1 X45.355 Y52.551 E0.0259
G0 F4200 X45.788 Y52.803
G1 F1800 X45.532 Y53.310 E0.0236
G1 X45.337 Y53.832 E0.0232
G1 X45.236 Y54.207 E0.0161
G1 X45.163 Y54.587 E0.0161
G1 X45.112 Y55.129 E0.0226
G1 X45.110 Y55.529 E0.0166
G1 X45.162 Y56.086 E0.0233
G1 X45.278 Y56.639 E0.0235
G1 X45.453 Y57.178 E0.0236
G1 X45.686 Y57.686 E0.0232
G1 X45.884 Y58.031 E0.0165
G1 X46.201 Y58.478 E0.0228
G1 X46.461 Y58.779 E0.0165
G1 X46.862 Y59.167 E0.0232
G1 X47.303 Y59.504 E0.0231
G1 X47.640 Y59.717 E0.0166
G1 X48.127 Y59.963 E0.0227
G1 X48.649 Y60.158 E0.0232
G1 X49.032 Y60.261 E0.0165
G1 X49.572 Y60.354 E0.0228
G1 X49.967 Y60.384 E0.0165
G1 X50.524 Y60.378 E0.0232
G1 X51.080 Y60.305 E0.0233
G1 X51.467 Y60.216 E0.0165
G1 X51.987 Y60.047 E0.0227
G1 X52.352 Y59.889 E0.0165
G1 X52.833 Y59.623 E0.0229
G1 X53.161 Y59.399 E0.0165
G1 X53.582 Y59.052 E0.0227
G1 X53.864 Y58.772 E0.0165
G1 X54.221 Y58.341 E0.0233
G1 X54.532 Y57.866 E0.0236
G1 X54.787 Y57.360 E0.0236
G1 X54.981 Y56.839 E0.0231
G1 X55.082 Y56.465 E0.0161
G1 X55.154 Y56.082 E0.0162
G1 X55.206 Y55.530 E0.0231
G1 X55.197 Y54.973 E0.0232
G1 X55.124 Y54.411 E0.0236
G1 X54.992 Y53.870 E0.0232
G1 X54.861 Y53.494 E0.0166
G1 X54.633 Y52.994 E0.0228
G1 X54.435 Y52.650 E0.0165
G1 X54.121 Y52.206 E0.0226
G1 X53.862 Y51.902 E0.0166
G1 X53.459 Y51.513 E0.0233
G1 X53.009 Y51.168 E0.0236
G1 X52.535 Y50.881 E0.0230
G1 X52.186 Y50.712 E0.0161
G1 X51.823 Y50.569 E0.0162
G1 X51.287 Y50.414 E0.0232
G1 X50.736 Y50.321 E0.0232
G1 X50.344 Y50.292 E0.0163
G1 X49.797 Y50.298 E0.0227
G1 X49.397 Y50.344 E0.0167
G1 X48.854 Y50.457 E0.0231
G1 X48.323 Y50.630 E0.0232
G1 X47.959 Y50.791 E0.0165
G1 X47.480 Y51.054 E0.0227
G1 X47.027 Y51.376 E0.0231
G1 X46.735 Y51.625 E0.0160
G1 X46.457 Y51.900 E0.0163
G1 X46.101 Y52.330 E0.0232
G1 X45.788 Y52.803 E0.0236
G1 F2400 E-0.5000
G0 F4200 X47.680 Y51.402
G0 X47.746 Y51.478
;TYPE:WALL-OUTER
;WIDTH:0.500
G1 F1500 E0.5000
G1 F1800 X47.335 Y51.771 E0.0210
G1 X47.073 Y51.994 E0.0143
G1 X46.826 Y52.238 E0.0144
G1 X46.503 Y52.628 E0.0211
G1 X46.221 Y53.054 E0.0212
G1 X45.991 Y53.510 E0.0212
G1 X45.814 Y53.985 E0.0211
G1 X45.724 Y54.319 E0.0144
G1 X45.659 Y54.658 E0.0144
G1 X45.612 Y55.154 E0.0207
G1 X45.610 Y55.507 E0.0147
G1 X45.657 Y56.011 E0.0210
G1 X45.762 Y56.510 E0.0212
G1 X45.920 Y56.996 E0.0212
G1 X46.131 Y57.457 E0.0211
G1 X46.306 Y57.761 E0.0146
G1 X46.595 Y58.169 E0.0208
G1 X46.825 Y58.435 E0.0146
G1 X47.189 Y58.787 E0.0211
G1 X47.589 Y59.093 E0.0209
G1 X47.887 Y59.281 E0.0146
G1 X48.328 Y59.504 E0.0205
G1 X48.802 Y59.681 E0.0210
G1 X49.140 Y59.772 E0.0146
G1 X49.634 Y59.857 E0.0208
G1 X49.983 Y59.884 E0.0146
G1 X50.488 Y59.878 E0.0210
G1 X50.992 Y59.812 E0.0211
G1 X51.334 Y59.734 E0.0146
G1 X51.810 Y59.579 E0.0208
G1 X52.131 Y59.440 E0.0145
G1 X52.570 Y59.197 E0.0209
G1 X52.860 Y58.999 E0.0146
G1 X53.246 Y58.681 E0.0208
G1 X53.495 Y58.434 E0.0146
G1 X53.818 Y58.044 E0.0211
G1 X54.098 Y57.616 E0.0213
G1 X54.328 Y57.160 E0.0212
G1 X54.504 Y56.686 E0.0210
G1 X54.594 Y56.353 E0.0143
G1 X54.658 Y56.012 E0.0144
G1 X54.706 Y55.510 E0.0210
G1 X54.698 Y55.009 E0.0208
G1 X54.632 Y54.503 E0.0212
G1 X54.512 Y54.012 E0.0210
G1 X54.396 Y53.680 E0.0146
G1 X54.188 Y53.223 E0.0209
G1 X54.013 Y52.920 E0.0145
G1 X53.726 Y52.513 E0.0207
G1 X53.497 Y52.245 E0.0147
G1 X53.132 Y51.892 E0.0211
G1 X52.727 Y51.582 E0.0212
G1 X52.296 Y51.321 E0.0209
G1 X51.985 Y51.170 E0.0144
G1 X51.662 Y51.043 E0.0144
G1 X51.176 Y50.902 E0.0210
G1 X50.676 Y50.818 E0.0211
G1 X50.328 Y50.792 E0.0145
G1 X49.828 Y50.798 E0.0208
G1 X49.477 Y50.838 E0.0147
G1 X48.983 Y50.941 E0.0210
G1 X48.502 Y51.098 E0.0210
G1 X48.180 Y51.240 E0.0146
G1 X47.746 Y51.478 E0.0206
G1 F2400 E-0.5000
G0 F4200 X47.680 Y51.402
G0 X46.048 Y52.954
G0 X45.688 Y54.405
G0 X43.708 Y63.788
;TYPE:WALL-INNER
;WIDTH:0.500
G1 F1500 E0.5000
G1 F1800 X43.708 Y46.888 E0.7026
G1 X56.608 Y46.888 E0.5363
G1 X56.608 Y63.788 E0.7026
G1 X43.708 Y63.788 E0.5363
G0 F4200 X43.208 Y64.288
G1 F1800 X43.208 Y46.388 E0.7442
G1 X57.108 Y46.388 E0.5779
G1 X57.108 Y64.288 E0.7442
G1 X43.208 Y64.288 E0.5779
G1 F2400 E-0.5000
G0 F4200 X42.708 Y64.788
;TYPE:WALL-OUTER
;WIDTH:0.500
G1 F1500 E0.5000
G1 F1800 X42.708 Y45.888 E0.7858
G1 X57.608 Y45.888 E0.6195
G1 X57.608 Y64.788 E0.7858
G1 X42.708 Y64.788 E0.6195
G1 F2400 E-0.5000
G0 F4200 X42.718 Y64.688
G0 X44.117 Y63.562
;TYPE:SOLID-FILL
;WIDTH:0.500
G1 F1500 E0.5000
G1 F1800 X43.933 Y63.378 E0.0108
G0 F4200 X43.933 Y62.671
G1 F1800 X44.824 Y63.562 E0.0524
G0 F4200 X45.531 Y63.562
G1 F1800 X43.933 Y61.964 E0.0940
G0 F4200 X43.933 Y61.257
G1 F1800 X46.238 Y63.562 E0.1355
G0 F4200 X46.945 Y63.562
G1 F1800 X43.933 Y60.550 E0.1771
G0 F4200 X43.933 Y59.843
G1 F1800 X47.652 Y63.562 E0.2187
G0 F4200 X48.359 Y63.562
G1 F1800 X43.933 Y59.136 E0.2602
G0 F4200 X43.933 Y58.428
G1 F1800 X49.066 Y63.562 E0.3018
G0 F4200 X49.773 Y63.562
G1 F1800 X43.933 Y57.721 E0.3434
G0 F4200 X43.933 Y57.014
G1 F1800 X45.180 Y58.262 E0.0733
G1 F2400 E-0.5000
G0 F4200 X44.637 Y57.011
G1 F1500 E0.5000
G1 F1800 X44.017 Y56.391 E0.0365
G1 F2400 E-0.5000
G0 F4200 X47.239 Y60.321
G1 F1500 E0.5000
G1 F1800 X50.481 Y63.562 E0.1906
G0 F4200 X51.188 Y63.562
G1 F1800 X48.491 Y60.866 E0.1585
G0 F4200 X49.390 Y61.057
G1 F1800 X51.895 Y63.562 E0.1473
G0 F4200 X52.602 Y63.562
G1 F1800 X50.147 Y61.107 E0.1443
G0 F4200 X50.817 Y61.070
G1 F1800 X53.309 Y63.562 E0.1465
G0 F4200 X54.016 Y63.562
G1 F1800 X51.423 Y60.969 E0.1525
G0 F4200 X51.973 Y60.812
G1 F1800 X54.723 Y63.562 E0.1617
G0 F4200 X55.430 Y63.562
G1 F1800 X52.487 Y60.619 E0.1730
G0 F4200 X52.957 Y60.381
G1 F1800 X56.137 Y63.562 E0.1870
G0 F4200 X56.383 Y63.100
G1 F1800 X53.397 Y60.115 E0.1755
G0 F4200 X53.800 Y59.811
G1 F1800 X56.383 Y62.393 E0.1518
G0 F4200 X56.383 Y61.686
G1 F1800 X54.178 Y59.481 E0.1296
G0 F4200 X54.520 Y59.116
G1 F1800 X56.383 Y60.979 E0.1095
G0 F4200 X56.383 Y60.272
G1 F1800 X54.835 Y58.724 E0.0910
G0 F4200 X55.115 Y58.297
G1 F1800 X56.383 Y59.565 E0.0746
G0 F4200 X56.383 Y58.858
G1 F1800 X55.359 Y57.834 E0.0602
G0 F4200 X55.568 Y57.336
G1 F1800 X56.383 Y58.151 E0.0479
G0 F4200 X56.383 Y57.443
G1 F1800 X55.884 Y56.591 E0.0377
G1 X56.383 Y56.736 E0.0216
G1 F2400 E-0.5000
G0 F4200 X51.880 Y59.766
G0 X49.610 Y60.055
G0 X47.882 Y59.409
G0 X44.438 Y56.373
;TYPE:SOLID-FILL
;WIDTH:0.407
G1 F1500 E0.5000
G1 F1800 X44.241 Y56.214 E0.0086
G1 X44.213 Y56.191 E0.0012
;WIDTH:0.458
G1 X44.186 Y56.169 E0.0013
G1 X44.159 Y55.581 E0.0224
;WIDTH:0.405
G1 X44.159 Y55.561 E0.0007
G1 X44.160 Y55.091 E0.0158
G1 X44.160 Y55.073 E0.0006
;WIDTH:0.460
G1 X44.173 Y54.782 E0.0111
G1 X44.187 Y54.491 E0.0111
G1 X44.222 Y54.462 E0.0017
;WIDTH:0.359
G1 X44.242 Y54.446 E0.0008
G1 X44.454 Y54.286 E0.0079
G0 F4200 X44.015 Y54.269
;TYPE:SOLID-FILL
;WIDTH:0.500
G1 F1800 X44.228 Y54.127 E0.0048
G1 X43.933 Y53.479 E0.0296
G0 F4200 X43.933 Y52.772
G1 F1800 X44.679 Y53.518 E0.0439
G0 F4200 X44.873 Y53.005
G1 F1800 X43.933 Y52.064 E0.0553
G0 F4200 X43.933 Y51.357
G1 F1800 X45.110 Y52.535 E0.0692
G0 F4200 X45.383 Y52.101
G1 F1800 X43.933 Y50.650 E0.0853
G0 F4200 X43.933 Y49.943
G1 F1800 X45.685 Y51.695 E0.1030
G0 F4200 X46.014 Y51.317
G1 F1800 X43.933 Y49.236 E0.1224
G0 F4200 X43.933 Y48.529
G1 F1800 X46.379 Y50.975 E0.1438
G0 F4200 X46.775 Y50.664
G1 F1800 X43.933 Y47.822 E0.1671
G0 F4200 X43.933 Y47.115
G1 F1800 X47.198 Y50.380 E0.1920
G0 F4200 X47.656 Y50.131
G1 F1800 X44.638 Y47.113 E0.1774
G0 F4200 X45.345 Y47.113
G1 F1800 X48.153 Y49.921 E0.1651
G0 F4200 X48.688 Y49.749
G1 F1800 X46.052 Y47.113 E0.1550
G0 F4200 X46.759 Y47.113
G1 F1800 X49.273 Y49.626 E0.1478
G0 F4200 X49.924 Y49.571
G1 F1800 X47.466 Y47.113 E0.1445
G0 F4200 X48.173 Y47.113
G1 F1800 X50.648 Y49.587 E0.1455
G0 F4200 X51.484 Y49.716
G1 F1800 X48.880 Y47.113 E0.1531
G0 F4200 X49.587 Y47.113
G1 F1800 X52.567 Y50.092 E0.1752
G1 F2400 E-0.5000
G0 F4200 X52.416 Y47.113
G1 F1500 E0.5000
G1 F1800 X56.382 Y51.079 E0.2332
G0 F4200 X56.382 Y51.786
G1 F1800 X51.709 Y47.113 E0.2748
G0 F4200 X51.002 Y47.113
G1 F1800 X56.382 Y52.493 E0.3163
G0 F4200 X56.382 Y53.200
G1 F1800 X50.295 Y47.113 E0.3579
G1 F2400 E-0.5000
G0 F4200 X53.123 Y47.113
G1 F1500 E0.5000
G1 F1800 X56.382 Y50.372 E0.1916
G0 F4200 X56.382 Y49.665
G1 F1800 X53.830 Y47.113 E0.1500
G0 F4200 X54.537 Y47.113
G1 F1800 X56.382 Y48.957 E0.1084
G0 F4200 X56.382 Y48.250
G1 F1800 X55.244 Y47.113 E0.0669
G0 F4200 X55.951 Y47.113
G1 F1800 X56.382 Y47.543 E0.0253
G1 F2400 E-0.5000
G0 F4200 X55.395 Y52.920
G1 F1500 E0.5000
G1 F1800 X56.382 Y53.907 E0.0580
G0 F4200 X55.898 Y54.131
G1 F1800 X55.768 Y54.001 E0.0076
G0 F4200 X55.843 Y54.116
;TYPE:SOLID-FILL
;WIDTH:0.332
G1 F1800 X56.026 Y54.251 E0.0063
;WIDTH:0.489
G1 X56.113 Y54.314 E0.0044
G1 X56.132 Y54.603 E0.0118
G1 X56.151 Y54.892 E0.0118
;WIDTH:0.414
G1 X56.151 Y54.915 E0.0008
G1 X56.156 Y55.555 E0.0220
G1 X56.156 Y55.577 E0.0008
G1 X56.128 Y56.185 E0.0210
G1 X56.103 Y56.206 E0.0011
G1 X56.083 Y56.222 E0.0009
G1 X55.860 Y56.390 E0.0096
;PRINTING: diff-rear-gear-lock-TOOL(1).stl
;PRINTING_ID: 2
G1 F2400 E-0.5000
G0 F4200 X65.355 Y52.551
;TYPE:WALL-INNER
;WIDTH:0.500
G1 F1500 E0.5000
G1 F1800 X65.073 Y53.109 E0.0260
G1 X64.860 Y53.679 E0.0253
G1 X64.748 Y54.095 E0.0179
G1 X64.667 Y54.516 E0.0178
G1 X64.612 Y55.104 E0.0246
G1 X64.610 Y55.551 E0.0186
G1 X64.667 Y56.161 E0.0255
G1 X64.794 Y56.768 E0.0258
G1 X64.986 Y57.360 E0.0259
G1 X65.241 Y57.915 E0.0254
G1 X65.462 Y58.301 E0.0185
G1 X65.807 Y58.787 E0.0248
G1 X66.097 Y59.123 E0.0185
G1 X66.535 Y59.547 E0.0253
G1 X67.017 Y59.915 E0.0252
G1 X67.393 Y60.152 E0.0185
G1 X67.926 Y60.422 E0.0248
G1 X68.496 Y60.635 E0.0253
G1 X68.924 Y60.750 E0.0184
G1 X69.510 Y60.851 E0.0247
G1 X69.951 Y60.884 E0.0184
G1 X70.559 Y60.878 E0.0253
G1 X71.169 Y60.798 E0.0256
G1 X71.601 Y60.698 E0.0184
G1 X72.164 Y60.515 E0.0246
G1 X72.573 Y60.338 E0.0185
G1 X73.096 Y60.049 E0.0248
G1 X73.462 Y59.799 E0.0184
G1 X73.918 Y59.423 E0.0246
G1 X74.234 Y59.110 E0.0185
G1 X74.624 Y58.638 E0.0255
G1 X74.966 Y58.116 E0.0259
G1 X75.246 Y57.560 E0.0259
G1 X75.458 Y56.992 E0.0252
G1 X75.570 Y56.577 E0.0179
G1 X75.650 Y56.152 E0.0180
G1 X75.706 Y55.549 E0.0252
G1 X75.696 Y54.937 E0.0254
G1 X75.616 Y54.319 E0.0259
G1 X75.472 Y53.728 E0.0253
G1 X75.326 Y53.308 E0.0185
G1 X75.078 Y52.765 E0.0248
G1 X74.857 Y52.380 E0.0185
G1 X74.516 Y51.899 E0.0245
G1 X74.227 Y51.559 E0.0186
G1 X73.786 Y51.134 E0.0255
G1 X73.291 Y50.755 E0.0259
G1 X72.774 Y50.441 E0.0251
