;Sliced by ideaMaker 4.3.2.6470, 2023-04-08 18:24:36 UTC+0200
;Dimension: 170.000 190.000 170.000 0.500
;Plate Shape: 0
;Origin Center: 0
;Extruder Offset #1: 25.000 0.000
;Filament Diameter #1: 1.750
;Filament Diameter #2: 1.750
;Filament Compensation #1: 100.00
;Filament Compensation #2: 90.00
;Filament Density #1: 1240.00
;Filament Density #2: 1240.00
;Filament Type #1: PLA
;Filament Type #2: 
;Filament Name #1: [FILOALFA] PLA 1.75mm
;Filament Name #2: 
;Firmware: Marlin
;Bounding Box: 50.697 86.112 59.521 94.874 0.000 8.000
;Model Gap: 0.000
M221 T0 S100.00
M140 S50.00
M104 T0 S200.00
M109 T0 S200.00
T0
M190 S50.00
G28 ; home all
M420 S1 ; Enable Bed leveling
G92 E0
G1 Z0.2 F1000
G1 X8.0 F2000
G1 Y60.0 E4.0 F1000.0 ; prime
G1 Y100.0 E8.5 F1000.0 ; prime
G92 E0
;TOTAL_NUM: 1
;PRINTING_TIME: 0
;REMAINING_TIME: 1442
M83
;LAYER:0
;Z:0.200
;HEIGHT:0.200
M106 S0
M140 S50
M104 T0 S200
;PRINTING: NON-OBJECT
;PRINTING_ID: -1
G1 F2400 E-0.5000
G0 F4200 X55.849 Y64.751
G0 F960 Z0.200
;TYPE:SKIRT
;WIDTH:0.500
G1 F1500 E0.5000
G1 F1800 X56.223 Y64.490 E0.0190
G1 X56.629 Y64.283 E0.0189
G1 X57.060 Y64.136 E0.0189
G1 X57.508 Y64.050 E0.0190
G1 X57.654 Y64.043 E0.0061
G1 X57.722 Y63.809 E0.0101
G1 X57.910 Y63.394 E0.0189
G1 X58.154 Y63.009 E0.0190
G1 X58.449 Y62.662 E0.0189
G1 X58.790 Y62.360 E0.0189
G1 X59.072 Y62.166 E0.0142
G1 X59.680 Y61.831 E0.0289
G1 X60.110 Y61.679 E0.0190
G1 X60.557 Y61.589 E0.0190
G1 X61.012 Y61.562 E0.0189
G1 X61.466 Y61.599 E0.0189
G1 X61.617 Y61.633 E0.0064
G1 X61.747 Y61.425 E0.0102
G1 X62.041 Y61.076 E0.0190
G1 X62.380 Y60.771 E0.0190
G1 X62.758 Y60.517 E0.0189
G1 X63.168 Y60.318 E0.0189
G1 X63.728 Y60.141 E0.0244
G1 X64.174 Y60.049 E0.0189
G1 X64.629 Y60.020 E0.0190
G1 X65.083 Y60.055 E0.0189
G1 X65.528 Y60.153 E0.0189
G1 X65.955 Y60.312 E0.0189
G1 X66.084 Y60.382 E0.0061
G1 X66.260 Y60.221 E0.0099
G1 X66.636 Y59.964 E0.0189
G1 X67.044 Y59.762 E0.0189
G1 X67.477 Y59.619 E0.0190
G1 X67.926 Y59.537 E0.0190
G1 X68.565 Y59.521 E0.0266
G1 X69.019 Y59.559 E0.0189
G1 X69.463 Y59.659 E0.0189
G1 X69.889 Y59.821 E0.0189
G1 X70.289 Y60.041 E0.0190
G1 X70.720 Y60.382 E0.0228
G1 X70.937 Y60.273 E0.0101
G1 X71.368 Y60.127 E0.0189
G1 X71.816 Y60.042 E0.0190
G1 X72.271 Y60.021 E0.0189
G1 X72.725 Y60.064 E0.0190
G1 X73.074 Y60.141 E0.0149
G1 X73.734 Y60.360 E0.0289
G1 X74.138 Y60.573 E0.0190
G1 X74.507 Y60.840 E0.0189
G1 X74.836 Y61.155 E0.0189
G1 X75.117 Y61.514 E0.0190
G1 X75.187 Y61.634 E0.0058
G1 X75.428 Y61.587 E0.0102
G1 X75.883 Y61.562 E0.0189
G1 X76.337 Y61.602 E0.0189
G1 X76.781 Y61.705 E0.0189
G1 X77.206 Y61.869 E0.0189
G1 X77.730 Y62.166 E0.0250
G1 X78.101 Y62.431 E0.0190
G1 X78.431 Y62.745 E0.0189
G1 X78.714 Y63.102 E0.0189
G1 X78.945 Y63.495 E0.0190
G1 X79.118 Y63.917 E0.0190
G1 X79.150 Y64.044 E0.0054
G1 X79.389 Y64.063 E0.0100
G1 X79.834 Y64.162 E0.0190
G1 X80.260 Y64.322 E0.0189
G1 X80.661 Y64.540 E0.0190
G1 X81.026 Y64.812 E0.0189
G1 X81.449 Y65.237 E0.0249
G1 X81.736 Y65.591 E0.0189
G1 X81.970 Y65.982 E0.0189
G1 X82.147 Y66.402 E0.0189
G1 X82.263 Y66.843 E0.0190
G1 X82.317 Y67.296 E0.0190
G1 X82.314 Y67.434 E0.0057
G1 X82.548 Y67.520 E0.0104
G1 X82.949 Y67.736 E0.0189
G1 X83.316 Y68.006 E0.0189
G1 X83.642 Y68.325 E0.0190
G1 X83.920 Y68.686 E0.0189
G1 X84.099 Y68.991 E0.0147
G1 X84.389 Y69.622 E0.0289
G1 X84.509 Y70.062 E0.0190
G1 X84.566 Y70.514 E0.0189
G1 X84.559 Y70.970 E0.0190
G1 X84.489 Y71.420 E0.0189
G1 X84.449 Y71.551 E0.0057
G1 X84.643 Y71.691 E0.0099
G1 X84.971 Y72.007 E0.0189
G1 X85.253 Y72.365 E0.0189
G1 X85.481 Y72.760 E0.0190
G1 X85.652 Y73.182 E0.0189
G1 X85.793 Y73.763 E0.0249
G1 X85.854 Y74.215 E0.0190
G1 X85.852 Y74.671 E0.0190
G1 X85.785 Y75.122 E0.0190
G1 X85.656 Y75.559 E0.0189
G1 X85.468 Y75.974 E0.0189
G1 X85.393 Y76.092 E0.0058
G1 X85.543 Y76.281 E0.0100
G1 X85.774 Y76.674 E0.0190
G1 X85.948 Y77.095 E0.0189
G1 X86.062 Y77.536 E0.0189
G1 X86.112 Y77.989 E0.0189
G1 X86.107 Y78.353 E0.0151
G1 X86.026 Y79.044 E0.0289
G1 X85.899 Y79.482 E0.0190
G1 X85.713 Y79.898 E0.0189
G1 X85.470 Y80.283 E0.0189
G1 X85.176 Y80.631 E0.0189
G1 X85.075 Y80.721 E0.0056
G1 X85.170 Y80.948 E0.0102
G1 X85.286 Y81.388 E0.0189
G1 X85.339 Y81.841 E0.0190
G1 X85.329 Y82.297 E0.0190
G1 X85.254 Y82.747 E0.0190
G1 X85.155 Y83.083 E0.0146
G1 X84.894 Y83.720 E0.0286
G1 X84.655 Y84.108 E0.0189
G1 X84.363 Y84.459 E0.0190
G1 X84.026 Y84.765 E0.0189
G1 X83.649 Y85.021 E0.0189
G1 X83.521 Y85.084 E0.0059
G1 X83.552 Y85.331 E0.0103
G1 X83.545 Y85.787 E0.0190
G1 X83.475 Y86.237 E0.0189
G1 X83.342 Y86.673 E0.0190
G1 X83.150 Y87.086 E0.0189
G1 X82.831 Y87.573 E0.0242
G1 X82.544 Y87.927 E0.0189
G1 X82.210 Y88.237 E0.0189
G1 X81.836 Y88.498 E0.0190
G1 X81.430 Y88.704 E0.0189
G1 X80.998 Y88.850 E0.0190
G1 X80.846 Y88.879 E0.0064
G1 X80.809 Y89.123 E0.0103
G1 X80.680 Y89.559 E0.0189
G1 X80.490 Y89.974 E0.0190
G1 X80.244 Y90.358 E0.0190
G1 X79.947 Y90.703 E0.0189
G1 X79.694 Y90.934 E0.0142
G1 X79.135 Y91.349 E0.0289
G1 X78.730 Y91.557 E0.0189
G1 X78.299 Y91.706 E0.0190
G1 X77.852 Y91.794 E0.0189
G1 X77.397 Y91.819 E0.0189
G1 X77.249 Y91.806 E0.0062
G1 X77.152 Y92.024 E0.0099
G1 X76.909 Y92.411 E0.0190
G1 X76.616 Y92.759 E0.0189
G1 X76.276 Y93.063 E0.0190
G1 X75.897 Y93.316 E0.0189
G1 X75.579 Y93.476 E0.0148
G1 X74.928 Y93.724 E0.0290
G1 X74.481 Y93.814 E0.0190
G1 X74.026 Y93.841 E0.0189
G1 X73.572 Y93.804 E0.0189
G1 X73.127 Y93.703 E0.0190
G1 X72.995 Y93.653 E0.0059
G1 X72.839 Y93.840 E0.0101
G1 X72.502 Y94.146 E0.0189
G1 X72.125 Y94.402 E0.0189
G1 X71.715 Y94.603 E0.0190
G1 X71.282 Y94.745 E0.0189
G1 X70.690 Y94.845 E0.0250
G1 X70.235 Y94.874 E0.0190
G1 X69.781 Y94.839 E0.0189
G1 X69.335 Y94.741 E0.0190
G1 X68.908 Y94.582 E0.0189
G1 X68.508 Y94.364 E0.0189
G1 X68.400 Y94.284 E0.0056
G1 X68.200 Y94.422 E0.0101
G1 X67.792 Y94.626 E0.0190
G1 X67.360 Y94.771 E0.0189
G1 X66.912 Y94.853 E0.0189
G1 X66.456 Y94.873 E0.0190
G1 X65.875 Y94.813 E0.0243
G1 X65.429 Y94.720 E0.0189
G1 X65.000 Y94.566 E0.0190
G1 X64.597 Y94.354 E0.0189
G1 X64.227 Y94.087 E0.0190
G1 X63.899 Y93.771 E0.0189
G1 X63.806 Y93.652 E0.0063
G1 X63.573 Y93.732 E0.0102
G1 X63.126 Y93.818 E0.0189
G1 X62.670 Y93.840 E0.0190
G1 X62.217 Y93.799 E0.0189
G1 X61.773 Y93.694 E0.0190
G1 X61.444 Y93.572 E0.0146
G1 X60.819 Y93.265 E0.0289
G1 X60.448 Y93.000 E0.0190
G1 X60.118 Y92.686 E0.0189
G1 X59.835 Y92.329 E0.0189
G1 X59.605 Y91.936 E0.0189
G1 X59.551 Y91.805 E0.0059
G1 X59.310 Y91.819 E0.0100
G1 X58.856 Y91.781 E0.0189
G1 X58.412 Y91.680 E0.0189
G1 X57.986 Y91.518 E0.0189
G1 X57.586 Y91.298 E0.0190
G1 X57.108 Y90.934 E0.0250
G1 X56.777 Y90.621 E0.0189
G1 X56.492 Y90.265 E0.0190
G1 X56.259 Y89.873 E0.0190
G1 X56.084 Y89.452 E0.0190
G1 X55.970 Y89.011 E0.0189
G1 X55.955 Y88.878 E0.0056
G1 X55.716 Y88.826 E0.0102
G1 X55.289 Y88.667 E0.0189
G1 X54.889 Y88.450 E0.0189
G1 X54.522 Y88.178 E0.0190
G1 X54.197 Y87.859 E0.0189
G1 X53.840 Y87.385 E0.0247
G1 X53.605 Y86.995 E0.0189
G1 X53.427 Y86.576 E0.0189
G1 X53.309 Y86.135 E0.0190
G1 X53.253 Y85.683 E0.0189
G1 X53.262 Y85.227 E0.0190
G1 X53.284 Y85.090 E0.0058
G1 X53.064 Y84.973 E0.0104
G1 X52.696 Y84.704 E0.0190
G1 X52.369 Y84.387 E0.0189
G1 X52.089 Y84.027 E0.0190
G1 X51.863 Y83.631 E0.0190
G1 X51.650 Y83.090 E0.0242
G1 X51.526 Y82.651 E0.0190
G1 X51.466 Y82.199 E0.0190
G1 X51.469 Y81.743 E0.0190
G1 X51.535 Y81.292 E0.0190
G1 X51.665 Y80.855 E0.0190
G1 X51.727 Y80.719 E0.0062
G1 X51.552 Y80.552 E0.0101
G1 X51.269 Y80.194 E0.0190
G1 X51.039 Y79.801 E0.0189
G1 X50.867 Y79.379 E0.0189
G1 X50.755 Y78.937 E0.0190
G1 X50.711 Y78.579 E0.0150
G1 X50.697 Y77.883 E0.0289
G1 X50.762 Y77.432 E0.0189
G1 X50.890 Y76.995 E0.0189
G1 X51.078 Y76.580 E0.0189
G1 X51.322 Y76.195 E0.0190
G1 X51.411 Y76.091 E0.0057
G1 X51.287 Y75.883 E0.0101
G1 X51.111 Y75.463 E0.0189
G1 X50.996 Y75.022 E0.0189
G1 X50.944 Y74.569 E0.0190
G1 X50.956 Y74.113 E0.0190
G1 X51.058 Y73.527 E0.0247
G1 X51.182 Y73.089 E0.0189
G1 X51.365 Y72.672 E0.0189
G1 X51.606 Y72.284 E0.0190
G1 X51.898 Y71.935 E0.0189
G1 X52.236 Y71.629 E0.0190
G1 X52.355 Y71.549 E0.0060
G1 X52.291 Y71.310 E0.0103
G1 X52.236 Y70.857 E0.0190
G1 X52.245 Y70.402 E0.0189
G1 X52.318 Y69.952 E0.0190
G1 X52.453 Y69.517 E0.0189
G1 X52.704 Y68.991 E0.0242
G1 X52.941 Y68.601 E0.0190
G1 X53.231 Y68.249 E0.0190
G1 X53.566 Y67.941 E0.0189
G1 X53.942 Y67.682 E0.0190
G1 X54.349 Y67.479 E0.0189
G1 X54.489 Y67.433 E0.0061
G1 X54.492 Y67.185 E0.0103
G1 X54.561 Y66.734 E0.0190
G1 X54.693 Y66.298 E0.0189
G1 X54.884 Y65.884 E0.0190
G1 X55.132 Y65.501 E0.0190
G1 X55.516 Y65.062 E0.0242
G1 X55.849 Y64.751 E0.0189
;PRINTING: diff_rear_gear.stl
;PRINTING_ID: 0
G1 F2400 E-0.5000
G0 F4200 X61.601 Y70.454
;TYPE:WALL-INNER
;WIDTH:0.500
G1 F1500 E0.5000
G1 F1800 X61.601 Y84.054 E0.5654
G1 X75.201 Y84.054 E0.5654
G1 X75.201 Y70.454 E0.5654
G1 X61.601 Y70.454 E0.5654
G0 F4200 X62.101 Y70.954
G1 F1800 X62.101 Y83.554 E0.5238
G1 X74.701 Y83.554 E0.5238
G1 X74.701 Y70.954 E0.5238
G1 X62.101 Y70.954 E0.5238
G1 F2400 E-0.5000
G0 F4200 X62.601 Y71.454
;TYPE:WALL-OUTER
;WIDTH:0.500
G1 F1500 E0.5000
G1 F1800 X62.601 Y83.054 E0.4823
G1 X74.201 Y83.054 E0.4823
G1 X74.201 Y71.454 E0.4823
G1 X62.601 Y71.454 E0.4823
G1 F2400 E-0.5000
G0 F4200 X62.611 Y71.354
G0 X74.342 Y71.313
G0 X78.277 Y81.112
;TYPE:WALL-INNER
;WIDTH:0.500
G1 F1500 E0.5000
G1 F1800 X78.081 Y81.276 E0.0106
G1 X77.041 Y83.301 E0.0946
G1 X75.093 Y85.405 E0.1192
G1 X72.642 Y86.910 E0.1196
G1 X69.869 Y87.697 E0.1198
G1 X67.000 Y87.706 E0.1193
G1 X64.240 Y86.943 E0.1191
G1 X61.814 Y85.481 E0.1178
G1 X59.813 Y83.375 E0.1208
G1 X58.479 Y80.824 E0.1197
G1 X57.882 Y78.015 E0.1194
G1 X58.069 Y75.148 E0.1194
G1 X59.017 Y72.442 E0.1192
G1 X60.876 Y69.787 E0.1348
G1 X61.100 Y69.731 E0.0096
G1 X62.886 Y68.265 E0.0961
G1 X65.516 Y67.111 E0.1194
G1 X68.079 Y66.750 E0.1076
G1 X69.310 Y66.835 E0.0513
G1 X71.211 Y67.091 E0.0797
G1 X73.850 Y68.225 E0.1194
G1 X76.083 Y70.031 E0.1194
G1 X77.748 Y72.371 E0.1194
G1 X78.718 Y75.072 E0.1193
G1 X78.923 Y77.938 E0.1195
G1 X78.277 Y81.112 E0.1347
G0 F4200 X78.479 Y81.595
G1 F1800 X77.454 Y83.590 E0.0932
G1 X75.413 Y85.795 E0.1249
G1 X72.845 Y87.372 E0.1253
G1 X69.939 Y88.197 E0.1256
G1 X66.933 Y88.206 E0.1250
G1 X64.041 Y87.407 E0.1247
G1 X61.498 Y85.874 E0.1235
G1 X59.402 Y83.669 E0.1265
G1 X58.004 Y80.995 E0.1254
G1 X57.379 Y78.051 E0.1251
G1 X57.575 Y75.047 E0.1252
G1 X58.568 Y72.212 E0.1249
G1 X60.361 Y69.651 E0.1300
G1 X60.257 Y69.568 E0.0055
G1 X60.290 Y69.417 E0.0064
G1 X60.870 Y69.273 E0.0248
G1 X62.622 Y67.835 E0.0942
G1 X65.378 Y66.625 E0.1251
G1 X68.320 Y66.211 E0.1235
G1 X68.315 Y66.265 E0.0023
G1 X69.361 Y66.337 E0.0436
G1 X71.346 Y66.605 E0.0833
G1 X74.111 Y67.793 E0.1251
G1 X76.451 Y69.685 E0.1251
G1 X78.195 Y72.137 E0.1251
G1 X79.212 Y74.968 E0.1251
G1 X79.427 Y77.971 E0.1252
G1 X78.802 Y81.039 E0.1302
G1 X78.903 Y81.065 E0.0043
G1 X78.936 Y81.213 E0.0063
G1 X78.479 Y81.595 E0.0248
G1 F2400 E-0.5000
G0 F4200 X78.877 Y81.914
;TYPE:WALL-OUTER
;WIDTH:0.500
G1 F1500 E0.5000
G1 F1800 X78.061 Y83.503 E0.0743
G1 X78.982 Y84.055 E0.0446
G1 X79.146 Y84.201 E0.0091
G1 X79.424 Y84.514 E0.0174
G1 X79.774 Y85.024 E0.0257
G1 X79.909 Y85.286 E0.0123
G1 X79.823 Y85.409 E0.0062
G1 X79.539 Y85.370 E0.0119
G1 X78.932 Y85.208 E0.0261
G1 X78.548 Y85.053 E0.0172
G1 X78.283 Y84.897 E0.0128
G1 X77.522 Y84.253 E0.0414
G1 X76.013 Y85.883 E0.0923
G1 X76.697 Y86.589 E0.0409
G1 X76.874 Y86.842 E0.0128
G1 X77.056 Y87.219 E0.0174
G1 X77.257 Y87.810 E0.0260
G1 X77.315 Y88.093 E0.0120
G1 X77.199 Y88.187 E0.0062
G1 X76.936 Y88.074 E0.0119
G1 X76.391 Y87.752 E0.0263
G1 X76.068 Y87.502 E0.0170
G1 X75.908 Y87.345 E0.0093
G1 X75.289 Y86.458 E0.0450
G1 X73.403 Y87.616 E0.0920
G1 X73.873 Y88.487 E0.0411
G1 X73.972 Y88.776 E0.0127
G1 X74.046 Y89.181 E0.0171
G1 X74.081 Y89.812 E0.0263
G1 X74.061 Y90.096 E0.0118
G1 X73.923 Y90.156 E0.0063
G1 X73.702 Y89.977 E0.0118
G1 X73.264 Y89.520 E0.0263
G1 X73.014 Y89.184 E0.0174
G1 X72.909 Y88.998 E0.0089
G1 X72.551 Y87.975 E0.0451
G1 X70.427 Y88.578 E0.0918
G1 X70.653 Y89.628 E0.0447
G1 X70.658 Y89.841 E0.0089
G1 X70.619 Y90.268 E0.0178
G1 X70.484 Y90.870 E0.0256
G1 X70.386 Y91.145 E0.0121
G1 X70.237 Y91.166 E0.0063
G1 X70.070 Y90.930 E0.0120
G1 X69.778 Y90.385 E0.0257
G1 X69.626 Y89.991 E0.0176
G1 X69.562 Y89.696 E0.0125
G1 X69.510 Y88.698 E0.0415
G1 X67.290 Y88.705 E0.0923
G1 X67.241 Y89.694 E0.0412
G1 X67.176 Y89.992 E0.0127
G1 X67.025 Y90.385 E0.0175
G1 X66.732 Y90.930 E0.0257
G1 X66.565 Y91.166 E0.0120
G1 X66.416 Y91.145 E0.0063
G1 X66.318 Y90.870 E0.0121
G1 X66.183 Y90.268 E0.0256
G1 X66.144 Y89.847 E0.0176
G1 X66.149 Y89.630 E0.0090
G1 X66.376 Y88.571 E0.0450
G1 X64.248 Y87.983 E0.0918
G1 X63.895 Y88.995 E0.0446
G1 X63.788 Y89.184 E0.0090
G1 X63.538 Y89.520 E0.0174
G1 X63.100 Y89.977 E0.0263
G1 X62.879 Y90.156 E0.0118
G1 X62.741 Y90.096 E0.0063
G1 X62.721 Y89.812 E0.0118
G1 X62.756 Y89.181 E0.0263
G1 X62.830 Y88.776 E0.0171
G1 X62.929 Y88.487 E0.0127
G1 X63.406 Y87.608 E0.0416
G1 X61.509 Y86.464 E0.0921
G1 X60.894 Y87.345 E0.0447
G1 X60.738 Y87.498 E0.0091
G1 X60.406 Y87.756 E0.0175
G1 X59.864 Y88.075 E0.0261
G1 X59.604 Y88.187 E0.0118
G1 X59.487 Y88.092 E0.0063
G1 X59.545 Y87.810 E0.0120
G1 X59.746 Y87.219 E0.0260
G1 X59.929 Y86.842 E0.0174
G1 X60.102 Y86.592 E0.0126
G1 X60.804 Y85.869 E0.0419
G1 X59.278 Y84.264 E0.0921
G1 X58.446 Y84.948 E0.0448
G1 X58.261 Y85.051 E0.0088
G1 X57.870 Y85.208 E0.0175
G1 X57.263 Y85.370 E0.0261
G1 X56.982 Y85.408 E0.0118
G1 X56.896 Y85.286 E0.0062
G1 X57.028 Y85.026 E0.0121
G1 X57.378 Y84.514 E0.0258
G1 X57.651 Y84.206 E0.0171
G1 X57.822 Y84.055 E0.0095
G1 X58.749 Y83.499 E0.0449
G1 X57.726 Y81.542 E0.0918
G1 X56.745 Y81.976 E0.0446
G1 X56.534 Y82.025 E0.0090
G1 X56.106 Y82.073 E0.0179
G1 X55.489 Y82.064 E0.0257
G1 X55.204 Y82.024 E0.0120
G1 X55.153 Y81.883 E0.0062
G1 X55.352 Y81.669 E0.0121
G1 X55.827 Y81.272 E0.0257
G1 X56.175 Y81.048 E0.0172
G1 X56.463 Y80.918 E0.0131
G1 X57.424 Y80.669 E0.0413
G1 X56.964 Y78.502 E0.0921
G1 X55.900 Y78.655 E0.0447
G1 X55.688 Y78.648 E0.0088
G1 X55.271 Y78.580 E0.0176
G1 X54.669 Y78.402 E0.0261
G1 X54.406 Y78.287 E0.0119
G1 X54.395 Y78.137 E0.0063
G1 X54.645 Y77.984 E0.0122
G1 X55.203 Y77.732 E0.0255
G1 X55.608 Y77.608 E0.0176
G1 X55.915 Y77.562 E0.0129
G1 X56.909 Y77.580 E0.0413
G1 X57.053 Y75.363 E0.0924
G1 X56.077 Y75.249 E0.0409
G1 X55.777 Y75.162 E0.0130
G1 X55.391 Y74.982 E0.0177
G1 X54.868 Y74.654 E0.0257
G1 X54.646 Y74.473 E0.0119
G1 X54.677 Y74.325 E0.0063
G1 X54.953 Y74.248 E0.0119
G1 X55.573 Y74.154 E0.0261
G1 X55.993 Y74.143 E0.0175
G1 X56.210 Y74.165 E0.0091
G1 X57.249 Y74.464 E0.0449
G1 X57.980 Y72.378 E0.0919
G1 X56.993 Y71.956 E0.0446
G1 X56.814 Y71.838 E0.0089
G1 X56.497 Y71.567 E0.0173
G1 X56.072 Y71.100 E0.0263
G1 X55.906 Y70.864 E0.0120
G1 X55.975 Y70.731 E0.0062
G1 X56.263 Y70.730 E0.0120
G1 X56.885 Y70.807 E0.0261
G1 X57.281 Y70.907 E0.0170
G1 X57.573 Y71.029 E0.0132
G1 X58.412 Y71.563 E0.0413
G1 X59.683 Y69.748 E0.0921
G1 X58.843 Y69.073 E0.0448
G1 X58.707 Y68.915 E0.0087
G1 X58.467 Y68.553 E0.0181
G1 X58.191 Y68.004 E0.0255
G1 X58.094 Y67.730 E0.0121
G1 X58.197 Y67.621 E0.0062
G1 X58.471 Y67.697 E0.0118
G1 X59.054 Y67.941 E0.0263
G1 X59.406 Y68.143 E0.0169
G1 X59.653 Y68.338 E0.0131
G1 X60.182 Y68.929 E0.0330
G1 X60.640 Y68.815 E0.0196
G1 X62.036 Y67.669 E0.0751
G1 X61.450 Y66.872 E0.0411
G1 X61.312 Y66.598 E0.0128
G1 X61.182 Y66.200 E0.0174
G1 X61.064 Y65.593 E0.0257
G1 X61.045 Y65.303 E0.0121
G1 X61.174 Y65.225 E0.0063
G1 X61.427 Y65.379 E0.0123
G1 X61.909 Y65.760 E0.0255
G1 X62.205 Y66.062 E0.0176
G1 X62.335 Y66.231 E0.0089
G1 X62.831 Y67.197 E0.0451
G1 X64.850 Y66.311 E0.0917
G1 X64.487 Y65.302 E0.0446
G1 X64.452 Y65.096 E0.0087
G1 X64.432 Y64.659 E0.0182
G1 X64.484 Y64.042 E0.0257
G1 X64.543 Y63.762 E0.0119
G1 X64.688 Y63.721 E0.0063
G1 X64.885 Y63.932 E0.0120
G1 X65.249 Y64.433 E0.0257
G1 X65.450 Y64.799 E0.0174
G1 X65.559 Y65.089 E0.0129
G1 X65.742 Y66.069 E0.0414
G1 X67.936 Y65.760 E0.0921
G1 X67.856 Y64.684 E0.0449
G1 X67.879 Y64.478 E0.0086
G1 X67.978 Y64.058 E0.0179
G1 X68.192 Y63.477 E0.0257
G1 X68.326 Y63.220 E0.0120
G1 X68.476 Y63.220 E0.0062
G1 X68.608 Y63.475 E0.0119
G1 X68.827 Y64.062 E0.0260
