;Sliced by ideaMaker 4.3.2.6470, 2023-03-26 11:12:12 UTC+0200
;Dimension: 170.000 190.000 170.000 0.500
;Plate Shape: 0
;Origin Center: 0
;Extruder Offset #1: 25.000 0.000
;Filament Diameter #1: 1.750
;Filament Diameter #2: 1.750
;Filament Compensation #1: 100.00
;Filament Compensation #2: 90.00
;Filament Density #1: 1220.00
;Filament Density #2: 1240.00
;Filament Type #1: FILOFLEX
;Filament Type #2: 
;Filament Name #1: [FILOALFA] FILOFLEX 1.75mm
;Filament Name #2: 
;Firmware: Marlin
;Bounding Box: 36.015 133.985 46.015 143.985 0.000 14.000
;Model Gap: 0.000
M221 T0 S100.00
M140 S50.00
M104 T0 S230.00
M109 T0 S230.00
T0
M190 S50.00
G28 ; home all
M420 S1 ; Enable Bed leveling
G92 E0
G1 Z0.2 F1000
G1 X8.0 F2000
G1 Y60.0 E4.0 F1000.0 ; prime
G1 Y100.0 E8.5 F1000.0 ; prime
G92 E0
;TOTAL_NUM: 1
;PRINTING_TIME: 0
;REMAINING_TIME: 17732
M83
;LAYER:0
;Z:0.200
;HEIGHT:0.200
M106 S0
;PRINTING: NON-OBJECT
;PRINTING_ID: -1
G0 F6000 X52.563 Y58.012
G0 F960 Z0.200
G0 F6000 X52.697 Y58.160
;TYPE:SKIRT
;WIDTH:0.500
G1 F900 X53.057 Y57.880 E0.0190
G1 X53.453 Y57.653 E0.0190
G1 X53.876 Y57.484 E0.0189
G1 X54.318 Y57.376 E0.0189
G1 X54.595 Y57.348 E0.0116
G1 X54.743 Y56.948 E0.0177
G1 X54.960 Y56.547 E0.0190
G1 X55.230 Y56.180 E0.0189
G1 X55.549 Y55.855 E0.0189
G1 X56.423 Y55.196 E0.0455
G1 X57.557 Y54.406 E0.0575
G1 X58.624 Y53.705 E0.0531
G1 X59.594 Y53.105 E0.0474
G1 X59.997 Y52.893 E0.0189
G1 X60.427 Y52.739 E0.0190
G1 X60.873 Y52.648 E0.0189
G1 X61.328 Y52.619 E0.0190
G1 X61.856 Y52.671 E0.0221
G1 X61.926 Y52.500 E0.0077
G1 X62.156 Y52.106 E0.0190
G1 X62.439 Y51.749 E0.0189
G1 X62.769 Y51.434 E0.0190
G1 X63.140 Y51.169 E0.0190
G1 X63.456 Y50.998 E0.0149
G1 X65.154 Y50.201 E0.0780
G1 X67.066 Y49.399 E0.0862
G1 X67.721 Y49.180 E0.0287
G1 X68.171 Y49.109 E0.0189
G1 X68.627 Y49.100 E0.0190
G1 X69.080 Y49.156 E0.0190
G1 X69.309 Y49.218 E0.0099
G1 X69.584 Y48.894 E0.0177
G1 X69.925 Y48.591 E0.0190
G1 X70.304 Y48.339 E0.0189
G1 X70.715 Y48.142 E0.0189
G1 X71.611 Y47.864 E0.0390
G1 X72.734 Y47.560 E0.0484
G1 X74.129 Y47.221 E0.0597
G1 X75.447 Y46.944 E0.0560
G1 X75.898 Y46.882 E0.0189
G1 X76.354 Y46.884 E0.0190
G1 X76.805 Y46.949 E0.0189
G1 X77.242 Y47.077 E0.0189
G1 X77.728 Y47.309 E0.0224
G1 X77.855 Y47.170 E0.0078
G1 X78.206 Y46.879 E0.0190
G1 X78.594 Y46.640 E0.0189
G1 X79.011 Y46.457 E0.0189
G1 X79.450 Y46.335 E0.0189
G1 X79.808 Y46.282 E0.0150
G1 X81.540 Y46.125 E0.0723
G1 X82.502 Y46.064 E0.0401
G1 X83.935 Y46.015 E0.0596
G1 X84.390 Y46.032 E0.0189
G1 X84.839 Y46.112 E0.0190
G1 X85.272 Y46.254 E0.0189
G1 X85.681 Y46.455 E0.0189
G1 X85.916 Y46.615 E0.0118
G1 X86.285 Y46.406 E0.0176
G1 X86.709 Y46.238 E0.0190
G1 X87.152 Y46.131 E0.0189
G1 X87.606 Y46.087 E0.0190
G1 X87.928 Y46.095 E0.0134
G1 X89.597 Y46.217 E0.0696
G1 X90.726 Y46.336 E0.0472
G1 X92.447 Y46.574 E0.0722
G1 X92.893 Y46.668 E0.0189
G1 X93.322 Y46.824 E0.0190
G1 X93.724 Y47.038 E0.0189
G1 X94.093 Y47.306 E0.0190
G1 X94.476 Y47.695 E0.0227
G1 X94.646 Y47.605 E0.0080
G1 X95.075 Y47.452 E0.0189
G1 X95.521 Y47.360 E0.0189
G1 X95.976 Y47.331 E0.0190
G1 X96.431 Y47.366 E0.0190
G1 X96.711 Y47.421 E0.0119
G1 X98.235 Y47.821 E0.0655
G1 X99.346 Y48.147 E0.0481
G1 X100.753 Y48.606 E0.0615
G1 X101.176 Y48.777 E0.0190
G1 X101.570 Y49.006 E0.0189
G1 X101.928 Y49.288 E0.0189
G1 X102.243 Y49.617 E0.0189
G1 X102.407 Y49.845 E0.0117
G1 X102.831 Y49.772 E0.0179
G1 X103.287 Y49.760 E0.0190
G1 X103.740 Y49.811 E0.0190
G1 X104.181 Y49.926 E0.0189
G1 X104.448 Y50.028 E0.0119
G1 X105.188 Y50.353 E0.0336
G1 X106.517 Y50.978 E0.0611
G1 X107.653 Y51.552 E0.0529
G1 X108.576 Y52.047 E0.0435
G1 X108.962 Y52.290 E0.0190
G1 X109.309 Y52.585 E0.0189
G1 X109.613 Y52.925 E0.0190
G1 X109.865 Y53.304 E0.0189
G1 X110.087 Y53.793 E0.0223
G1 X110.273 Y53.768 E0.0078
G1 X110.729 Y53.770 E0.0190
G1 X111.180 Y53.837 E0.0190
G1 X111.617 Y53.966 E0.0189
G1 X112.032 Y54.154 E0.0189
G1 X112.335 Y54.341 E0.0148
G1 X113.854 Y55.397 E0.0769
G1 X114.807 Y56.109 E0.0495
G1 X115.680 Y56.796 E0.0462
G1 X116.017 Y57.103 E0.0190
G1 X116.308 Y57.454 E0.0190
G1 X116.547 Y57.842 E0.0189
G1 X116.729 Y58.260 E0.0190
G1 X116.801 Y58.521 E0.0113
G1 X117.220 Y58.597 E0.0177
G1 X117.652 Y58.740 E0.0189
G1 X118.061 Y58.943 E0.0190
G1 X118.437 Y59.201 E0.0190
G1 X119.176 Y59.887 E0.0419
G1 X120.066 Y60.775 E0.0523
G1 X121.087 Y61.855 E0.0618
G1 X121.846 Y62.704 E0.0473
G1 X122.125 Y63.065 E0.0190
G1 X122.351 Y63.461 E0.0190
G1 X122.519 Y63.884 E0.0189
G1 X122.626 Y64.327 E0.0189
G1 X122.667 Y64.852 E0.0219
G1 X122.855 Y64.893 E0.0080
G1 X123.282 Y65.051 E0.0189
G1 X123.683 Y65.267 E0.0189
G1 X124.050 Y65.538 E0.0190
G1 X124.376 Y65.857 E0.0190
G1 X124.596 Y66.135 E0.0147
G1 X125.414 Y67.294 E0.0590
G1 X125.991 Y68.157 E0.0432
G1 X126.882 Y69.575 E0.0696
G1 X127.097 Y69.977 E0.0190
G1 X127.253 Y70.405 E0.0189
G1 X127.348 Y70.851 E0.0190
G1 X127.380 Y71.305 E0.0189
G1 X127.360 Y71.596 E0.0121
G1 X127.730 Y71.814 E0.0179
G1 X128.087 Y72.097 E0.0189
G1 X128.401 Y72.427 E0.0189
G1 X128.666 Y72.798 E0.0190
G1 X129.158 Y73.760 E0.0449
G1 X129.653 Y74.822 E0.0487
G1 X130.127 Y75.907 E0.0492
G1 X130.667 Y77.247 E0.0601
G1 X130.807 Y77.681 E0.0190
G1 X130.884 Y78.130 E0.0189
G1 X130.899 Y78.585 E0.0189
G1 X130.849 Y79.038 E0.0189
G1 X130.704 Y79.558 E0.0224
G1 X130.861 Y79.657 E0.0077
G1 X131.209 Y79.952 E0.0190
G1 X131.512 Y80.292 E0.0189
G1 X131.764 Y80.672 E0.0190
G1 X131.961 Y81.083 E0.0189
G1 X132.075 Y81.424 E0.0149
G1 X132.531 Y83.098 E0.0721
G1 X133.001 Y85.159 E0.0879
G1 X133.066 Y85.482 E0.0137
G1 X133.123 Y85.934 E0.0189
G1 X133.116 Y86.390 E0.0190
G1 X133.046 Y86.840 E0.0189
G1 X132.913 Y87.276 E0.0190
G1 X132.810 Y87.497 E0.0101
G1 X133.082 Y87.824 E0.0177
G1 X133.321 Y88.212 E0.0189
G1 X133.504 Y88.630 E0.0190
G1 X133.626 Y89.069 E0.0189
G1 X133.745 Y90.001 E0.0391
G1 X133.861 Y91.315 E0.0548
G1 X133.941 Y92.591 E0.0532
G1 X133.985 Y93.938 E0.0560
G1 X133.968 Y94.393 E0.0189
G1 X133.888 Y94.842 E0.0190
G1 X133.745 Y95.275 E0.0190
G1 X133.543 Y95.684 E0.0190
G1 X133.233 Y96.118 E0.0222
G1 X133.350 Y96.269 E0.0079
G1 X133.575 Y96.665 E0.0189
G1 X133.743 Y97.089 E0.0190
G1 X133.851 Y97.532 E0.0190
G1 X133.895 Y97.986 E0.0190
G1 X133.886 Y98.334 E0.0145
G1 X133.779 Y99.664 E0.0555
G1 X133.655 Y100.785 E0.0469
G1 X133.426 Y102.444 E0.0696
G1 X133.333 Y102.890 E0.0189
G1 X133.177 Y103.319 E0.0190
G1 X132.964 Y103.722 E0.0190
G1 X132.696 Y104.090 E0.0189
G1 X132.493 Y104.301 E0.0122
G1 X132.637 Y104.703 E0.0178
G1 X132.728 Y105.150 E0.0190
G1 X132.757 Y105.605 E0.0190
G1 X132.721 Y106.059 E0.0189
G1 X132.475 Y107.128 E0.0456
G1 X132.116 Y108.457 E0.0572
G1 X131.724 Y109.762 E0.0567
G1 X131.394 Y110.763 E0.0438
G1 X131.221 Y111.184 E0.0189
G1 X130.991 Y111.578 E0.0190
G1 X130.708 Y111.935 E0.0189
G1 X130.378 Y112.250 E0.0190
G1 X129.938 Y112.551 E0.0222
G1 X129.995 Y112.728 E0.0077
G1 X130.071 Y113.177 E0.0189
G1 X130.084 Y113.633 E0.0190
G1 X130.033 Y114.085 E0.0189
G1 X129.920 Y114.527 E0.0190
G1 X129.789 Y114.857 E0.0148
G1 X128.998 Y116.567 E0.0783
G1 X128.134 Y118.249 E0.0786
G1 X127.940 Y118.603 E0.0168
G1 X127.694 Y118.986 E0.0189
G1 X127.396 Y119.331 E0.0190
G1 X127.053 Y119.631 E0.0189
G1 X126.671 Y119.881 E0.0190
G1 X126.448 Y119.985 E0.0102
G1 X126.444 Y120.417 E0.0180
G1 X126.377 Y120.868 E0.0190
G1 X126.247 Y121.305 E0.0190
G1 X126.058 Y121.720 E0.0190
G1 X125.910 Y121.965 E0.0119
G1 X125.467 Y122.629 E0.0332
G1 X124.617 Y123.835 E0.0613
G1 X123.856 Y124.852 E0.0528
G1 X123.203 Y125.680 E0.0438
G1 X122.896 Y126.017 E0.0190
G1 X122.545 Y126.308 E0.0190
G1 X122.157 Y126.547 E0.0189
G1 X121.740 Y126.729 E0.0189
G1 X121.225 Y126.861 E0.0221
G1 X121.218 Y127.049 E0.0078
G1 X121.137 Y127.497 E0.0189
G1 X120.993 Y127.930 E0.0190
G1 X120.790 Y128.338 E0.0189
G1 X120.533 Y128.714 E0.0189
G1 X120.311 Y128.965 E0.0139
G1 X119.403 Y129.890 E0.0539
G1 X118.377 Y130.873 E0.0591
G1 X117.302 Y131.840 E0.0601
G1 X116.943 Y132.120 E0.0189
G1 X116.547 Y132.347 E0.0190
G1 X116.124 Y132.517 E0.0190
G1 X115.681 Y132.625 E0.0190
G1 X115.402 Y132.653 E0.0117
G1 X115.253 Y133.055 E0.0178
G1 X115.036 Y133.456 E0.0190
G1 X114.766 Y133.822 E0.0189
G1 X114.446 Y134.147 E0.0190
G1 X113.577 Y134.804 E0.0453
G1 X112.443 Y135.594 E0.0575
G1 X111.376 Y136.295 E0.0531
G1 X110.406 Y136.895 E0.0474
G1 X110.003 Y137.107 E0.0189
G1 X109.573 Y137.261 E0.0190
G1 X109.127 Y137.352 E0.0189
G1 X108.672 Y137.381 E0.0190
G1 X108.144 Y137.329 E0.0221
G1 X108.074 Y137.500 E0.0077
G1 X107.844 Y137.894 E0.0190
G1 X107.561 Y138.251 E0.0189
G1 X107.231 Y138.566 E0.0190
G1 X106.860 Y138.831 E0.0190
G1 X106.544 Y139.002 E0.0149
G1 X104.846 Y139.799 E0.0780
G1 X102.934 Y140.601 E0.0862
G1 X102.279 Y140.820 E0.0287
G1 X101.829 Y140.891 E0.0189
G1 X101.373 Y140.900 E0.0190
G1 X100.920 Y140.844 E0.0190
G1 X100.691 Y140.782 E0.0099
G1 X100.416 Y141.106 E0.0177
G1 X100.075 Y141.409 E0.0190
G1 X99.696 Y141.661 E0.0189
G1 X99.285 Y141.858 E0.0189
G1 X98.389 Y142.136 E0.0390
G1 X97.266 Y142.440 E0.0484
G1 X95.871 Y142.779 E0.0597
G1 X94.553 Y143.056 E0.0560
G1 X94.102 Y143.118 E0.0189
G1 X93.646 Y143.116 E0.0190
G1 X93.195 Y143.051 E0.0189
G1 X92.758 Y142.923 E0.0189
G1 X92.272 Y142.691 E0.0224
G1 X92.145 Y142.830 E0.0078
G1 X91.794 Y143.121 E0.0190
G1 X91.406 Y143.360 E0.0189
G1 X90.989 Y143.543 E0.0189
G1 X90.550 Y143.665 E0.0189
G1 X90.192 Y143.718 E0.0150
G1 X88.368 Y143.882 E0.0761
G1 X87.498 Y143.936 E0.0362
G1 X86.065 Y143.985 E0.0596
G1 X85.610 Y143.968 E0.0189
G1 X85.161 Y143.888 E0.0190
G1 X84.728 Y143.746 E0.0189
G1 X84.319 Y143.545 E0.0189
G1 X84.087 Y143.387 E0.0117
G1 X83.718 Y143.596 E0.0176
G1 X83.294 Y143.764 E0.0190
G1 X82.851 Y143.872 E0.0190
G1 X82.397 Y143.916 E0.0190
G1 X81.058 Y143.840 E0.0558
G1 X79.304 Y143.667 E0.0733
G1 X77.552 Y143.426 E0.0735
G1 X77.106 Y143.332 E0.0189
G1 X76.678 Y143.176 E0.0189
G1 X76.275 Y142.962 E0.0190
G1 X75.907 Y142.693 E0.0190
G1 X75.525 Y142.305 E0.0226
G1 X75.354 Y142.395 E0.0080
G1 X74.925 Y142.548 E0.0189
G1 X74.479 Y142.640 E0.0189
G1 X74.024 Y142.669 E0.0190
G1 X73.569 Y142.634 E0.0190
G1 X73.239 Y142.567 E0.0140
G1 X71.765 Y142.179 E0.0634
G1 X70.654 Y141.853 E0.0481
G1 X69.247 Y141.394 E0.0615
G1 X68.824 Y141.223 E0.0190
G1 X68.430 Y140.994 E0.0189
G1 X68.072 Y140.712 E0.0189
G1 X67.757 Y140.383 E0.0189
G1 X67.594 Y140.156 E0.0116
G1 X67.169 Y140.228 E0.0179
G1 X66.714 Y140.241 E0.0189
G1 X66.261 Y140.190 E0.0190
G1 X65.820 Y140.076 E0.0189
G1 X65.548 Y139.971 E0.0121
G1 X64.812 Y139.647 E0.0334
G1 X63.483 Y139.022 E0.0611
G1 X62.347 Y138.448 E0.0529
G1 X61.424 Y137.953 E0.0435
G1 X61.038 Y137.710 E0.0190
G1 X60.691 Y137.415 E0.0189
G1 X60.387 Y137.075 E0.0190
G1 X60.135 Y136.696 E0.0189
G1 X59.913 Y136.207 E0.0223
G1 X59.728 Y136.232 E0.0078
G1 X59.272 Y136.230 E0.0190
G1 X58.822 Y136.163 E0.0189
G1 X58.384 Y136.035 E0.0190
G1 X57.969 Y135.846 E0.0190
G1 X57.665 Y135.659 E0.0148
G1 X56.138 Y134.597 E0.0773
G1 X55.187 Y133.886 E0.0494
G1 X54.320 Y133.204 E0.0459
G1 X53.983 Y132.897 E0.0190
G1 X53.692 Y132.546 E0.0190
G1 X53.453 Y132.158 E0.0189
G1 X53.271 Y131.740 E0.0190
G1 X53.198 Y131.479 E0.0113
G1 X52.778 Y131.402 E0.0178
G1 X52.345 Y131.259 E0.0190
G1 X51.937 Y131.056 E0.0189
G1 X51.561 Y130.798 E0.0190
G1 X50.824 Y130.113 E0.0418
G1 X49.929 Y129.219 E0.0526
G1 X48.852 Y128.078 E0.0652
G1 X48.155 Y127.298 E0.0435
G1 X47.875 Y126.937 E0.0190
G1 X47.649 Y126.541 E0.0190
G1 X47.481 Y126.118 E0.0189
G1 X47.374 Y125.675 E0.0189
G1 X47.332 Y125.142 E0.0222
G1 X47.149 Y125.102 E0.0078
G1 X46.722 Y124.944 E0.0189
G1 X46.321 Y124.727 E0.0190
G1 X45.954 Y124.456 E0.0190
G1 X45.629 Y124.137 E0.0189
G1 X45.407 Y123.858 E0.0148
G1 X44.400 Y122.432 E0.0726
G1 X43.689 Y121.349 E0.0539
G1 X43.105 Y120.407 E0.0461
G1 X42.893 Y120.004 E0.0189
G1 X42.740 Y119.575 E0.0189
G1 X42.648 Y119.128 E0.0190
G1 X42.619 Y118.673 E0.0190
G1 X42.640 Y118.403 E0.0113
G1 X42.270 Y118.186 E0.0178
G1 X41.913 Y117.903 E0.0189
G1 X41.599 Y117.573 E0.0189
G1 X41.334 Y117.202 E0.0190
G1 X40.841 Y116.236 E0.0451
G1 X40.343 Y115.171 E0.0489
G1 X39.869 Y114.085 E0.0493
G1 X39.333 Y112.753 E0.0597
G1 X39.193 Y112.319 E0.0190
G1 X39.116 Y111.870 E0.0189
G1 X39.102 Y111.414 E0.0190
G1 X39.151 Y110.961 E0.0189
G1 X39.295 Y110.445 E0.0223
G1 X39.134 Y110.344 E0.0079
G1 X38.786 Y110.049 E0.0190
G1 X38.483 Y109.708 E0.0190
G1 X38.231 Y109.329 E0.0189
G1 X38.034 Y108.917 E0.0190
G1 X37.925 Y108.592 E0.0143
G1 X37.582 Y107.349 E0.0536
G1 X37.299 Y106.198 E0.0493
G1 X36.948 Y104.570 E0.0692
G1 X36.883 Y104.119 E0.0189
G1 X36.883 Y103.663 E0.0190
G1 X36.946 Y103.212 E0.0189
G1 X37.071 Y102.773 E0.0190
G1 X37.191 Y102.505 E0.0122
G1 X36.918 Y102.176 E0.0178
G1 X36.679 Y101.788 E0.0189
G1 X36.496 Y101.370 E0.0190
G1 X36.374 Y100.931 E0.0189
G1 X36.254 Y99.994 E0.0393
G1 X36.139 Y98.685 E0.0546
G1 X36.059 Y97.409 E0.0532
G1 X36.015 Y96.062 E0.0560
G1 X36.032 Y95.607 E0.0189
G1 X36.112 Y95.158 E0.0190
G1 X36.255 Y94.725 E0.0190
G1 X36.457 Y94.316 E0.0190
G1 X36.770 Y93.879 E0.0223
G1 X36.655 Y93.731 E0.0078
G1 X36.430 Y93.335 E0.0189
G1 X36.262 Y92.911 E0.0190
G1 X36.154 Y92.468 E0.0190
G1 X36.110 Y92.014 E0.0190
G1 X36.120 Y91.658 E0.0148
G1 X36.264 Y89.925 E0.0723
G1 X36.416 Y88.631 E0.0542
G1 X36.575 Y87.531 E0.0462
G1 X36.672 Y87.085 E0.0190
G1 X36.831 Y86.658 E0.0189
G1 X37.048 Y86.257 E0.0190
G1 X37.319 Y85.891 E0.0189
G1 X37.506 Y85.700 E0.0111
G1 X37.362 Y85.297 E0.0178
G1 X37.270 Y84.851 E0.0189
G1 X37.241 Y84.396 E0.0190
G1 X37.276 Y83.942 E0.0189
G1 X37.330 Y83.664 E0.0118
G1 X37.798 Y81.848 E0.0780
G1 X38.071 Y80.908 E0.0407
G1 X38.602 Y79.259 E0.0720
G1 X38.772 Y78.836 E0.0190
G1 X38.999 Y78.441 E0.0189
G1 X39.280 Y78.081 E0.0190
G1 X39.608 Y77.765 E0.0189
G1 X40.062 Y77.452 E0.0229
G1 X40.005 Y77.272 E0.0078
G1 X39.929 Y76.823 E0.0189
G1 X39.916 Y76.367 E0.0190
G1 X39.967 Y75.915 E0.0189
G1 X40.080 Y75.473 E0.0190
G1 X40.211 Y75.144 E0.0147
G1 X40.989 Y73.460 E0.0771
G1 X41.565 Y72.320 E0.0531
G1 X42.051 Y71.418 E0.0426
G1 X42.295 Y71.033 E0.0190
G1 X42.590 Y70.686 E0.0189
G1 X42.931 Y70.384 E0.0189
G1 X43.311 Y70.132 E0.0190
G1 X43.552 Y70.017 E0.0111
G1 X43.554 Y69.591 E0.0177
G1 X43.620 Y69.140 E0.0190
G1 X43.749 Y68.703 E0.0189
G1 X43.938 Y68.288 E0.0190
G1 X44.485 Y67.440 E0.0420
G1 X45.383 Y66.165 E0.0648
G1 X46.144 Y65.148 E0.0528
G1 X46.797 Y64.320 E0.0438
G1 X47.104 Y63.983 E0.0190
G1 X47.455 Y63.692 E0.0190
G1 X47.843 Y63.453 E0.0189
G1 X48.260 Y63.271 E0.0189
G1 X48.773 Y63.139 E0.0220
G1 X48.781 Y62.951 E0.0078
G1 X48.862 Y62.503 E0.0189
G1 X49.006 Y62.070 E0.0190
G1 X49.209 Y61.662 E0.0189
G1 X49.467 Y61.286 E0.0190
G1 X49.694 Y61.028 E0.0143
G1 X50.680 Y60.026 E0.0584
G1 X51.623 Y59.126 E0.0542
G1 X52.549 Y58.293 E0.0518
G0 F900 X52.697 Y58.160
;PRINTING: rear-wheel_part1.stl
;PRINTING_ID: 6
G0 F6000 X54.374 Y62.030
;TYPE:WALL-INNER
;WIDTH:0.500
G1 F900 X54.885 Y61.572 E0.0285
G1 X56.023 Y62.527 E0.0618
G1 X57.701 Y61.134 E0.0907
G1 X59.742 Y59.547 E0.1075
G1 X58.800 Y58.425 E0.0609
G1 X59.836 Y57.693 E0.0527
G1 X61.145 Y56.847 E0.0648
G1 X62.100 Y57.983 E0.0617
G1 X64.586 Y56.588 E0.1185
G1 X66.633 Y55.541 E0.0956
G1 X65.899 Y54.269 E0.0611
G1 X66.716 Y53.884 E0.0375
G1 X68.137 Y53.292 E0.0640
G1 X68.878 Y54.576 E0.0616
G1 X70.923 Y53.842 E0.0903
G1 X73.393 Y53.045 E0.1079
G1 X72.891 Y51.669 E0.0609
G1 X73.772 Y51.423 E0.0380
G1 X74.963 Y51.134 E0.0510
G1 X75.633 Y50.993 E0.0285
G1 X76.140 Y52.383 E0.0615
G1 X78.965 Y51.921 E0.1190
G1 X81.237 Y51.639 E0.0952
G1 X80.981 Y50.192 E0.0611
G1 X81.890 Y50.110 E0.0379
G1 X83.418 Y50.034 E0.0636
G1 X83.676 Y51.500 E0.0619
G1 X85.809 Y51.507 E0.0887
G1 X88.440 Y51.606 E0.1095
G1 X88.441 Y50.143 E0.0608
G1 X89.292 Y50.205 E0.0355
G1 X90.289 Y50.312 E0.0417
G1 X91.250 Y50.446 E0.0403
G1 X91.250 Y51.924 E0.0614
G1 X93.995 Y52.441 E0.1161
G1 X96.295 Y52.963 E0.0981
G1 X96.550 Y51.514 E0.0612
G1 X98.209 Y51.983 E0.0717
G1 X98.892 Y52.206 E0.0299
G1 X98.635 Y53.669 E0.0618
G1 X100.679 Y54.425 E0.0906
G1 X103.073 Y55.398 E0.1074
G1 X103.575 Y54.023 E0.0609
G1 X104.724 Y54.553 E0.0526
G1 X106.111 Y55.271 E0.0649
G1 X105.605 Y56.658 E0.0614
G1 X108.029 Y58.097 E0.1172
