;Sliced by ideaMaker 4.3.2.6470, 2023-03-26 11:11:15 UTC+0200
;Dimension: 170.000 190.000 170.000 0.500
;Plate Shape: 0
;Origin Center: 0
;Extruder Offset #1: 25.000 0.000
;Filament Diameter #1: 1.750
;Filament Diameter #2: 1.750
;Filament Compensation #1: 100.00
;Filament Compensation #2: 90.00
;Filament Density #1: 1220.00
;Filament Density #2: 1240.00
;Filament Type #1: FILOFLEX
;Filament Type #2: 
;Filament Name #1: [FILOALFA] FILOFLEX 1.75mm
;Filament Name #2: 
;Firmware: Marlin
;Bounding Box: 36.012 133.988 46.012 143.988 0.000 14.000
;Model Gap: 0.000
M221 T0 S100.00
M140 S50.00
M104 T0 S230.00
M109 T0 S230.00
T0
M190 S50.00
G28 ; home all
M420 S1 ; Enable Bed leveling
G92 E0
G1 Z0.2 F1000
G1 X8.0 F2000
G1 Y60.0 E4.0 F1000.0 ; prime
G1 Y100.0 E8.5 F1000.0 ; prime
G92 E0
;TOTAL_NUM: 1
;PRINTING_TIME: 0
;REMAINING_TIME: 17724
M83
;LAYER:0
;Z:0.200
;HEIGHT:0.200
M106 S0
;PRINTING: NON-OBJECT
;PRINTING_ID: -1
G0 F6000 X51.365 Y59.409
G0 F960 Z0.200
G0 F6000 X51.170 Y59.577
G0 F6000 X51.019 Y59.707
;TYPE:SKIRT
;WIDTH:0.500
G1 F900 X51.365 Y59.409 E0.0190
G1 X51.748 Y59.163 E0.0189
G1 X52.162 Y58.973 E0.0189
G1 X52.599 Y58.842 E0.0190
G1 X53.136 Y58.773 E0.0225
G1 X53.248 Y58.331 E0.0190
G1 X53.420 Y57.909 E0.0189
G1 X53.650 Y57.516 E0.0189
G1 X53.933 Y57.158 E0.0190
G1 X54.329 Y56.791 E0.0224
G1 X55.453 Y55.912 E0.0593
G1 X56.254 Y55.319 E0.0414
G1 X58.042 Y54.083 E0.0904
G1 X58.439 Y53.859 E0.0190
G1 X58.864 Y53.693 E0.0190
G1 X59.307 Y53.588 E0.0189
G1 X59.761 Y53.546 E0.0190
G1 X60.012 Y53.558 E0.0104
G1 X60.095 Y53.374 E0.0084
G1 X60.338 Y52.988 E0.0190
G1 X60.633 Y52.640 E0.0190
G1 X60.973 Y52.337 E0.0189
G1 X61.391 Y52.063 E0.0208
G1 X63.427 Y51.006 E0.0954
G1 X65.142 Y50.212 E0.0786
G1 X65.569 Y50.051 E0.0190
G1 X66.013 Y49.951 E0.0189
G1 X66.468 Y49.914 E0.0190
G1 X66.923 Y49.941 E0.0189
G1 X67.448 Y50.060 E0.0224
G1 X67.704 Y49.682 E0.0190
G1 X68.011 Y49.345 E0.0190
G1 X68.362 Y49.054 E0.0190
G1 X68.750 Y48.815 E0.0189
G1 X69.248 Y48.605 E0.0225
G1 X70.529 Y48.187 E0.0560
G1 X71.864 Y47.794 E0.0579
G1 X73.610 Y47.345 E0.0750
G1 X74.058 Y47.263 E0.0189
G1 X74.513 Y47.244 E0.0189
G1 X74.967 Y47.290 E0.0190
G1 X75.410 Y47.398 E0.0190
G1 X75.695 Y47.512 E0.0128
G1 X75.836 Y47.367 E0.0084
G1 X76.196 Y47.088 E0.0189
G1 X76.592 Y46.863 E0.0189
G1 X77.016 Y46.695 E0.0190
G1 X77.544 Y46.574 E0.0225
G1 X78.974 Y46.372 E0.0600
G1 X80.251 Y46.231 E0.0534
G1 X81.668 Y46.118 E0.0591
G1 X82.123 Y46.114 E0.0189
G1 X82.575 Y46.174 E0.0190
G1 X83.014 Y46.296 E0.0189
G1 X83.432 Y46.478 E0.0190
G1 X83.876 Y46.764 E0.0220
G1 X84.247 Y46.496 E0.0190
G1 X84.650 Y46.284 E0.0189
G1 X85.079 Y46.131 E0.0189
G1 X85.526 Y46.039 E0.0190
G1 X86.070 Y46.012 E0.0226
G1 X87.415 Y46.059 E0.0560
G1 X88.751 Y46.143 E0.0557
G1 X90.603 Y46.327 E0.0774
G1 X91.052 Y46.404 E0.0189
G1 X91.486 Y46.544 E0.0190
G1 X91.896 Y46.742 E0.0189
G1 X92.275 Y46.996 E0.0190
G1 X92.496 Y47.195 E0.0124
G1 X92.682 Y47.105 E0.0086
G1 X93.116 Y46.966 E0.0189
G1 X93.566 Y46.890 E0.0190
G1 X94.021 Y46.877 E0.0189
G1 X94.543 Y46.941 E0.0219
G1 X95.634 Y47.167 E0.0463
G1 X96.784 Y47.439 E0.0491
G1 X98.573 Y47.924 E0.0771
G1 X99.004 Y48.074 E0.0190
G1 X99.409 Y48.283 E0.0189
G1 X99.781 Y48.546 E0.0189
G1 X100.112 Y48.859 E0.0189
G1 X100.442 Y49.291 E0.0226
G1 X100.880 Y49.167 E0.0189
G1 X101.332 Y49.106 E0.0190
G1 X101.787 Y49.108 E0.0189
G1 X102.238 Y49.174 E0.0190
G1 X102.753 Y49.333 E0.0224
G1 X103.996 Y49.832 E0.0557
G1 X105.286 Y50.396 E0.0585
G1 X106.911 Y51.178 E0.0750
G1 X107.307 Y51.404 E0.0190
G1 X107.667 Y51.684 E0.0190
G1 X107.985 Y52.010 E0.0189
G1 X108.254 Y52.378 E0.0190
G1 X108.394 Y52.641 E0.0124
G1 X108.598 Y52.620 E0.0085
G1 X109.054 Y52.639 E0.0190
G1 X109.502 Y52.720 E0.0189
G1 X109.935 Y52.864 E0.0190
G1 X110.414 Y53.109 E0.0224
G1 X111.628 Y53.866 E0.0595
G1 X112.430 Y54.399 E0.0400
G1 X113.857 Y55.406 E0.0726
G1 X114.210 Y55.694 E0.0189
G1 X114.519 Y56.029 E0.0189
G1 X114.779 Y56.403 E0.0189
G1 X114.983 Y56.811 E0.0190
G1 X115.144 Y57.329 E0.0226
G1 X115.600 Y57.363 E0.0190
G1 X116.045 Y57.460 E0.0189
G1 X116.472 Y57.618 E0.0189
G1 X116.873 Y57.835 E0.0190
G1 X117.302 Y58.160 E0.0224
G1 X118.375 Y59.124 E0.0600
G1 X119.292 Y59.998 E0.0527
G1 X120.611 Y61.345 E0.0784
G1 X120.901 Y61.697 E0.0190
G1 X121.139 Y62.086 E0.0190
G1 X121.320 Y62.504 E0.0189
G1 X121.440 Y62.943 E0.0189
G1 X121.473 Y63.198 E0.0107
G1 X121.668 Y63.247 E0.0084
G1 X122.090 Y63.420 E0.0190
G1 X122.484 Y63.650 E0.0190
G1 X122.841 Y63.933 E0.0189
G1 X123.209 Y64.329 E0.0225
G1 X124.091 Y65.456 E0.0595
G1 X124.659 Y66.225 E0.0397
G1 X125.657 Y67.656 E0.0725
G1 X125.891 Y68.047 E0.0189
G1 X126.067 Y68.467 E0.0189
G1 X126.184 Y68.908 E0.0190
G1 X126.237 Y69.361 E0.0190
G1 X126.212 Y69.909 E0.0228
G1 X126.627 Y70.095 E0.0189
G1 X127.012 Y70.339 E0.0190
G1 X127.360 Y70.633 E0.0189
G1 X127.663 Y70.974 E0.0190
G1 X127.938 Y71.393 E0.0208
G1 X128.631 Y72.700 E0.0615
G1 X129.186 Y73.821 E0.0520
G1 X129.972 Y75.552 E0.0790
G1 X130.124 Y75.981 E0.0189
G1 X130.215 Y76.428 E0.0190
G1 X130.243 Y76.883 E0.0190
G1 X130.206 Y77.337 E0.0189
G1 X130.150 Y77.589 E0.0107
G1 X130.319 Y77.704 E0.0085
G1 X130.656 Y78.010 E0.0189
G1 X130.947 Y78.361 E0.0190
G1 X131.186 Y78.749 E0.0189
G1 X131.394 Y79.239 E0.0221
G1 X131.737 Y80.285 E0.0458
G1 X132.104 Y81.506 E0.0530
G1 X132.496 Y82.952 E0.0623
G1 X132.575 Y83.276 E0.0139
G1 X132.652 Y83.725 E0.0189
G1 X132.665 Y84.181 E0.0190
G1 X132.614 Y84.634 E0.0190
G1 X132.501 Y85.075 E0.0189
G1 X132.311 Y85.522 E0.0202
G1 X132.634 Y85.836 E0.0187
G1 X132.913 Y86.196 E0.0189
G1 X133.138 Y86.592 E0.0189
G1 X133.306 Y87.016 E0.0190
G1 X133.425 Y87.533 E0.0221
G1 X133.578 Y88.594 E0.0446
G1 X133.735 Y89.920 E0.0555
G1 X133.859 Y91.300 E0.0576
G1 X133.911 Y92.106 E0.0336
G1 X133.907 Y92.561 E0.0189
G1 X133.840 Y93.012 E0.0190
G1 X133.710 Y93.449 E0.0190
G1 X133.521 Y93.864 E0.0190
G1 X133.383 Y94.079 E0.0106
G1 X133.504 Y94.247 E0.0086
G1 X133.716 Y94.650 E0.0189
G1 X133.869 Y95.079 E0.0189
G1 X133.961 Y95.526 E0.0190
G1 X133.988 Y96.071 E0.0227
G1 X133.938 Y97.464 E0.0580
G1 X133.876 Y98.459 E0.0414
G1 X133.719 Y100.191 E0.0723
G1 X133.646 Y100.641 E0.0190
G1 X133.511 Y101.077 E0.0190
G1 X133.316 Y101.489 E0.0190
G1 X133.066 Y101.870 E0.0189
G1 X132.695 Y102.271 E0.0227
G1 X132.894 Y102.682 E0.0190
G1 X133.033 Y103.117 E0.0190
G1 X133.109 Y103.566 E0.0189
G1 X133.122 Y104.022 E0.0190
G1 X133.056 Y104.553 E0.0222
G1 X132.759 Y105.959 E0.0597
G1 X132.554 Y106.816 E0.0366
G1 X132.044 Y108.705 E0.0813
G1 X131.950 Y109.021 E0.0137
G1 X131.789 Y109.448 E0.0190
G1 X131.570 Y109.848 E0.0190
G1 X131.297 Y110.213 E0.0189
G1 X130.976 Y110.536 E0.0189
G1 X130.781 Y110.684 E0.0102
G1 X130.836 Y110.880 E0.0085
G1 X130.897 Y111.332 E0.0190
G1 X130.895 Y111.788 E0.0190
G1 X130.829 Y112.239 E0.0190
G1 X130.683 Y112.722 E0.0210
G1 X130.574 Y113.002 E0.0125
G1 X129.996 Y114.398 E0.0628
G1 X129.581 Y115.334 E0.0426
G1 X128.997 Y116.558 E0.0564
G1 X128.773 Y116.954 E0.0189
G1 X128.495 Y117.315 E0.0189
G1 X128.169 Y117.634 E0.0190
G1 X127.802 Y117.904 E0.0189
G1 X127.334 Y118.145 E0.0219
G1 X127.380 Y118.598 E0.0189
G1 X127.361 Y119.054 E0.0190
G1 X127.280 Y119.502 E0.0189
G1 X127.136 Y119.935 E0.0190
G1 X126.891 Y120.413 E0.0223
G1 X126.184 Y121.550 E0.0557
G1 X125.594 Y122.442 E0.0445
G1 X124.719 Y123.695 E0.0635
G1 X124.327 Y124.225 E0.0274
G1 X124.031 Y124.571 E0.0189
G1 X123.689 Y124.873 E0.0190
G1 X123.309 Y125.124 E0.0189
G1 X122.897 Y125.319 E0.0190
G1 X122.654 Y125.395 E0.0106
G1 X122.639 Y125.596 E0.0084
G1 X122.542 Y126.041 E0.0189
G1 X122.384 Y126.469 E0.0190
G1 X122.168 Y126.870 E0.0189
G1 X121.840 Y127.302 E0.0226
G1 X120.873 Y128.377 E0.0601
G1 X119.827 Y129.467 E0.0628
G1 X118.967 Y130.309 E0.0500
G1 X118.619 Y130.605 E0.0190
G1 X118.234 Y130.848 E0.0189
G1 X117.819 Y131.036 E0.0189
G1 X117.381 Y131.163 E0.0190
G1 X116.864 Y131.228 E0.0217
G1 X116.752 Y131.669 E0.0189
G1 X116.580 Y132.091 E0.0189
G1 X116.350 Y132.484 E0.0189
G1 X116.067 Y132.842 E0.0190
G1 X115.672 Y133.208 E0.0224
G1 X114.534 Y134.099 E0.0601
G1 X113.515 Y134.848 E0.0526
G1 X111.959 Y135.914 E0.0784
G1 X111.562 Y136.139 E0.0190
G1 X111.138 Y136.305 E0.0189
G1 X110.694 Y136.411 E0.0190
G1 X110.240 Y136.453 E0.0190
G1 X109.988 Y136.441 E0.0105
G1 X109.904 Y136.628 E0.0085
G1 X109.661 Y137.014 E0.0190
G1 X109.366 Y137.361 E0.0189
G1 X109.025 Y137.664 E0.0190
G1 X108.609 Y137.937 E0.0207
G1 X106.446 Y139.056 E0.1012
G1 X104.859 Y139.788 E0.0727
G1 X104.433 Y139.950 E0.0189
G1 X103.988 Y140.050 E0.0190
G1 X103.534 Y140.087 E0.0189
G1 X103.079 Y140.060 E0.0189
G1 X102.552 Y139.942 E0.0225
G1 X102.296 Y140.318 E0.0189
G1 X101.989 Y140.655 E0.0190
G1 X101.638 Y140.946 E0.0190
G1 X101.250 Y141.185 E0.0189
G1 X100.752 Y141.395 E0.0225
G1 X99.471 Y141.813 E0.0560
G1 X98.136 Y142.206 E0.0579
G1 X96.390 Y142.655 E0.0750
G1 X95.942 Y142.737 E0.0189
G1 X95.487 Y142.756 E0.0189
G1 X95.033 Y142.710 E0.0190
G1 X94.590 Y142.602 E0.0190
G1 X94.306 Y142.488 E0.0127
G1 X94.164 Y142.634 E0.0085
G1 X93.804 Y142.913 E0.0189
G1 X93.408 Y143.138 E0.0189
G1 X92.984 Y143.306 E0.0190
G1 X92.467 Y143.425 E0.0221
G1 X91.461 Y143.571 E0.0423
G1 X90.085 Y143.734 E0.0576
G1 X88.344 Y143.879 E0.0726
G1 X87.888 Y143.885 E0.0190
G1 X87.436 Y143.827 E0.0189
G1 X86.996 Y143.706 E0.0190
G1 X86.578 Y143.525 E0.0189
G1 X86.125 Y143.235 E0.0224
G1 X85.753 Y143.504 E0.0191
G1 X85.350 Y143.716 E0.0189
G1 X84.921 Y143.869 E0.0189
G1 X84.474 Y143.961 E0.0190
G1 X83.930 Y143.988 E0.0226
G1 X82.489 Y143.937 E0.0599
G1 X81.249 Y143.857 E0.0517
G1 X79.397 Y143.673 E0.0774
G1 X78.948 Y143.596 E0.0189
G1 X78.514 Y143.456 E0.0190
G1 X78.104 Y143.258 E0.0189
G1 X77.725 Y143.004 E0.0190
G1 X77.504 Y142.805 E0.0124
G1 X77.318 Y142.895 E0.0086
G1 X76.884 Y143.034 E0.0189
G1 X76.434 Y143.110 E0.0190
G1 X75.979 Y143.123 E0.0189
G1 X75.457 Y143.059 E0.0219
G1 X74.366 Y142.833 E0.0463
G1 X73.113 Y142.535 E0.0535
G1 X71.431 Y142.081 E0.0724
G1 X71.000 Y141.931 E0.0190
G1 X70.595 Y141.723 E0.0189
G1 X70.223 Y141.460 E0.0189
G1 X69.891 Y141.148 E0.0189
G1 X69.557 Y140.710 E0.0229
G1 X69.120 Y140.833 E0.0189
G1 X68.668 Y140.894 E0.0190
G1 X68.213 Y140.892 E0.0189
G1 X67.762 Y140.826 E0.0190
G1 X67.247 Y140.667 E0.0224
G1 X65.997 Y140.165 E0.0560
G1 X64.714 Y139.604 E0.0582
G1 X63.089 Y138.822 E0.0750
G1 X62.693 Y138.596 E0.0190
G1 X62.333 Y138.316 E0.0190
G1 X62.015 Y137.990 E0.0189
G1 X61.746 Y137.622 E0.0190
G1 X61.606 Y137.359 E0.0124
G1 X61.402 Y137.380 E0.0085
G1 X60.946 Y137.361 E0.0190
G1 X60.498 Y137.280 E0.0189
G1 X60.065 Y137.136 E0.0190
G1 X59.586 Y136.890 E0.0224
G1 X58.366 Y136.130 E0.0598
G1 X57.564 Y135.597 E0.0400
G1 X56.143 Y134.594 E0.0723
G1 X55.790 Y134.306 E0.0189
G1 X55.481 Y133.971 E0.0189
G1 X55.221 Y133.596 E0.0190
G1 X55.017 Y133.189 E0.0189
G1 X54.856 Y132.672 E0.0225
G1 X54.404 Y132.639 E0.0188
G1 X53.959 Y132.542 E0.0189
G1 X53.531 Y132.384 E0.0190
G1 X53.130 Y132.168 E0.0189
G1 X52.698 Y131.841 E0.0225
G1 X51.625 Y130.876 E0.0600
G1 X50.703 Y129.997 E0.0530
G1 X49.389 Y128.654 E0.0781
G1 X49.099 Y128.302 E0.0190
G1 X48.861 Y127.914 E0.0189
G1 X48.680 Y127.495 E0.0190
G1 X48.559 Y127.056 E0.0189
G1 X48.526 Y126.802 E0.0106
G1 X48.332 Y126.753 E0.0083
G1 X47.910 Y126.580 E0.0190
G1 X47.516 Y126.350 E0.0190
G1 X47.159 Y126.067 E0.0189
G1 X46.792 Y125.673 E0.0224
G1 X45.960 Y124.613 E0.0560
G1 X45.338 Y123.770 E0.0436
G1 X44.343 Y122.344 E0.0723
G1 X44.109 Y121.953 E0.0189
G1 X43.932 Y121.533 E0.0189
G1 X43.815 Y121.092 E0.0190
G1 X43.762 Y120.639 E0.0190
G1 X43.787 Y120.091 E0.0228
G1 X43.372 Y119.904 E0.0189
G1 X42.986 Y119.661 E0.0190
G1 X42.639 Y119.366 E0.0189
G1 X42.336 Y119.025 E0.0190
G1 X42.059 Y118.601 E0.0211
G1 X41.368 Y117.298 E0.0613
G1 X40.782 Y116.112 E0.0550
G1 X40.047 Y114.480 E0.0744
G1 X39.889 Y114.053 E0.0189
G1 X39.794 Y113.607 E0.0190
G1 X39.761 Y113.152 E0.0190
G1 X39.792 Y112.698 E0.0189
G1 X39.853 Y112.413 E0.0121
G1 X39.681 Y112.296 E0.0086
G1 X39.344 Y111.990 E0.0189
G1 X39.053 Y111.639 E0.0190
G1 X38.814 Y111.251 E0.0189
G1 X38.606 Y110.761 E0.0221
G1 X38.261 Y109.709 E0.0460
G1 X37.894 Y108.487 E0.0530
G1 X37.501 Y107.038 E0.0624
G1 X37.424 Y106.721 E0.0136
G1 X37.348 Y106.272 E0.0189
G1 X37.335 Y105.816 E0.0190
G1 X37.386 Y105.363 E0.0190
G1 X37.500 Y104.922 E0.0189
G1 X37.689 Y104.478 E0.0201
G1 X37.366 Y104.164 E0.0187
G1 X37.087 Y103.804 E0.0189
G1 X36.862 Y103.408 E0.0189
G1 X36.694 Y102.984 E0.0190
G1 X36.575 Y102.467 E0.0221
G1 X36.421 Y101.399 E0.0449
G1 X36.264 Y100.071 E0.0556
G1 X36.134 Y98.612 E0.0609
G1 X36.089 Y97.894 E0.0299
G1 X36.093 Y97.439 E0.0189
G1 X36.160 Y96.988 E0.0190
G1 X36.290 Y96.551 E0.0190
G1 X36.479 Y96.136 E0.0190
G1 X36.617 Y95.921 E0.0106
G1 X36.496 Y95.753 E0.0086
G1 X36.284 Y95.350 E0.0189
G1 X36.131 Y94.921 E0.0189
G1 X36.039 Y94.474 E0.0190
G1 X36.012 Y93.929 E0.0227
G1 X36.062 Y92.536 E0.0580
G1 X36.124 Y91.541 E0.0414
G1 X36.281 Y89.809 E0.0723
G1 X36.354 Y89.359 E0.0190
G1 X36.489 Y88.923 E0.0190
G1 X36.684 Y88.511 E0.0190
G1 X36.934 Y88.130 E0.0189
G1 X37.305 Y87.729 E0.0227
G1 X37.106 Y87.318 E0.0190
G1 X36.967 Y86.883 E0.0190
G1 X36.891 Y86.434 E0.0189
G1 X36.878 Y85.978 E0.0190
G1 X36.944 Y85.447 E0.0222
G1 X37.241 Y84.040 E0.0598
G1 X37.446 Y83.184 E0.0366
G1 X37.994 Y81.171 E0.0867
G1 X38.205 Y80.567 E0.0266
G1 X38.422 Y80.166 E0.0190
G1 X38.693 Y79.799 E0.0190
G1 X39.012 Y79.474 E0.0189
G1 X39.222 Y79.313 E0.0110
G1 X39.167 Y79.119 E0.0084
G1 X39.106 Y78.668 E0.0189
G1 X39.108 Y78.212 E0.0190
G1 X39.175 Y77.761 E0.0190
G1 X39.333 Y77.248 E0.0223
G1 X39.858 Y75.943 E0.0585
G1 X40.378 Y74.754 E0.0540
G1 X41.003 Y73.443 E0.0604
G1 X41.228 Y73.047 E0.0189
G1 X41.506 Y72.685 E0.0190
G1 X41.831 Y72.366 E0.0189
G1 X42.198 Y72.096 E0.0189
G1 X42.666 Y71.855 E0.0219
G1 X42.620 Y71.402 E0.0189
G1 X42.639 Y70.946 E0.0190
G1 X42.720 Y70.498 E0.0189
G1 X42.864 Y70.065 E0.0190
G1 X43.110 Y69.586 E0.0224
G1 X43.817 Y68.450 E0.0556
G1 X44.669 Y67.173 E0.0638
G1 X45.651 Y65.810 E0.0698
G1 X45.943 Y65.460 E0.0190
G1 X46.281 Y65.154 E0.0190
G1 X46.658 Y64.898 E0.0189
G1 X47.067 Y64.698 E0.0189
G1 X47.347 Y64.607 E0.0122
G1 X47.363 Y64.399 E0.0087
G1 X47.460 Y63.954 E0.0189
G1 X47.619 Y63.526 E0.0190
G1 X47.836 Y63.126 E0.0189
G1 X48.160 Y62.697 E0.0224
G1 X49.121 Y61.628 E0.0598
G1 X49.779 Y60.937 E0.0397
G1 X50.877 Y59.847 E0.0643
G0 F900 X51.019 Y59.707
;PRINTING: rear-wheel_part0.stl
;PRINTING_ID: 5
G0 F6000 X53.257 Y63.121
;TYPE:WALL-INNER
;WIDTH:0.500
G1 F900 X54.199 Y64.243 E0.0609
G1 X56.002 Y62.578 E0.1020
G1 X58.049 Y60.822 E0.1121
G1 X57.309 Y59.538 E0.0616
G1 X58.546 Y58.597 E0.0646
G1 X59.590 Y57.875 E0.0528
G1 X60.321 Y59.141 E0.0608
G1 X62.676 Y57.664 E0.1156
G1 X64.399 Y56.666 E0.0828
G1 X63.889 Y55.272 E0.0617
G1 X65.245 Y54.569 E0.0635
G1 X66.076 Y54.186 E0.0380
G1 X66.574 Y55.556 E0.0606
G1 X69.307 Y54.431 E0.1229
G1 X71.365 Y53.669 E0.0912
G1 X71.108 Y52.206 E0.0618
G1 X71.759 Y51.994 E0.0285
G1 X72.873 Y51.665 E0.0483
G1 X73.821 Y51.421 E0.0407
G1 X74.076 Y52.864 E0.0609
G1 X76.798 Y52.280 E0.1157
G1 X78.750 Y51.932 E0.0824
G1 X78.750 Y50.443 E0.0619
G1 X79.428 Y50.347 E0.0285
G1 X80.581 Y50.218 E0.0482
G1 X81.176 Y50.170 E0.0248
G1 X81.177 Y51.631 E0.0607
G1 X84.184 Y51.509 E0.1251
G1 X86.324 Y51.499 E0.0890
G1 X86.582 Y50.032 E0.0619
G1 X87.265 Y50.056 E0.0284
G1 X88.481 Y50.133 E0.0507
G1 X89.400 Y50.226 E0.0384
G1 X89.147 Y51.667 E0.0608
G1 X91.855 Y52.043 E0.1137
G1 X93.856 Y52.391 E0.0844
G1 X94.368 Y50.990 E0.0620
G1 X95.852 Y51.329 E0.0633
G1 X96.737 Y51.570 E0.0381
G1 X96.235 Y52.950 E0.0611
G1 X98.433 Y53.626 E0.0956
G1 X101.126 Y54.571 E0.1187
G1 X101.866 Y53.288 E0.0616
G1 X102.495 Y53.540 E0.0282
G1 X103.565 Y54.007 E0.0485
G1 X104.449 Y54.432 E0.0408
G1 X103.718 Y55.699 E0.0608
G1 X106.133 Y56.978 E0.1136
G1 X107.896 Y57.990 E0.0845
G1 X108.853 Y56.849 E0.0619
G1 X110.133 Y57.673 E0.0633
G1 X110.884 Y58.203 E0.0382
G1 X109.946 Y59.321 E0.0607
G1 X112.288 Y61.125 E0.1229
G1 X113.977 Y62.527 E0.0913
G1 X115.115 Y61.572 E0.0618
G1 X115.625 Y62.029 E0.0285
G1 X116.460 Y62.824 E0.0479
G1 X117.151 Y63.529 E0.0410
