;Sliced by ideaMaker 4.3.2.6470, 2023-04-01 08:23:16 UTC+0200
;Dimension: 170.000 190.000 170.000 0.500
;Plate Shape: 0
;Origin Center: 0
;Extruder Offset #1: 25.000 0.000
;Filament Diameter #1: 1.750
;Filament Diameter #2: 1.750
;Filament Compensation #1: 98.00
;Filament Compensation #2: 90.00
;Filament Density #1: 1240.00
;Filament Density #2: 1240.00
;Filament Type #1: PLA
;Filament Type #2: 
;Filament Name #1: [FILOALFA] PLA 1.75mm
;Filament Name #2: 
;Firmware: Marlin
;Bounding Box: 45.501 124.499 55.501 134.499 0.000 17.000
;Model Gap: 0.000
M221 T0 S100.00
M140 S50.00
M104 T0 S200.00
M109 T0 S200.00
T0
M190 S50.00
G28 ; home all
M420 S1 ; Enable Bed leveling
G92 E0
G1 Z0.2 F1000
G1 X8.0 F2000
G1 Y60.0 E4.0 F1000.0 ; prime
G1 Y100.0 E8.5 F1000.0 ; prime
G92 E0
;TOTAL_NUM: 1
;PRINTING_TIME: 0
;REMAINING_TIME: 5665
M83
;LAYER:0
;Z:0.200
;HEIGHT:0.200
M106 S0
;PRINTING: NON-OBJECT
;PRINTING_ID: -1
G1 F2400 E-0.5000
G0 F4200 X59.485 Y66.843
G0 F960 Z0.200
;TYPE:SKIRT
;WIDTH:0.500
G1 F1500 E0.5000
G1 F1800 X60.301 Y66.122 E0.0444
G1 X61.042 Y65.504 E0.0393
G1 X61.749 Y64.944 E0.0367
G1 X63.296 Y63.810 E0.0782
G1 X64.230 Y63.180 E0.0459
G1 X65.878 Y62.163 E0.0789
G1 X67.440 Y61.302 E0.0727
G1 X68.334 Y60.850 E0.0408
G1 X70.234 Y59.988 E0.0850
G1 X72.051 Y59.275 E0.0795
G1 X73.717 Y58.715 E0.0716
G1 X75.721 Y58.151 E0.0848
G1 X76.576 Y57.946 E0.0358
G1 X77.544 Y57.740 E0.0403
G1 X78.499 Y57.561 E0.0396
G1 X79.539 Y57.396 E0.0429
G1 X80.902 Y57.224 E0.0560
G1 X81.007 Y57.031 E0.0090
G1 X81.278 Y56.665 E0.0186
G1 X81.598 Y56.340 E0.0186
G1 X81.960 Y56.063 E0.0186
G1 X82.357 Y55.839 E0.0186
G1 X82.782 Y55.673 E0.0186
G1 X83.225 Y55.568 E0.0185
G1 X83.681 Y55.527 E0.0187
G1 X85.068 Y55.501 E0.0565
G1 X86.318 Y55.527 E0.0509
G1 X86.771 Y55.568 E0.0185
G1 X87.215 Y55.673 E0.0186
G1 X87.640 Y55.838 E0.0186
G1 X88.037 Y56.061 E0.0186
G1 X88.399 Y56.338 E0.0186
G1 X88.719 Y56.663 E0.0186
G1 X88.991 Y57.029 E0.0186
G1 X89.097 Y57.224 E0.0090
G1 X90.577 Y57.413 E0.0608
G1 X92.486 Y57.746 E0.0790
G1 X94.386 Y58.179 E0.0794
G1 X96.261 Y58.708 E0.0794
G1 X98.097 Y59.330 E0.0790
G1 X99.912 Y60.050 E0.0796
G1 X101.701 Y60.868 E0.0801
G1 X103.268 Y61.680 E0.0719
G1 X104.142 Y62.173 E0.0409
G1 X104.989 Y62.683 E0.0403
G1 X106.571 Y63.718 E0.0770
G1 X107.470 Y64.356 E0.0449
G1 X108.283 Y64.970 E0.0415
G1 X109.790 Y66.201 E0.0793
G1 X111.111 Y67.393 E0.0725
G1 X111.919 Y68.180 E0.0460
G1 X113.152 Y69.479 E0.0730
G1 X113.874 Y70.295 E0.0444
G1 X114.453 Y70.989 E0.0368
G1 X115.052 Y71.745 E0.0393
G1 X116.180 Y73.282 E0.0777
G1 X116.809 Y74.213 E0.0458
G1 X117.833 Y75.871 E0.0794
G1 X118.761 Y77.558 E0.0784
G1 X119.151 Y78.335 E0.0354
G1 X120.009 Y80.227 E0.0846
G1 X120.721 Y82.043 E0.0795
G1 X121.284 Y83.716 E0.0719
G1 X121.820 Y85.608 E0.0801
G1 X122.054 Y86.577 E0.0406
G1 X122.273 Y87.608 E0.0429
G1 X122.439 Y88.497 E0.0368
G1 X122.605 Y89.538 E0.0430
G1 X122.774 Y90.902 E0.0560
G1 X122.969 Y91.007 E0.0090
G1 X123.335 Y91.278 E0.0186
G1 X123.660 Y91.598 E0.0186
G1 X123.937 Y91.960 E0.0186
G1 X124.161 Y92.357 E0.0186
G1 X124.327 Y92.782 E0.0186
G1 X124.432 Y93.225 E0.0185
G1 X124.473 Y93.681 E0.0187
G1 X124.499 Y95.062 E0.0563
G1 X124.473 Y96.317 E0.0511
G1 X124.432 Y96.771 E0.0186
G1 X124.327 Y97.215 E0.0186
G1 X124.162 Y97.640 E0.0186
G1 X123.939 Y98.037 E0.0186
G1 X123.662 Y98.399 E0.0186
G1 X123.337 Y98.719 E0.0186
G1 X122.971 Y98.990 E0.0186
G1 X122.776 Y99.096 E0.0090
G1 X122.587 Y100.581 E0.0610
G1 X122.252 Y102.493 E0.0791
G1 X121.820 Y104.391 E0.0793
G1 X121.288 Y106.273 E0.0797
G1 X120.668 Y108.105 E0.0788
G1 X119.953 Y109.907 E0.0790
G1 X119.212 Y111.537 E0.0730
G1 X118.322 Y113.264 E0.0792
G1 X117.250 Y115.095 E0.0864
G1 X116.207 Y116.681 E0.0773
G1 X115.687 Y117.411 E0.0365
G1 X115.057 Y118.249 E0.0427
G1 X113.883 Y119.692 E0.0758
G1 X112.517 Y121.208 E0.0831
G1 X111.814 Y121.925 E0.0409
G1 X110.521 Y123.152 E0.0726
G1 X109.699 Y123.878 E0.0447
G1 X108.958 Y124.496 E0.0393
G1 X108.152 Y125.131 E0.0418
G1 X106.576 Y126.279 E0.0794
G1 X104.989 Y127.318 E0.0773
G1 X104.117 Y127.840 E0.0414
G1 X102.442 Y128.761 E0.0779
G1 X101.540 Y129.210 E0.0411
G1 X99.774 Y130.009 E0.0790
G1 X97.951 Y130.724 E0.0798
G1 X96.267 Y131.290 E0.0724
G1 X94.279 Y131.849 E0.0841
G1 X93.424 Y132.054 E0.0358
G1 X92.456 Y132.260 E0.0403
G1 X91.424 Y132.452 E0.0428
G1 X90.462 Y132.604 E0.0397
G1 X89.098 Y132.775 E0.0560
G1 X88.993 Y132.969 E0.0090
G1 X88.722 Y133.335 E0.0186
G1 X88.402 Y133.660 E0.0186
G1 X88.040 Y133.937 E0.0186
G1 X87.643 Y134.161 E0.0186
G1 X87.218 Y134.327 E0.0186
G1 X86.775 Y134.432 E0.0185
G1 X86.319 Y134.473 E0.0187
G1 X84.932 Y134.499 E0.0565
G1 X83.682 Y134.473 E0.0509
G1 X83.229 Y134.432 E0.0185
G1 X82.785 Y134.327 E0.0186
G1 X82.360 Y134.162 E0.0186
G1 X81.963 Y133.939 E0.0186
G1 X81.601 Y133.662 E0.0186
G1 X81.281 Y133.337 E0.0186
G1 X81.009 Y132.971 E0.0186
G1 X80.903 Y132.776 E0.0090
G1 X79.466 Y132.594 E0.0590
G1 X78.505 Y132.441 E0.0396
G1 X77.616 Y132.275 E0.0368
G1 X75.614 Y131.821 E0.0836
G1 X73.738 Y131.292 E0.0794
G1 X71.904 Y130.671 E0.0789
G1 X70.074 Y129.945 E0.0802
G1 X68.310 Y129.138 E0.0790
G1 X66.731 Y128.319 E0.0725
G1 X65.745 Y127.760 E0.0462
G1 X64.090 Y126.729 E0.0794
G1 X62.536 Y125.649 E0.0771
G1 X61.819 Y125.111 E0.0365
G1 X61.054 Y124.505 E0.0398
G1 X60.212 Y123.801 E0.0447
G1 X58.787 Y122.511 E0.0783
G1 X58.067 Y121.807 E0.0410
G1 X56.766 Y120.433 E0.0771
G1 X56.184 Y119.773 E0.0359
G1 X55.547 Y119.011 E0.0405
G1 X54.879 Y118.164 E0.0440
G1 X53.721 Y116.575 E0.0801
G1 X52.750 Y115.095 E0.0721
G1 X52.167 Y114.129 E0.0460
G1 X51.236 Y112.436 E0.0787
G1 X50.792 Y111.546 E0.0405
G1 X49.995 Y109.783 E0.0788
G1 X49.333 Y108.108 E0.0734
G1 X48.712 Y106.273 E0.0789
G1 X48.149 Y104.271 E0.0847
G1 X47.944 Y103.416 E0.0358
G1 X47.741 Y102.462 E0.0397
G1 X47.560 Y101.495 E0.0401
G1 X47.395 Y100.459 E0.0427
G1 X47.225 Y99.098 E0.0559
G1 X47.031 Y98.993 E0.0090
G1 X46.665 Y98.722 E0.0186
G1 X46.340 Y98.402 E0.0186
G1 X46.063 Y98.040 E0.0186
G1 X45.839 Y97.643 E0.0186
G1 X45.673 Y97.218 E0.0186
G1 X45.568 Y96.775 E0.0185
G1 X45.527 Y96.319 E0.0187
G1 X45.501 Y94.938 E0.0563
G1 X45.527 Y93.683 E0.0511
G1 X45.568 Y93.229 E0.0186
G1 X45.673 Y92.785 E0.0186
G1 X45.838 Y92.360 E0.0186
G1 X46.061 Y91.963 E0.0186
G1 X46.338 Y91.601 E0.0186
G1 X46.663 Y91.281 E0.0186
G1 X47.029 Y91.010 E0.0186
G1 X47.224 Y90.904 E0.0090
G1 X47.405 Y89.472 E0.0588
G1 X47.559 Y88.507 E0.0398
G1 X47.747 Y87.508 E0.0414
G1 X48.177 Y85.619 E0.0789
G1 X48.706 Y83.745 E0.0793
G1 X49.329 Y81.903 E0.0792
G1 X49.982 Y80.246 E0.0726
G1 X50.866 Y78.304 E0.0869
G1 X51.685 Y76.724 E0.0725
G1 X52.173 Y75.858 E0.0405
G1 X52.683 Y75.011 E0.0403
G1 X53.718 Y73.429 E0.0770
G1 X54.303 Y72.602 E0.0413
G1 X54.970 Y71.717 E0.0452
G1 X56.201 Y70.210 E0.0793
G1 X57.393 Y68.889 E0.0725
G1 X58.192 Y68.069 E0.0466
G1 X59.485 Y66.843 E0.0726
;PRINTING: rim-front-internal.stl
;PRINTING_ID: 0
G1 F2400 E-0.5000
G0 F4200 X62.565 Y70.124
;TYPE:WALL-INNER
;WIDTH:0.500
G1 F1500 E0.5000
G1 F1800 X63.191 Y69.571 E0.0340
G1 X64.530 Y68.482 E0.0703
G1 X65.933 Y67.457 E0.0708
G1 X66.623 Y66.992 E0.0339
G1 X68.079 Y66.089 E0.0698
G1 X69.592 Y65.254 E0.0704
G1 X70.333 Y64.882 E0.0338
G1 X71.915 Y64.161 E0.0708
G1 X73.515 Y63.531 E0.0701
G1 X75.121 Y62.991 E0.0690
G1 X76.794 Y62.521 E0.0708
G1 X77.602 Y62.326 E0.0339
G1 X79.307 Y61.988 E0.0708
G1 X81.005 Y61.739 E0.0699
G1 X81.849 Y61.649 E0.0346
G1 X85.017 Y61.433 E0.1294
G1 X88.135 Y61.647 E0.1273
G1 X89.846 Y61.853 E0.0702
G1 X91.527 Y62.143 E0.0695
G1 X93.206 Y62.521 E0.0701
G1 X94.857 Y62.983 E0.0699
G1 X96.477 Y63.528 E0.0696
G1 X98.078 Y64.158 E0.0701
G1 X99.659 Y64.879 E0.0708
G1 X101.169 Y65.661 E0.0693
G1 X102.651 Y66.529 E0.0700
G1 X104.076 Y67.463 E0.0694
G1 X105.468 Y68.482 E0.0703
G1 X106.800 Y69.564 E0.0699
G1 X108.079 Y70.718 E0.0702
G1 X108.672 Y71.295 E0.0337
G1 X109.873 Y72.560 E0.0711
G1 X110.423 Y73.185 E0.0339
G1 X111.514 Y74.527 E0.0705
G1 X112.534 Y75.921 E0.0704
G1 X112.998 Y76.608 E0.0338
G1 X113.907 Y78.072 E0.0702
G1 X114.749 Y79.598 E0.0710
G1 X115.118 Y80.333 E0.0335
G1 X115.836 Y81.907 E0.0705
G1 X116.466 Y83.509 E0.0701
G1 X117.009 Y85.121 E0.0693
G1 X117.481 Y86.802 E0.0711
G1 X117.674 Y87.602 E0.0335
G1 X118.014 Y89.314 E0.0711
G1 X118.146 Y90.140 E0.0341
G1 X118.351 Y91.855 E0.0704
G1 X118.567 Y95.017 E0.1291
G1 X118.352 Y98.143 E0.1277
G1 X118.147 Y99.847 E0.0699
G1 X117.855 Y101.533 E0.0697
G1 X117.479 Y103.206 E0.0699
G1 X117.012 Y104.870 E0.0704
G1 X116.469 Y106.485 E0.0694
G1 X115.844 Y108.074 E0.0696
G1 X115.128 Y109.645 E0.0703
G1 X114.341 Y111.165 E0.0697
G1 X113.470 Y112.652 E0.0702
G1 X112.532 Y114.083 E0.0697
G1 X111.515 Y115.474 E0.0702
G1 X110.987 Y116.139 E0.0346
G1 X110.444 Y116.789 E0.0345
G1 X109.276 Y118.084 E0.0711
G1 X108.699 Y118.678 E0.0337
G1 X107.439 Y119.872 E0.0707
G1 X106.809 Y120.428 E0.0342
G1 X105.468 Y121.518 E0.0704
G1 X104.080 Y122.534 E0.0701
G1 X102.648 Y123.475 E0.0698
G1 X101.922 Y123.911 E0.0345
G1 X100.402 Y124.749 E0.0707
G1 X99.655 Y125.124 E0.0341
G1 X98.093 Y125.836 E0.0699
G1 X96.488 Y126.468 E0.0703
G1 X94.864 Y127.014 E0.0698
G1 X93.206 Y127.479 E0.0702
G1 X92.398 Y127.674 E0.0339
G1 X90.701 Y128.010 E0.0705
G1 X88.996 Y128.261 E0.0702
G1 X88.145 Y128.351 E0.0349
G1 X85.001 Y128.568 E0.1284
G1 X81.865 Y128.353 E0.1281
G1 X80.147 Y128.146 E0.0705
G1 X78.465 Y127.855 E0.0695
G1 X76.794 Y127.479 E0.0698
G1 X75.143 Y127.017 E0.0699
G1 X73.525 Y126.472 E0.0696
G1 X71.907 Y125.835 E0.0708
G1 X70.353 Y125.128 E0.0696
G1 X68.823 Y124.334 E0.0702
G1 X68.096 Y123.923 E0.0340
G1 X66.627 Y123.013 E0.0704
G1 X65.219 Y122.036 E0.0698
G1 X64.536 Y121.523 E0.0348
G1 X63.209 Y120.442 E0.0697
G1 X61.911 Y119.271 E0.0712
G1 X61.315 Y118.691 E0.0339
G1 X60.126 Y117.440 E0.0703
G1 X59.577 Y116.815 E0.0339
G1 X58.491 Y115.479 E0.0701
G1 X57.466 Y114.079 E0.0707
G1 X56.525 Y112.647 E0.0698
G1 X56.096 Y111.935 E0.0339
G1 X55.248 Y110.396 E0.0716
G1 X54.879 Y109.662 E0.0335
G1 X54.168 Y108.100 E0.0699
G1 X53.531 Y106.483 E0.0708
G1 X52.988 Y104.870 E0.0693
G1 X52.519 Y103.198 E0.0708
G1 X52.324 Y102.391 E0.0338
G1 X51.987 Y100.687 E0.0708
G1 X51.739 Y98.997 E0.0696
G1 X51.650 Y98.159 E0.0343
G1 X51.432 Y95.001 E0.1290
G1 X51.647 Y91.865 E0.1281
G1 X51.852 Y90.160 E0.0700
G1 X52.145 Y88.465 E0.0701
G1 X52.519 Y86.799 E0.0696
G1 X52.981 Y85.149 E0.0698
G1 X53.528 Y83.523 E0.0699
G1 X54.156 Y81.926 E0.0699
G1 X54.876 Y80.347 E0.0707
G1 X55.665 Y78.825 E0.0698
G1 X56.529 Y77.349 E0.0697
G1 X57.463 Y75.924 E0.0694
G1 X58.482 Y74.532 E0.0703
G1 X59.564 Y73.200 E0.0699
G1 X60.718 Y71.921 E0.0702
G1 X61.306 Y71.317 E0.0343
G1 X62.565 Y70.124 E0.0707
G0 F4200 X62.228 Y69.755
G1 F1800 X62.868 Y69.190 E0.0348
G1 X64.225 Y68.086 E0.0713
G1 X65.646 Y67.048 E0.0717
G1 X66.351 Y66.572 E0.0347
G1 X67.826 Y65.657 E0.0707
G1 X69.359 Y64.812 E0.0713
G1 X70.117 Y64.431 E0.0346
G1 X71.720 Y63.701 E0.0718
G1 X73.344 Y63.061 E0.0711
G1 X74.974 Y62.513 E0.0701
G1 X76.668 Y62.037 E0.0717
G1 X77.495 Y61.838 E0.0347
G1 X79.222 Y61.495 E0.0717
G1 X80.942 Y61.243 E0.0708
G1 X81.805 Y61.151 E0.0354
G1 X84.487 Y60.968 E0.1095
G1 X84.495 Y59.511 E0.0594
G1 X85.500 Y59.511 E0.0409
G1 X85.500 Y60.965 E0.0592
G1 X88.182 Y61.149 E0.1095
G1 X89.918 Y61.358 E0.0712
G1 X91.624 Y61.652 E0.0705
G1 X93.328 Y62.036 E0.0712
G1 X95.004 Y62.505 E0.0709
G1 X96.648 Y63.058 E0.0707
G1 X98.273 Y63.698 E0.0712
G1 X99.878 Y64.429 E0.0719
G1 X101.410 Y65.223 E0.0703
G1 X102.915 Y66.104 E0.0711
G1 X104.361 Y67.052 E0.0704
G1 X105.774 Y68.086 E0.0713
G1 X107.125 Y69.184 E0.0709
G1 X108.421 Y70.353 E0.0711
G1 X109.028 Y70.944 E0.0345
G1 X110.242 Y72.223 E0.0718
G1 X110.805 Y72.862 E0.0347
G1 X111.910 Y74.221 E0.0714
G1 X112.943 Y75.633 E0.0713
G1 X113.418 Y76.336 E0.0346
G1 X114.339 Y77.819 E0.0711
G1 X115.192 Y79.365 E0.0719
G1 X115.569 Y80.117 E0.0343
G1 X116.296 Y81.712 E0.0714
G1 X116.936 Y83.338 E0.0712
G1 X117.487 Y84.974 E0.0703
G1 X117.965 Y86.676 E0.0720
G1 X118.162 Y87.495 E0.0343
G1 X118.506 Y89.226 E0.0719
G1 X118.641 Y90.071 E0.0349
G1 X118.849 Y91.808 E0.0713
G1 X119.032 Y94.487 E0.1094
G1 X120.489 Y94.495 E0.0594
G1 X120.500 Y94.995 E0.0204
G1 X120.489 Y95.500 E0.0206
G1 X119.035 Y95.500 E0.0592
G1 X118.850 Y98.190 E0.1099
G1 X118.642 Y99.920 E0.0710
G1 X118.346 Y101.631 E0.0707
G1 X117.964 Y103.329 E0.0709
G1 X117.490 Y105.017 E0.0714
G1 X116.939 Y106.656 E0.0705
G1 X116.304 Y108.269 E0.0706
G1 X115.578 Y109.864 E0.0714
G1 X114.779 Y111.406 E0.0708
G1 X113.895 Y112.916 E0.0713
G1 X112.943 Y114.368 E0.0707
G1 X111.913 Y115.777 E0.0711
G1 X111.375 Y116.455 E0.0353
G1 X110.822 Y117.117 E0.0351
G1 X109.641 Y118.426 E0.0718
G1 X109.050 Y119.034 E0.0345
G1 X107.777 Y120.241 E0.0715
G1 X107.132 Y120.810 E0.0350
G1 X105.774 Y121.914 E0.0713
G1 X104.365 Y122.945 E0.0711
G1 X102.914 Y123.898 E0.0707
G1 X102.172 Y124.344 E0.0353
G1 X100.635 Y125.192 E0.0715
G1 X99.871 Y125.575 E0.0348
G1 X98.288 Y126.296 E0.0709
G1 X96.659 Y126.938 E0.0713
G1 X95.011 Y127.492 E0.0708
G1 X93.332 Y127.963 E0.0710
G1 X92.505 Y128.162 E0.0347
G1 X90.786 Y128.503 E0.0714
G1 X89.059 Y128.757 E0.0711
G1 X88.189 Y128.849 E0.0356
G1 X85.513 Y129.034 E0.1093
G1 X85.505 Y130.489 E0.0593
G1 X85.000 Y130.500 E0.0206
G1 X84.500 Y130.489 E0.0204
G1 X84.500 Y129.035 E0.0592
G1 X81.818 Y128.851 E0.1095
G1 X80.078 Y128.641 E0.0714
G1 X79.229 Y128.507 E0.0350
G1 X78.364 Y128.345 E0.0359
G1 X76.672 Y127.964 E0.0707
G1 X74.996 Y127.495 E0.0709
G1 X73.353 Y126.942 E0.0706
G1 X71.712 Y126.295 E0.0719
G1 X70.134 Y125.578 E0.0706
G1 X68.585 Y124.774 E0.0711
G1 X67.841 Y124.353 E0.0348
G1 X66.353 Y123.431 E0.0713
G1 X64.926 Y122.441 E0.0708
G1 X64.228 Y121.917 E0.0356
G1 X62.883 Y120.822 E0.0707
G1 X61.569 Y119.636 E0.0721
G1 X60.959 Y119.043 E0.0347
G1 X59.757 Y117.777 E0.0711
G1 X59.195 Y117.138 E0.0347
G1 X58.095 Y115.785 E0.0710
G1 X57.055 Y114.364 E0.0717
G1 X56.102 Y112.913 E0.0707
G1 X55.663 Y112.185 E0.0346
G1 X54.805 Y110.629 E0.0724
G1 X54.428 Y109.878 E0.0342
G1 X53.708 Y108.295 E0.0709
G1 X53.061 Y106.655 E0.0718
G1 X52.510 Y105.017 E0.0704
G1 X52.035 Y103.324 E0.0716
G1 X51.836 Y102.498 E0.0346
G1 X51.494 Y100.772 E0.0717
G1 X51.243 Y99.060 E0.0705
G1 X51.152 Y98.203 E0.0351
G1 X50.966 Y95.513 E0.1099
G1 X49.511 Y95.505 E0.0593
G1 X49.500 Y95.005 E0.0204
G1 X49.511 Y94.500 E0.0206
G1 X50.965 Y94.500 E0.0592
G1 X51.149 Y91.818 E0.1095
G1 X51.357 Y90.088 E0.0710
G1 X51.654 Y88.368 E0.0711
G1 X52.034 Y86.677 E0.0706
G1 X52.503 Y85.002 E0.0709
G1 X53.058 Y83.352 E0.0709
G1 X53.696 Y81.731 E0.0710
G1 X54.426 Y80.128 E0.0718
G1 X55.227 Y78.583 E0.0709
G1 X56.104 Y77.085 E0.0707
G1 X57.052 Y75.639 E0.0704
G1 X58.086 Y74.226 E0.0713
G1 X59.184 Y72.875 E0.0709
G1 X60.353 Y71.579 E0.0711
G1 X60.955 Y70.961 E0.0352
G1 X62.228 Y69.755 E0.0714
G1 F2400 E-0.5000
G0 F4200 X61.890 Y69.386
;TYPE:WALL-OUTER
;WIDTH:0.500
G1 F1500 E0.5000
G1 F1800 X62.545 Y68.808 E0.0356
G1 X63.920 Y67.690 E0.0722
G1 X65.358 Y66.639 E0.0726
G1 X66.079 Y66.152 E0.0354
G1 X67.573 Y65.225 E0.0716
G1 X69.126 Y64.369 E0.0723
G1 X69.901 Y63.980 E0.0353
G1 X71.525 Y63.241 E0.0727
G1 X73.173 Y62.591 E0.0722
G1 X74.827 Y62.035 E0.0711
G1 X76.542 Y61.553 E0.0726
G1 X77.388 Y61.350 E0.0354
G1 X79.137 Y61.002 E0.0727
G1 X80.879 Y60.747 E0.0717
G1 X81.761 Y60.653 E0.0361
G1 X83.990 Y60.501 E0.0910
G1 X83.998 Y59.021 E0.0603
G1 X85.000 Y59.000 E0.0408
G1 X86.000 Y59.021 E0.0408
G1 X86.000 Y60.498 E0.0602
G1 X88.229 Y60.651 E0.0910
G1 X89.990 Y60.863 E0.0723
G1 X91.721 Y61.161 E0.0716
G1 X93.450 Y61.551 E0.0722
G1 X95.151 Y62.027 E0.0720
G1 X96.819 Y62.588 E0.0717
G1 X98.468 Y63.238 E0.0722
G1 X100.097 Y63.979 E0.0729
G1 X101.652 Y64.785 E0.0714
G1 X103.179 Y65.679 E0.0721
G1 X104.646 Y66.641 E0.0715
G1 X106.080 Y67.690 E0.0724
G1 X107.450 Y68.804 E0.0719
G1 X108.763 Y69.988 E0.0720
G1 X109.384 Y70.593 E0.0353
G1 X110.611 Y71.885 E0.0726
G1 X111.187 Y72.539 E0.0355
G1 X112.306 Y73.915 E0.0723
G1 X113.352 Y75.345 E0.0722
G1 X113.838 Y76.064 E0.0354
G1 X114.771 Y77.566 E0.0720
G1 X115.635 Y79.132 E0.0729
G1 X116.020 Y79.901 E0.0350
G1 X116.756 Y81.517 E0.0723
