;Sliced by ideaMaker 4.3.2.6470, 2023-03-26 11:03:34 UTC+0200
;Dimension: 170.000 190.000 170.000 0.500
;Plate Shape: 0
;Origin Center: 0
;Extruder Offset #1: 25.000 0.000
;Filament Diameter #1: 1.750
;Filament Diameter #2: 1.750
;Filament Compensation #1: 98.00
;Filament Compensation #2: 90.00
;Filament Density #1: 1240.00
;Filament Density #2: 1240.00
;Filament Type #1: PLA
;Filament Type #2: 
;Filament Name #1: [FILOALFA] PLA 1.75mm
;Filament Name #2: 
;Firmware: Marlin
;Bounding Box: 48.001 121.999 76.001 113.999 0.000 4.000
;Model Gap: 0.000
M221 T0 S100.00
M140 S50.00
M104 T0 S200.00
M109 T0 S200.00
T0
M190 S50.00
G28 ; home all
M420 S1 ; Enable Bed leveling
G92 E0
G1 Z0.2 F1000
G1 X8.0 F2000
G1 Y60.0 E4.0 F1000.0 ; prime
G1 Y100.0 E8.5 F1000.0 ; prime
G92 E0
;TOTAL_NUM: 2
;PRINTING_TIME: 0
;REMAINING_TIME: 1724
M83
;LAYER:0
;Z:0.200
;HEIGHT:0.200
M106 S0
;PRINTING: NON-OBJECT
;PRINTING_ID: -1
G1 F2400 E-0.5000
G0 F4200 X55.928 Y79.561
G0 F960 Z0.200
;TYPE:SKIRT
;WIDTH:0.500
G1 F1500 E0.5000
G1 F1800 X56.672 Y79.053 E0.0367
G1 X57.417 Y78.595 E0.0356
G1 X58.370 Y78.075 E0.0442
G1 X59.192 Y77.679 E0.0372
G1 X60.014 Y77.332 E0.0364
G1 X60.849 Y77.024 E0.0363
G1 X61.579 Y76.791 E0.0312
G1 X62.452 Y76.554 E0.0369
G1 X63.330 Y76.359 E0.0366
G1 X64.383 Y76.182 E0.0435
G1 X65.284 Y76.078 E0.0370
G1 X66.170 Y76.019 E0.0362
G1 X67.059 Y76.001 E0.0362
G1 X67.840 Y76.019 E0.0318
G1 X68.891 Y76.094 E0.0429
G1 X69.778 Y76.205 E0.0364
G1 X70.679 Y76.360 E0.0372
G1 X71.547 Y76.552 E0.0362
G1 X72.274 Y76.747 E0.0307
G1 X73.292 Y77.072 E0.0435
G1 X74.169 Y77.406 E0.0382
G1 X75.206 Y77.865 E0.0462
G1 X76.054 Y78.296 E0.0388
G1 X76.818 Y78.734 E0.0359
G1 X77.589 Y79.226 E0.0373
G1 X78.447 Y79.837 E0.0429
G1 X79.146 Y80.390 E0.0363
G1 X79.721 Y80.888 E0.0310
G1 X80.531 Y81.664 E0.0457
G1 X81.398 Y82.603 E0.0521
G1 X81.983 Y83.316 E0.0376
G1 X82.431 Y83.915 E0.0305
G1 X82.946 Y84.672 E0.0373
G1 X83.405 Y85.417 E0.0357
G1 X83.925 Y86.370 E0.0442
G1 X84.317 Y87.184 E0.0368
G1 X84.610 Y87.869 E0.0304
G1 X85.001 Y88.927 E0.0460
G1 X85.228 Y88.283 E0.0278
G1 X85.509 Y87.581 E0.0308
G1 X85.873 Y86.773 E0.0361
G1 X86.296 Y85.947 E0.0378
G1 X86.734 Y85.182 E0.0359
G1 X87.226 Y84.411 E0.0373
G1 X87.743 Y83.678 E0.0365
G1 X88.390 Y82.854 E0.0427
G1 X88.993 Y82.164 E0.0373
G1 X89.664 Y81.469 E0.0394
G1 X90.604 Y80.601 E0.0521
G1 X91.328 Y80.009 E0.0381
G1 X92.052 Y79.472 E0.0367
G1 X92.799 Y78.972 E0.0366
G1 X93.417 Y78.595 E0.0295
G1 X94.236 Y78.144 E0.0381
G1 X95.192 Y77.679 E0.0433
G1 X96.014 Y77.332 E0.0364
G1 X96.849 Y77.024 E0.0363
G1 X97.729 Y76.747 E0.0376
G1 X98.599 Y76.518 E0.0367
G1 X99.330 Y76.359 E0.0305
G1 X100.233 Y76.204 E0.0373
G1 X101.284 Y76.078 E0.0431
G1 X102.170 Y76.019 E0.0362
G1 X103.059 Y76.001 E0.0362
G1 X103.995 Y76.026 E0.0381
G1 X104.891 Y76.094 E0.0366
G1 X105.778 Y76.205 E0.0364
G1 X106.528 Y76.331 E0.0310
G1 X107.394 Y76.515 E0.0361
G1 X108.274 Y76.747 E0.0371
G1 X109.292 Y77.072 E0.0435
G1 X110.169 Y77.406 E0.0382
G1 X111.206 Y77.865 E0.0462
G1 X112.054 Y78.296 E0.0388
G1 X112.949 Y78.814 E0.0421
G1 X113.713 Y79.310 E0.0371
G1 X114.447 Y79.837 E0.0368
G1 X115.146 Y80.390 E0.0363
G1 X115.836 Y80.993 E0.0373
G1 X116.531 Y81.664 E0.0394
G1 X117.398 Y82.603 E0.0521
G1 X117.885 Y83.192 E0.0311
G1 X118.431 Y83.915 E0.0369
G1 X119.028 Y84.799 E0.0435
G1 X119.484 Y85.554 E0.0359
G1 X119.856 Y86.236 E0.0317
G1 X120.317 Y87.184 E0.0429
G1 X120.666 Y88.007 E0.0364
G1 X120.921 Y88.688 E0.0296
G1 X121.209 Y89.578 E0.0381
G1 X121.482 Y90.599 E0.0431
G1 X121.641 Y91.330 E0.0305
G1 X121.818 Y92.383 E0.0435
G1 X121.921 Y93.273 E0.0365
G1 X121.981 Y94.173 E0.0368
G1 X121.999 Y95.088 E0.0373
G1 X121.971 Y96.027 E0.0383
G1 X121.877 Y97.152 E0.0460
G1 X121.750 Y98.073 E0.0379
G1 X121.582 Y98.960 E0.0368
G1 X121.334 Y99.986 E0.0430
G1 X121.127 Y100.692 E0.0300
G1 X120.772 Y101.717 E0.0442
G1 X120.431 Y102.561 E0.0371
G1 X120.127 Y103.227 E0.0298
G1 X119.704 Y104.053 E0.0378
G1 X119.186 Y104.949 E0.0422
G1 X118.690 Y105.712 E0.0371
G1 X118.164 Y106.447 E0.0368
G1 X117.708 Y107.027 E0.0301
G1 X117.112 Y107.721 E0.0373
G1 X116.336 Y108.531 E0.0457
G1 X115.395 Y109.400 E0.0522
G1 X114.675 Y109.988 E0.0379
G1 X113.954 Y110.523 E0.0366
G1 X113.201 Y111.028 E0.0369
G1 X112.583 Y111.405 E0.0295
G1 X111.764 Y111.856 E0.0381
G1 X110.808 Y112.321 E0.0433
G1 X109.986 Y112.668 E0.0364
G1 X109.151 Y112.976 E0.0363
G1 X108.421 Y113.209 E0.0312
G1 X107.548 Y113.446 E0.0369
G1 X106.517 Y113.670 E0.0430
G1 X105.617 Y113.818 E0.0372
G1 X104.716 Y113.922 E0.0370
G1 X103.828 Y113.981 E0.0363
G1 X102.924 Y113.999 E0.0368
G1 X102.159 Y113.981 E0.0312
G1 X101.079 Y113.902 E0.0441
G1 X99.949 Y113.752 E0.0464
G1 X99.041 Y113.582 E0.0376
G1 X98.007 Y113.331 E0.0434
G1 X97.295 Y113.122 E0.0302
G1 X96.277 Y112.770 E0.0439
G1 X95.439 Y112.431 E0.0368
G1 X94.773 Y112.127 E0.0298
G1 X93.808 Y111.628 E0.0443
G1 X93.048 Y111.184 E0.0359
G1 X92.287 Y110.690 E0.0370
G1 X91.678 Y110.257 E0.0304
G1 X90.852 Y109.608 E0.0428
G1 X90.277 Y109.110 E0.0310
G1 X89.469 Y108.337 E0.0456
G1 X88.726 Y107.539 E0.0444
G1 X88.107 Y106.797 E0.0394
G1 X87.472 Y105.948 E0.0432
G1 X87.053 Y105.328 E0.0305
G1 X86.515 Y104.445 E0.0421
G1 X86.144 Y103.765 E0.0316
G1 X85.743 Y102.948 E0.0371
G1 X85.385 Y102.119 E0.0368
G1 X84.999 Y101.072 E0.0455
G1 X84.772 Y101.717 E0.0279
G1 X84.491 Y102.419 E0.0308
G1 X84.127 Y103.227 E0.0361
G1 X83.704 Y104.053 E0.0378
G1 X83.266 Y104.818 E0.0359
G1 X82.774 Y105.589 E0.0373
G1 X82.164 Y106.447 E0.0429
G1 X81.610 Y107.146 E0.0363
G1 X81.007 Y107.836 E0.0373
G1 X80.336 Y108.531 E0.0394
G1 X79.395 Y109.400 E0.0522
G1 X78.675 Y109.988 E0.0379
G1 X77.954 Y110.523 E0.0366
G1 X77.201 Y111.028 E0.0369
G1 X76.583 Y111.405 E0.0295
G1 X75.764 Y111.856 E0.0381
G1 X74.808 Y112.321 E0.0433
G1 X73.986 Y112.668 E0.0364
G1 X73.151 Y112.976 E0.0363
G1 X72.271 Y113.253 E0.0376
G1 X71.401 Y113.482 E0.0367
G1 X70.670 Y113.641 E0.0305
G1 X69.767 Y113.796 E0.0373
G1 X68.716 Y113.922 E0.0431
G1 X67.828 Y113.981 E0.0363
G1 X66.924 Y113.999 E0.0368
G1 X66.003 Y113.974 E0.0375
G1 X65.079 Y113.902 E0.0378
G1 X63.949 Y113.752 E0.0464
G1 X62.890 Y113.549 E0.0439
G1 X62.007 Y113.331 E0.0371
G1 X61.148 Y113.076 E0.0365
G1 X60.425 Y112.826 E0.0312
G1 X59.579 Y112.490 E0.0371
G1 X58.773 Y112.127 E0.0360
G1 X57.947 Y111.704 E0.0378
G1 X57.178 Y111.263 E0.0361
G1 X56.411 Y110.774 E0.0371
G1 X55.678 Y110.257 E0.0365
G1 X54.971 Y109.705 E0.0365
G1 X54.277 Y109.110 E0.0372
G1 X53.605 Y108.474 E0.0377
G1 X52.726 Y107.539 E0.0523
G1 X52.009 Y106.672 E0.0458
G1 X51.472 Y105.948 E0.0367
G1 X50.971 Y105.200 E0.0367
G1 X50.515 Y104.445 E0.0359
G1 X50.074 Y103.629 E0.0378
G1 X49.677 Y102.803 E0.0373
G1 X49.385 Y102.119 E0.0303
G1 X49.074 Y101.297 E0.0358
G1 X48.791 Y100.421 E0.0375
G1 X48.518 Y99.401 E0.0430
G1 X48.330 Y98.517 E0.0368
G1 X48.182 Y97.615 E0.0372
G1 X48.078 Y96.714 E0.0370
G1 X48.026 Y95.979 E0.0300
G1 X48.001 Y95.067 E0.0372
G1 X48.019 Y94.158 E0.0370
G1 X48.123 Y92.844 E0.0537
G1 X48.276 Y91.775 E0.0440
G1 X48.450 Y90.892 E0.0367
G1 X48.666 Y90.014 E0.0368
G1 X48.909 Y89.194 E0.0348
G1 X49.228 Y88.283 E0.0393
G1 X49.569 Y87.439 E0.0371
G1 X49.873 Y86.773 E0.0298
G1 X50.371 Y85.809 E0.0442
G1 X50.814 Y85.051 E0.0358
G1 X51.310 Y84.287 E0.0371
G1 X51.837 Y83.553 E0.0368
G1 X52.390 Y82.854 E0.0363
G1 X52.993 Y82.164 E0.0373
G1 X53.526 Y81.605 E0.0315
G1 X54.604 Y80.601 E0.0600
G1 X55.202 Y80.107 E0.0316
G1 X55.928 Y79.561 E0.0370
;PRINTING: rim-rear-cap.stl
;PRINTING_ID: 2
G1 F2400 E-0.5000
G0 F4200 X65.554 Y87.638
;TYPE:WALL-INNER
;WIDTH:0.500
G1 F1500 E0.5000
G1 F1800 X64.724 Y87.853 E0.0349
G1 X64.149 Y88.060 E0.0249
G1 X63.389 Y88.425 E0.0344
G1 X62.877 Y88.732 E0.0243
G1 X62.189 Y89.244 E0.0349
G1 X61.737 Y89.654 E0.0249
G1 X61.172 Y90.279 E0.0343
G1 X60.806 Y90.766 E0.0248
G1 X60.369 Y91.492 E0.0345
G1 X60.105 Y92.042 E0.0249
G1 X59.818 Y92.835 E0.0344
G1 X59.666 Y93.425 E0.0248
G1 X59.534 Y94.259 E0.0344
G1 X59.499 Y94.872 E0.0250
G1 X59.532 Y95.712 E0.0343
G1 X59.615 Y96.318 E0.0249
G1 X59.810 Y97.139 E0.0344
G1 X60.007 Y97.713 E0.0247
G1 X60.355 Y98.483 E0.0344
G1 X60.664 Y99.015 E0.0251
G1 X61.153 Y99.699 E0.0343
G1 X61.554 Y100.158 E0.0248
G1 X62.165 Y100.736 E0.0343
G1 X62.649 Y101.111 E0.0249
G1 X63.363 Y101.561 E0.0344
G1 X63.909 Y101.836 E0.0249
G1 X64.696 Y102.139 E0.0344
G1 X65.269 Y102.298 E0.0242
G1 X65.855 Y102.414 E0.0243
G1 X66.709 Y102.495 E0.0350
G1 X67.579 Y102.480 E0.0355
G1 X68.446 Y102.362 E0.0357
G1 X69.276 Y102.147 E0.0349
G1 X69.851 Y101.940 E0.0249
G1 X70.611 Y101.575 E0.0344
G1 X71.123 Y101.268 E0.0243
G1 X71.811 Y100.756 E0.0349
G1 X72.263 Y100.346 E0.0249
G1 X72.828 Y99.721 E0.0343
G1 X73.194 Y99.234 E0.0248
G1 X73.631 Y98.508 E0.0345
G1 X73.895 Y97.958 E0.0249
G1 X74.182 Y97.165 E0.0344
G1 X74.334 Y96.575 E0.0248
G1 X74.466 Y95.741 E0.0344
G1 X74.501 Y95.128 E0.0250
G1 X74.468 Y94.288 E0.0343
G1 X74.385 Y93.682 E0.0249
G1 X74.190 Y92.861 E0.0344
G1 X73.993 Y92.287 E0.0247
G1 X73.645 Y91.517 E0.0344
G1 X73.336 Y90.985 E0.0251
G1 X72.847 Y90.301 E0.0343
G1 X72.446 Y89.842 E0.0248
G1 X71.835 Y89.264 E0.0343
G1 X71.351 Y88.889 E0.0249
G1 X70.637 Y88.439 E0.0344
G1 X70.091 Y88.164 E0.0249
G1 X69.304 Y87.861 E0.0344
G1 X68.731 Y87.702 E0.0242
G1 X68.145 Y87.586 E0.0243
G1 X67.291 Y87.505 E0.0350
G1 X66.421 Y87.520 E0.0355
G1 X65.554 Y87.638 E0.0357
G0 F4200 X65.651 Y88.129
G1 F1800 X64.872 Y88.331 E0.0328
G1 X64.343 Y88.522 E0.0229
G1 X63.626 Y88.866 E0.0324
G1 X63.156 Y89.148 E0.0223
G1 X62.507 Y89.631 E0.0330
G1 X62.091 Y90.008 E0.0229
G1 X61.558 Y90.597 E0.0324
G1 X61.221 Y91.046 E0.0229
G1 X60.810 Y91.729 E0.0325
G1 X60.567 Y92.236 E0.0229
G1 X60.296 Y92.983 E0.0324
G1 X60.156 Y93.527 E0.0229
G1 X60.032 Y94.312 E0.0324
G1 X60.000 Y94.876 E0.0230
G1 X60.031 Y95.668 E0.0323
G1 X60.107 Y96.226 E0.0229
G1 X60.291 Y97.000 E0.0324
G1 X60.472 Y97.529 E0.0228
G1 X60.800 Y98.254 E0.0324
G1 X61.084 Y98.743 E0.0230
G1 X61.546 Y99.388 E0.0323
G1 X61.915 Y99.811 E0.0229
G1 X62.491 Y100.356 E0.0323
G1 X62.936 Y100.701 E0.0229
G1 X63.609 Y101.125 E0.0324
G1 X64.112 Y101.378 E0.0229
G1 X64.853 Y101.664 E0.0324
G1 X65.385 Y101.811 E0.0225
G1 X65.928 Y101.919 E0.0226
G1 X66.728 Y101.995 E0.0327
G1 X67.541 Y101.981 E0.0331
G1 X68.349 Y101.871 E0.0332
G1 X69.128 Y101.669 E0.0328
G1 X69.657 Y101.478 E0.0229
G1 X70.374 Y101.134 E0.0324
G1 X70.844 Y100.852 E0.0223
G1 X71.493 Y100.369 E0.0330
G1 X71.909 Y99.992 E0.0229
G1 X72.442 Y99.403 E0.0324
G1 X72.779 Y98.954 E0.0229
G1 X73.190 Y98.271 E0.0325
G1 X73.433 Y97.764 E0.0229
G1 X73.704 Y97.017 E0.0324
G1 X73.844 Y96.473 E0.0229
G1 X73.968 Y95.688 E0.0324
G1 X74.000 Y95.124 E0.0230
G1 X73.969 Y94.332 E0.0323
G1 X73.893 Y93.774 E0.0229
G1 X73.709 Y93.000 E0.0324
G1 X73.528 Y92.471 E0.0228
G1 X73.200 Y91.746 E0.0324
G1 X72.916 Y91.257 E0.0230
G1 X72.454 Y90.612 E0.0323
G1 X72.085 Y90.189 E0.0229
G1 X71.509 Y89.644 E0.0323
G1 X71.064 Y89.299 E0.0229
G1 X70.391 Y88.875 E0.0324
G1 X69.888 Y88.622 E0.0229
G1 X69.147 Y88.336 E0.0324
G1 X68.615 Y88.189 E0.0225
G1 X68.072 Y88.081 E0.0226
G1 X67.272 Y88.005 E0.0327
G1 X66.459 Y88.019 E0.0331
G1 X65.651 Y88.129 E0.0332
G1 F2400 E-0.5000
G0 F4200 X65.748 Y88.620
;TYPE:WALL-OUTER
;WIDTH:0.500
G1 F1500 E0.5000
G1 F1800 X65.020 Y88.809 E0.0306
G1 X64.537 Y88.984 E0.0209
G1 X63.863 Y89.307 E0.0305
G1 X63.435 Y89.564 E0.0203
G1 X62.825 Y90.018 E0.0310
G1 X62.445 Y90.362 E0.0209
G1 X61.944 Y90.915 E0.0304
G1 X61.636 Y91.326 E0.0209
G1 X61.251 Y91.966 E0.0304
G1 X61.029 Y92.430 E0.0210
G1 X60.774 Y93.131 E0.0304
G1 X60.646 Y93.628 E0.0209
G1 X60.530 Y94.365 E0.0304
G1 X60.501 Y94.880 E0.0210
G1 X60.530 Y95.625 E0.0304
G1 X60.599 Y96.134 E0.0209
G1 X60.772 Y96.861 E0.0304
G1 X60.937 Y97.345 E0.0208
G1 X61.245 Y98.025 E0.0304
G1 X61.504 Y98.471 E0.0210
G1 X61.938 Y99.077 E0.0304
G1 X62.276 Y99.464 E0.0209
G1 X62.817 Y99.976 E0.0303
G1 X63.223 Y100.291 E0.0209
G1 X63.855 Y100.689 E0.0304
G1 X64.315 Y100.920 E0.0210
G1 X65.010 Y101.189 E0.0304
G1 X65.500 Y101.324 E0.0207
G1 X66.001 Y101.424 E0.0208
G1 X66.747 Y101.495 E0.0305
G1 X67.503 Y101.482 E0.0308
G1 X68.252 Y101.380 E0.0308
G1 X68.980 Y101.191 E0.0306
G1 X69.463 Y101.016 E0.0209
G1 X70.137 Y100.693 E0.0305
G1 X70.565 Y100.436 E0.0203
G1 X71.175 Y99.982 E0.0310
G1 X71.555 Y99.638 E0.0209
G1 X72.056 Y99.085 E0.0304
G1 X72.364 Y98.674 E0.0209
G1 X72.749 Y98.034 E0.0304
G1 X72.971 Y97.570 E0.0210
G1 X73.226 Y96.869 E0.0304
G1 X73.354 Y96.372 E0.0209
G1 X73.470 Y95.635 E0.0304
G1 X73.499 Y95.120 E0.0210
G1 X73.470 Y94.375 E0.0304
G1 X73.401 Y93.866 E0.0209
G1 X73.228 Y93.139 E0.0304
G1 X73.063 Y92.655 E0.0208
G1 X72.755 Y91.975 E0.0304
G1 X72.496 Y91.529 E0.0210
G1 X72.062 Y90.923 E0.0304
G1 X71.724 Y90.536 E0.0209
G1 X71.183 Y90.024 E0.0303
G1 X70.777 Y89.709 E0.0209
G1 X70.145 Y89.311 E0.0304
G1 X69.685 Y89.080 E0.0210
G1 X68.990 Y88.811 E0.0304
G1 X68.500 Y88.676 E0.0207
G1 X67.999 Y88.576 E0.0208
G1 X67.253 Y88.505 E0.0305
G1 X66.497 Y88.518 E0.0308
G1 X65.748 Y88.620 E0.0308
G1 F2400 E-0.5000
G0 F4200 X65.668 Y88.306
G0 X63.198 Y89.211
G0 X61.284 Y91.090
G0 X60.230 Y93.543
G0 X60.191 Y95.703
G0 X63.926 Y109.170
;TYPE:WALL-INNER
;WIDTH:0.500
G1 F1500 E0.5000
G1 F1800 X64.051 Y108.933 E0.0109
G1 X64.200 Y108.457 E0.0203
G1 X64.252 Y107.828 E0.0257
G1 X64.177 Y107.331 E0.0205
G1 X64.018 Y106.856 E0.0204
G1 X63.687 Y106.311 E0.0260
G1 X63.333 Y105.950 E0.0206
G1 X62.963 Y105.689 E0.0184
G1 X62.511 Y105.474 E0.0204
G1 X61.896 Y105.339 E0.0257
G1 X61.397 Y105.339 E0.0203
G1 X60.929 Y105.427 E0.0194
G1 X60.493 Y105.597 E0.0191
G1 X60.100 Y105.835 E0.0187
G1 X59.751 Y106.143 E0.0190
G1 X59.459 Y106.512 E0.0192
G1 X59.224 Y106.957 E0.0205
G1 X59.162 Y107.187 E0.0097
G1 X58.750 Y106.931 E0.0198
G1 X59.225 Y106.415 E0.0286
G1 X59.476 Y105.974 E0.0207
G1 X59.627 Y105.533 E0.0190
G1 X59.698 Y105.083 E0.0186
G1 X59.693 Y104.585 E0.0203
G1 X59.537 Y103.969 E0.0259
G1 X59.313 Y103.521 E0.0204
G1 X59.024 Y103.143 E0.0194
G1 X58.689 Y102.834 E0.0186
G1 X58.288 Y102.579 E0.0194
G1 X57.861 Y102.408 E0.0187
G1 X57.362 Y102.302 E0.0208
G1 X56.724 Y102.319 E0.0260
G1 X56.239 Y102.439 E0.0204
G1 X55.814 Y102.635 E0.0191
G1 X55.406 Y102.915 E0.0202
G1 X55.088 Y103.261 E0.0191
G1 X54.815 Y102.858 E0.0198
G1 X55.276 Y102.664 E0.0204
G1 X55.665 Y102.415 E0.0188
G1 X56.034 Y102.073 E0.0205
G1 X56.382 Y101.554 E0.0255
G1 X56.581 Y101.052 E0.0220
G1 X56.674 Y100.418 E0.0261
G1 X56.634 Y99.923 E0.0202
G1 X56.510 Y99.439 E0.0204
G1 X56.213 Y98.875 E0.0260
G1 X55.891 Y98.497 E0.0202
G1 X55.532 Y98.203 E0.0189
G1 X55.115 Y97.972 E0.0194
G1 X54.675 Y97.824 E0.0189
G1 X54.211 Y97.755 E0.0191
G1 X53.744 Y97.772 E0.0190
G1 X53.288 Y97.870 E0.0190
G1 X52.832 Y98.060 E0.0201
G1 X52.738 Y97.595 E0.0193
G1 X53.267 Y97.596 E0.0216
G1 X53.891 Y97.454 E0.0261
G1 X54.338 Y97.234 E0.0203
G1 X54.713 Y96.964 E0.0188
G1 X55.032 Y96.632 E0.0188
G1 X55.295 Y96.235 E0.0194
G1 X55.492 Y95.772 E0.0205
G1 X55.611 Y95.115 E0.0272
G1 X55.551 Y94.460 E0.0268
G1 X55.399 Y93.982 E0.0204
G1 X55.177 Y93.566 E0.0192
G1 X54.885 Y93.201 E0.0190
G1 X54.533 Y92.892 E0.0191
G1 X54.130 Y92.653 E0.0191
G1 X53.697 Y92.488 E0.0189
G1 X53.236 Y92.404 E0.0191
G1 X52.738 Y92.404 E0.0203
G1 X52.826 Y91.947 E0.0190
G1 X53.479 Y92.186 E0.0283
G1 X53.982 Y92.248 E0.0206
G1 X54.445 Y92.221 E0.0189
G1 X54.930 Y92.105 E0.0203
G1 X55.500 Y91.823 E0.0259
G1 X55.889 Y91.505 E0.0205
G1 X56.193 Y91.149 E0.0191
G1 X56.426 Y90.747 E0.0189
G1 X56.587 Y90.307 E0.0191
G1 X56.662 Y89.849 E0.0189
G1 X56.660 Y89.382 E0.0190
G1 X56.563 Y88.886 E0.0206
G1 X56.308 Y88.310 E0.0257
G1 X56.010 Y87.907 E0.0204
G1 X55.666 Y87.587 E0.0191
G1 X55.248 Y87.318 E0.0203
G1 X54.815 Y87.159 E0.0188
G1 X55.069 Y86.751 E0.0196
G1 X55.586 Y87.228 E0.0287
G1 X56.029 Y87.476 E0.0207
G1 X56.466 Y87.627 E0.0188
G1 X56.956 Y87.706 E0.0202
G1 X57.591 Y87.664 E0.0259
G1 X58.068 Y87.519 E0.0203
G1 X58.487 Y87.308 E0.0191
G1 X58.859 Y87.022 E0.0191
G1 X59.171 Y86.684 E0.0187
G1 X59.425 Y86.282 E0.0194
G1 X59.594 Y85.850 E0.0189
G1 X59.698 Y85.362 E0.0203
G1 X59.681 Y84.724 E0.0260
G1 X59.561 Y84.239 E0.0204
G1 X59.365 Y83.814 E0.0191
