;Sliced by ideaMaker 4.3.2.6470, 2023-03-26 11:01:21 UTC+0200
;Dimension: 170.000 190.000 170.000 0.500
;Plate Shape: 0
;Origin Center: 0
;Extruder Offset #1: 25.000 0.000
;Filament Diameter #1: 1.750
;Filament Diameter #2: 1.750
;Filament Compensation #1: 98.00
;Filament Compensation #2: 90.00
;Filament Density #1: 1240.00
;Filament Density #2: 1240.00
;Filament Type #1: PLA
;Filament Type #2: 
;Filament Name #1: [FILOALFA] PLA 1.75mm
;Filament Name #2: 
;Firmware: Marlin
;Bounding Box: 55.150 114.499 65.256 124.499 0.000 12.000
;Model Gap: 0.000
M221 T0 S100.00
M140 S50.00
M104 T0 S200.00
M109 T0 S200.00
T0
M190 S50.00
G28 ; home all
M420 S1 ; Enable Bed leveling
G92 E0
G1 Z0.2 F1000
G1 X8.0 F2000
G1 Y60.0 E4.0 F1000.0 ; prime
G1 Y100.0 E8.5 F1000.0 ; prime
G92 E0
;TOTAL_NUM: 1
;PRINTING_TIME: 0
;REMAINING_TIME: 2351
M83
;LAYER:0
;Z:0.200
;HEIGHT:0.200
M106 S0
;PRINTING: NON-OBJECT
;PRINTING_ID: -1
G1 F2400 E-0.5000
G0 F4200 X59.936 Y77.941
G0 F960 Z0.200
G0 F4200 X59.592 Y78.240
;TYPE:SKIRT
;WIDTH:0.500
G1 F1500 E0.5000
G1 F1800 X59.936 Y77.941 E0.0186
G1 X60.319 Y77.693 E0.0186
G1 X60.763 Y77.489 E0.0199
G1 X61.198 Y77.355 E0.0185
G1 X61.648 Y77.284 E0.0186
G1 X62.104 Y77.275 E0.0186
G1 X62.557 Y77.331 E0.0186
G1 X62.997 Y77.450 E0.0186
G1 X63.141 Y77.512 E0.0064
G1 X63.825 Y76.680 E0.0439
G1 X64.655 Y75.763 E0.0504
G1 X65.158 Y75.243 E0.0295
G1 X66.266 Y74.192 E0.0622
G1 X67.299 Y73.306 E0.0554
G1 X67.887 Y72.838 E0.0306
G1 X69.013 Y72.014 E0.0568
G1 X70.147 Y71.265 E0.0554
G1 X70.781 Y70.881 E0.0302
G1 X71.856 Y70.278 E0.0502
G1 X72.632 Y69.881 E0.0355
G1 X73.892 Y69.299 E0.0565
G1 X75.206 Y68.770 E0.0577
G1 X76.366 Y68.366 E0.0500
G1 X77.717 Y67.965 E0.0574
G1 X79.066 Y67.638 E0.0566
G1 X80.462 Y67.372 E0.0579
G1 X80.859 Y67.314 E0.0163
G1 X81.007 Y67.040 E0.0127
G1 X81.278 Y66.674 E0.0186
G1 X81.598 Y66.349 E0.0186
G1 X81.960 Y66.072 E0.0186
G1 X82.357 Y65.848 E0.0186
G1 X82.782 Y65.682 E0.0186
G1 X83.225 Y65.577 E0.0185
G1 X83.658 Y65.536 E0.0177
G1 X84.909 Y65.501 E0.0510
G1 X86.341 Y65.536 E0.0584
G1 X86.795 Y65.581 E0.0186
G1 X87.237 Y65.689 E0.0185
G1 X87.661 Y65.857 E0.0186
G1 X88.057 Y66.083 E0.0186
G1 X88.417 Y66.363 E0.0186
G1 X88.757 Y66.722 E0.0201
G1 X89.040 Y66.351 E0.0190
G1 X89.365 Y66.032 E0.0186
G1 X89.732 Y65.762 E0.0186
G1 X90.133 Y65.545 E0.0186
G1 X90.561 Y65.387 E0.0186
G1 X91.006 Y65.290 E0.0186
G1 X91.485 Y65.256 E0.0196
G1 X92.794 Y65.261 E0.0533
G1 X93.249 Y65.295 E0.0186
G1 X93.812 Y65.428 E0.0236
G1 X95.162 Y65.879 E0.0580
G1 X95.571 Y66.048 E0.0180
G1 X96.146 Y66.332 E0.0261
G1 X96.540 Y66.562 E0.0186
G1 X96.674 Y66.672 E0.0071
G1 X96.821 Y66.682 E0.0060
G1 X97.188 Y66.754 E0.0152
G1 X97.624 Y66.889 E0.0186
G1 X98.555 Y67.338 E0.0421
G1 X98.821 Y67.495 E0.0126
G1 X99.102 Y67.612 E0.0124
G1 X99.757 Y67.939 E0.0298
G1 X100.149 Y68.171 E0.0186
G1 X100.587 Y68.533 E0.0232
G1 X101.514 Y69.447 E0.0530
G1 X101.815 Y69.789 E0.0186
G1 X101.963 Y69.999 E0.0105
G1 X102.203 Y70.429 E0.0201
G1 X102.364 Y70.856 E0.0186
G1 X102.465 Y71.300 E0.0186
G1 X102.502 Y71.755 E0.0186
G1 X102.475 Y72.210 E0.0186
G1 X102.385 Y72.656 E0.0185
G1 X102.280 Y72.971 E0.0135
G1 X103.320 Y73.825 E0.0548
G1 X104.322 Y74.735 E0.0551
G1 X104.846 Y75.248 E0.0299
G1 X105.808 Y76.266 E0.0571
G1 X106.693 Y77.298 E0.0554
G1 X107.155 Y77.877 E0.0302
G1 X107.983 Y79.008 E0.0571
G1 X108.735 Y80.147 E0.0556
G1 X109.119 Y80.781 E0.0302
G1 X109.781 Y81.966 E0.0553
G1 X110.073 Y82.537 E0.0261
G1 X110.637 Y83.746 E0.0544
G1 X111.230 Y85.205 E0.0642
G1 X111.686 Y86.527 E0.0570
G1 X112.035 Y87.719 E0.0506
G1 X112.396 Y89.226 E0.0631
G1 X112.624 Y90.443 E0.0504
G1 X112.686 Y90.859 E0.0171
G1 X112.960 Y91.007 E0.0127
G1 X113.326 Y91.278 E0.0186
G1 X113.651 Y91.598 E0.0186
G1 X113.928 Y91.960 E0.0186
G1 X114.152 Y92.357 E0.0186
G1 X114.318 Y92.782 E0.0186
G1 X114.423 Y93.225 E0.0185
G1 X114.464 Y93.658 E0.0177
G1 X114.499 Y94.902 E0.0507
G1 X114.464 Y96.340 E0.0586
G1 X114.419 Y96.794 E0.0186
G1 X114.312 Y97.237 E0.0186
G1 X114.143 Y97.660 E0.0186
G1 X113.917 Y98.056 E0.0186
G1 X113.638 Y98.416 E0.0186
G1 X113.311 Y98.734 E0.0186
G1 X112.943 Y99.003 E0.0186
G1 X112.688 Y99.139 E0.0118
G1 X112.401 Y100.758 E0.0670
G1 X112.082 Y102.108 E0.0565
G1 X111.694 Y103.451 E0.0570
G1 X111.236 Y104.778 E0.0572
G1 X110.712 Y106.085 E0.0574
G1 X110.127 Y107.352 E0.0569
G1 X109.731 Y108.128 E0.0355
G1 X109.129 Y109.203 E0.0502
G1 X108.679 Y109.943 E0.0353
G1 X107.907 Y111.102 E0.0567
G1 X107.172 Y112.099 E0.0505
G1 X106.282 Y113.194 E0.0575
G1 X105.265 Y114.322 E0.0619
G1 X104.842 Y114.757 E0.0247
G1 X103.734 Y115.808 E0.0622
G1 X102.786 Y116.623 E0.0509
G1 X102.116 Y117.161 E0.0350
G1 X100.993 Y117.983 E0.0567
G1 X99.946 Y118.677 E0.0512
G1 X99.210 Y119.125 E0.0351
G1 X98.034 Y119.780 E0.0548
G1 X97.368 Y120.119 E0.0304
G1 X96.108 Y120.701 E0.0565
G1 X94.794 Y121.230 E0.0577
G1 X93.479 Y121.684 E0.0567
G1 X92.284 Y122.034 E0.0507
G1 X90.775 Y122.396 E0.0632
G1 X89.538 Y122.628 E0.0513
G1 X89.141 Y122.686 E0.0163
G1 X88.993 Y122.960 E0.0127
G1 X88.722 Y123.326 E0.0186
G1 X88.402 Y123.651 E0.0186
G1 X88.040 Y123.928 E0.0186
G1 X87.643 Y124.152 E0.0186
G1 X87.218 Y124.318 E0.0186
G1 X86.775 Y124.423 E0.0185
G1 X86.342 Y124.464 E0.0177
G1 X85.091 Y124.499 E0.0510
G1 X83.659 Y124.464 E0.0584
G1 X83.205 Y124.419 E0.0186
G1 X82.763 Y124.311 E0.0185
G1 X82.339 Y124.143 E0.0186
G1 X81.943 Y123.917 E0.0186
G1 X81.583 Y123.637 E0.0186
G1 X81.266 Y123.310 E0.0186
G1 X80.997 Y122.942 E0.0186
G1 X80.861 Y122.688 E0.0117
G1 X79.241 Y122.400 E0.0670
G1 X77.889 Y122.081 E0.0566
G1 X76.540 Y121.691 E0.0572
G1 X75.072 Y121.180 E0.0633
G1 X73.762 Y120.645 E0.0577
G1 X72.648 Y120.127 E0.0501
G1 X71.872 Y119.731 E0.0355
G1 X70.699 Y119.072 E0.0548
G1 X70.165 Y118.748 E0.0254
G1 X68.888 Y117.899 E0.0625
G1 X67.775 Y117.074 E0.0564
G1 X66.806 Y116.283 E0.0510
G1 X65.678 Y115.265 E0.0619
G1 X65.146 Y114.744 E0.0303
G1 X64.300 Y113.854 E0.0500
G1 X63.306 Y112.701 E0.0620
G1 X62.838 Y112.114 E0.0306
G1 X62.102 Y111.115 E0.0506
G1 X61.331 Y109.957 E0.0567
G1 X60.940 Y109.319 E0.0305
G1 X60.278 Y108.144 E0.0549
G1 X59.935 Y107.477 E0.0306
G1 X59.315 Y106.144 E0.0599
G1 X58.402 Y106.143 E0.0372
G1 X57.948 Y106.111 E0.0185
G1 X57.502 Y106.015 E0.0186
G1 X57.074 Y105.858 E0.0186
G1 X56.672 Y105.643 E0.0186
G1 X56.305 Y105.373 E0.0186
G1 X55.978 Y105.055 E0.0186
G1 X55.700 Y104.694 E0.0186
G1 X55.474 Y104.298 E0.0186
G1 X55.307 Y103.874 E0.0186
G1 X55.200 Y103.431 E0.0186
G1 X55.155 Y102.902 E0.0216
G1 X55.150 Y101.032 E0.0762
G1 X55.181 Y100.577 E0.0186
G1 X55.275 Y100.131 E0.0186
G1 X55.467 Y99.623 E0.0221
G1 X55.713 Y99.183 E0.0205
G1 X55.991 Y98.821 E0.0186
G1 X56.393 Y98.446 E0.0224
G1 X56.072 Y98.040 E0.0211
G1 X55.848 Y97.643 E0.0186
G1 X55.682 Y97.218 E0.0186
G1 X55.577 Y96.775 E0.0185
G1 X55.536 Y96.342 E0.0177
G1 X55.501 Y94.917 E0.0581
G1 X55.536 Y93.660 E0.0512
G1 X55.581 Y93.206 E0.0186
G1 X55.688 Y92.763 E0.0186
G1 X55.857 Y92.340 E0.0186
G1 X56.083 Y91.944 E0.0186
G1 X56.362 Y91.584 E0.0186
G1 X56.689 Y91.266 E0.0186
G1 X57.057 Y90.997 E0.0186
G1 X57.312 Y90.861 E0.0118
G1 X57.356 Y90.550 E0.0128
G1 X56.998 Y90.345 E0.0168
G1 X56.638 Y90.066 E0.0186
G1 X56.320 Y89.739 E0.0186
G1 X56.052 Y89.371 E0.0185
G1 X55.837 Y88.968 E0.0186
G1 X55.681 Y88.540 E0.0186
G1 X55.586 Y88.094 E0.0186
G1 X55.555 Y87.641 E0.0185
G1 X55.557 Y85.703 E0.0790
G1 X55.589 Y85.248 E0.0186
G1 X55.685 Y84.802 E0.0186
G1 X55.842 Y84.375 E0.0185
G1 X56.058 Y83.973 E0.0186
G1 X56.327 Y83.605 E0.0186
G1 X56.645 Y83.279 E0.0186
G1 X57.006 Y83.000 E0.0186
G1 X57.354 Y82.802 E0.0163
G1 X57.350 Y82.088 E0.0291
G1 X57.379 Y81.633 E0.0186
G1 X57.472 Y81.186 E0.0186
G1 X57.615 Y80.784 E0.0174
G1 X57.855 Y80.307 E0.0218
G1 X58.154 Y79.896 E0.0207
G1 X58.229 Y79.747 E0.0068
G1 X58.488 Y79.372 E0.0186
G1 X58.727 Y79.105 E0.0146
G1 X59.592 Y78.240 E0.0498
;PRINTING: rim-rear-internal.stl
;PRINTING_ID: 1
G1 F2400 E-0.5000
G0 F4200 X61.424 Y94.994
;TYPE:WALL-INNER
;WIDTH:0.500
G1 F1500 E0.5000
G1 F1800 X61.641 Y92.433 E0.1047
G1 X61.799 Y91.269 E0.0479
G1 X62.017 Y90.100 E0.0485
G1 X62.287 Y88.968 E0.0474
G1 X62.616 Y87.840 E0.0479
G1 X63.003 Y86.731 E0.0479
G1 X63.449 Y85.631 E0.0484
G1 X63.945 Y84.566 E0.0479
G1 X64.207 Y84.050 E0.0236
G1 X64.787 Y83.015 E0.0483
G1 X65.086 Y82.521 E0.0235
G1 X65.734 Y81.544 E0.0478
G1 X66.432 Y80.597 E0.0479
G1 X67.183 Y79.676 E0.0484
G1 X67.976 Y78.799 E0.0482
G1 X68.367 Y78.399 E0.0228
G1 X69.225 Y77.583 E0.0482
G1 X70.133 Y76.802 E0.0488
G1 X70.576 Y76.445 E0.0232
G1 X71.523 Y75.748 E0.0479
G1 X72.507 Y75.096 E0.0481
G1 X73.001 Y74.796 E0.0235
G1 X74.036 Y74.215 E0.0484
G1 X74.551 Y73.951 E0.0236
G1 X75.616 Y73.457 E0.0478
G1 X76.716 Y73.009 E0.0484
G1 X77.817 Y72.625 E0.0475
G1 X78.954 Y72.292 E0.0483
G1 X80.085 Y72.021 E0.0474
G1 X81.261 Y71.801 E0.0487
G1 X82.417 Y71.643 E0.0475
G1 X85.006 Y71.424 E0.1059
G1 X87.567 Y71.641 E0.1047
G1 X88.738 Y71.800 E0.0481
G1 X89.900 Y72.017 E0.0482
G1 X91.034 Y72.288 E0.0475
G1 X92.169 Y72.619 E0.0482
G1 X93.269 Y73.003 E0.0475
G1 X94.369 Y73.449 E0.0484
G1 X95.434 Y73.945 E0.0479
G1 X95.950 Y74.207 E0.0236
G1 X96.985 Y74.787 E0.0483
G1 X97.479 Y75.086 E0.0235
G1 X98.461 Y75.738 E0.0480
G1 X99.403 Y76.432 E0.0477
G1 X100.324 Y77.183 E0.0484
G1 X101.201 Y77.976 E0.0482
G1 X101.601 Y78.367 E0.0228
G1 X102.417 Y79.225 E0.0482
G1 X103.198 Y80.133 E0.0488
G1 X103.549 Y80.569 E0.0228
G1 X104.249 Y81.520 E0.0481
G1 X104.904 Y82.507 E0.0483
G1 X105.204 Y83.001 E0.0235
G1 X105.785 Y84.036 E0.0484
G1 X106.054 Y84.565 E0.0242
G1 X106.543 Y85.616 E0.0472
G1 X106.991 Y86.717 E0.0484
G1 X107.377 Y87.822 E0.0477
G1 X107.708 Y88.954 E0.0481
G1 X107.979 Y90.084 E0.0473
G1 X108.195 Y91.241 E0.0480
G1 X108.358 Y92.426 E0.0487
G1 X108.576 Y95.007 E0.1055
G1 X108.359 Y97.567 E0.1047
G1 X108.201 Y98.731 E0.0479
G1 X107.983 Y99.900 E0.0485
G1 X107.713 Y101.032 E0.0474
G1 X107.384 Y102.160 E0.0479
G1 X106.997 Y103.269 E0.0479
G1 X106.552 Y104.368 E0.0483
G1 X106.055 Y105.434 E0.0479
G1 X105.793 Y105.950 E0.0236
G1 X105.213 Y106.985 E0.0483
G1 X104.914 Y107.479 E0.0235
G1 X104.266 Y108.456 E0.0478
G1 X103.568 Y109.403 E0.0479
G1 X102.817 Y110.323 E0.0484
G1 X102.023 Y111.201 E0.0482
G1 X101.633 Y111.601 E0.0228
G1 X100.775 Y112.417 E0.0482
G1 X99.867 Y113.198 E0.0488
G1 X99.425 Y113.554 E0.0231
G1 X98.480 Y114.249 E0.0478
G1 X97.480 Y114.913 E0.0489
G1 X96.992 Y115.209 E0.0233
G1 X95.964 Y115.785 E0.0480
G1 X95.449 Y116.049 E0.0236
G1 X94.384 Y116.543 E0.0478
G1 X93.284 Y116.991 E0.0484
G1 X92.183 Y117.375 E0.0475
G1 X91.048 Y117.707 E0.0482
G1 X89.915 Y117.979 E0.0475
G1 X88.739 Y118.199 E0.0487
G1 X87.583 Y118.357 E0.0475
G1 X84.994 Y118.576 E0.1059
G1 X82.433 Y118.359 E0.1047
G1 X81.262 Y118.200 E0.0481
G1 X80.100 Y117.983 E0.0482
G1 X78.966 Y117.712 E0.0475
G1 X77.831 Y117.381 E0.0482
G1 X76.731 Y116.997 E0.0475
G1 X75.631 Y116.551 E0.0484
G1 X74.566 Y116.055 E0.0479
G1 X74.050 Y115.793 E0.0236
G1 X73.015 Y115.213 E0.0483
G1 X72.521 Y114.914 E0.0235
G1 X71.534 Y114.259 E0.0483
G1 X70.597 Y113.568 E0.0474
G1 X69.676 Y112.817 E0.0484
G1 X68.799 Y112.023 E0.0482
G1 X68.392 Y111.627 E0.0231
G1 X67.584 Y110.777 E0.0478
G1 X66.801 Y109.867 E0.0489
G1 X66.445 Y109.424 E0.0232
G1 X65.744 Y108.472 E0.0482
G1 X65.096 Y107.493 E0.0478
G1 X64.796 Y106.999 E0.0235
G1 X64.215 Y105.964 E0.0484
G1 X63.951 Y105.449 E0.0236
G1 X63.456 Y104.382 E0.0479
G1 X63.009 Y103.284 E0.0483
G1 X62.622 Y102.174 E0.0479
G1 X62.292 Y101.046 E0.0479
G1 X62.021 Y99.916 E0.0473
G1 X61.803 Y98.747 E0.0485
G1 X61.643 Y97.582 E0.0479
G1 X61.424 Y94.994 E0.1058
G0 F4200 X60.964 Y94.500
G1 F1800 X61.144 Y92.378 E0.0868
G1 X61.305 Y91.189 E0.0489
G1 X61.528 Y89.996 E0.0494
G1 X61.804 Y88.840 E0.0484
G1 X62.140 Y87.688 E0.0489
G1 X62.535 Y86.555 E0.0489
G1 X62.990 Y85.431 E0.0494
G1 X63.495 Y84.347 E0.0487
G1 X63.766 Y83.814 E0.0244
G1 X64.355 Y82.763 E0.0491
G1 X64.664 Y82.253 E0.0243
G1 X65.324 Y81.257 E0.0487
G1 X66.037 Y80.290 E0.0490
G1 X66.804 Y79.350 E0.0494
G1 X67.612 Y78.457 E0.0491
G1 X68.016 Y78.043 E0.0236
G1 X68.889 Y77.212 E0.0491
G1 X69.813 Y76.418 E0.0496
G1 X70.271 Y76.049 E0.0240
G1 X71.237 Y75.338 E0.0489
G1 X72.239 Y74.674 E0.0490
G1 X72.749 Y74.364 E0.0243
G1 X73.800 Y73.774 E0.0491
G1 X74.332 Y73.502 E0.0243
G1 X75.416 Y72.998 E0.0487
G1 X76.539 Y72.541 E0.0494
G1 X77.664 Y72.149 E0.0485
G1 X78.825 Y71.809 E0.0493
G1 X79.981 Y71.532 E0.0484
G1 X81.181 Y71.307 E0.0497
G1 X82.362 Y71.146 E0.0486
G1 X84.488 Y70.966 E0.0869
G1 X84.495 Y69.514 E0.0592
G1 X85.000 Y69.500 E0.0206
G1 X85.500 Y69.514 E0.0204
G1 X85.500 Y70.964 E0.0591
G1 X87.622 Y71.144 E0.0868
G1 X88.818 Y71.306 E0.0492
G1 X90.004 Y71.528 E0.0492
G1 X91.162 Y71.805 E0.0485
G1 X92.321 Y72.143 E0.0492
G1 X93.445 Y72.535 E0.0485
G1 X94.569 Y72.990 E0.0494
G1 X95.653 Y73.495 E0.0487
G1 X96.186 Y73.766 E0.0244
G1 X97.237 Y74.355 E0.0491
G1 X97.747 Y74.664 E0.0243
G1 X98.748 Y75.328 E0.0489
G1 X99.710 Y76.037 E0.0487
G1 X100.650 Y76.804 E0.0494
G1 X101.543 Y77.612 E0.0491
G1 X101.957 Y78.016 E0.0236
G1 X102.788 Y78.889 E0.0491
G1 X103.582 Y79.813 E0.0496
G1 X103.945 Y80.264 E0.0236
G1 X104.659 Y81.233 E0.0490
G1 X105.326 Y82.239 E0.0492
G1 X105.636 Y82.749 E0.0243
G1 X106.226 Y83.800 E0.0491
G1 X106.504 Y84.346 E0.0250
G1 X107.002 Y85.416 E0.0481
G1 X107.459 Y86.540 E0.0494
G1 X107.853 Y87.669 E0.0487
G1 X108.191 Y88.825 E0.0491
G1 X108.468 Y89.980 E0.0484
G1 X108.689 Y91.161 E0.0490
G1 X108.855 Y92.371 E0.0498
G1 X109.034 Y94.488 E0.0866
G1 X110.486 Y94.495 E0.0592
G1 X110.500 Y94.993 E0.0203
G1 X110.486 Y95.500 E0.0207
G1 X109.036 Y95.500 E0.0591
G1 X108.856 Y97.622 E0.0868
G1 X108.695 Y98.811 E0.0489
G1 X108.472 Y100.004 E0.0494
G1 X108.196 Y101.160 E0.0484
G1 X107.860 Y102.312 E0.0489
G1 X107.465 Y103.445 E0.0489
G1 X107.011 Y104.567 E0.0493
G1 X106.505 Y105.653 E0.0488
G1 X106.234 Y106.186 E0.0244
G1 X105.645 Y107.237 E0.0491
G1 X105.336 Y107.747 E0.0243
G1 X104.676 Y108.743 E0.0487
G1 X103.963 Y109.710 E0.0490
G1 X103.196 Y110.649 E0.0494
G1 X102.388 Y111.543 E0.0491
G1 X101.984 Y111.957 E0.0236
G1 X101.111 Y112.788 E0.0491
G1 X100.187 Y113.582 E0.0496
G1 X99.730 Y113.950 E0.0239
G1 X98.767 Y114.659 E0.0487
G1 X97.748 Y115.335 E0.0498
G1 X97.244 Y115.641 E0.0240
G1 X96.200 Y116.226 E0.0488
G1 X95.668 Y116.498 E0.0243
G1 X94.584 Y117.002 E0.0487
G1 X93.461 Y117.459 E0.0494
G1 X92.336 Y117.851 E0.0485
G1 X91.177 Y118.190 E0.0492
G1 X90.019 Y118.468 E0.0485
G1 X88.819 Y118.693 E0.0497
G1 X87.638 Y118.854 E0.0486
G1 X85.512 Y119.034 E0.0869
G1 X85.505 Y120.486 E0.0592
G1 X85.000 Y120.500 E0.0206
G1 X84.500 Y120.486 E0.0204
G1 X84.500 Y119.036 E0.0591
G1 X82.378 Y118.856 E0.0868
G1 X81.182 Y118.694 E0.0492
G1 X79.996 Y118.472 E0.0492
G1 X78.838 Y118.195 E0.0485
G1 X77.679 Y117.857 E0.0492
G1 X76.555 Y117.465 E0.0485
G1 X75.431 Y117.010 E0.0494
G1 X74.347 Y116.505 E0.0487
G1 X73.814 Y116.234 E0.0244
G1 X72.763 Y115.645 E0.0491
G1 X72.253 Y115.336 E0.0243
G1 X71.247 Y114.669 E0.0492
G1 X70.290 Y113.963 E0.0485
G1 X69.350 Y113.196 E0.0494
G1 X68.457 Y112.388 E0.0491
G1 X68.036 Y111.978 E0.0239
G1 X67.213 Y111.112 E0.0487
G1 X66.417 Y110.187 E0.0497
G1 X66.049 Y109.729 E0.0239
G1 X65.334 Y108.758 E0.0491
G1 X64.674 Y107.761 E0.0487
G1 X64.364 Y107.251 E0.0243
G1 X63.774 Y106.200 E0.0491
G1 X63.502 Y105.668 E0.0243
G1 X62.997 Y104.582 E0.0488
G1 X62.541 Y103.461 E0.0493
G1 X62.146 Y102.327 E0.0489
G1 X61.809 Y101.175 E0.0489
G1 X61.532 Y100.020 E0.0484
G1 X61.309 Y98.827 E0.0494
G1 X61.146 Y97.637 E0.0489
G1 X60.966 Y95.512 E0.0869
G1 X59.514 Y95.505 E0.0592
G1 X59.500 Y95.007 E0.0203
G1 X59.514 Y94.500 E0.0207
G1 X60.964 Y94.500 E0.0591
G1 F2400 E-0.5000
G0 F4200 X60.505 Y94.000
;TYPE:WALL-OUTER
;WIDTH:0.500
G1 F1500 E0.5000
G1 F1800 X60.647 Y92.323 E0.0686
G1 X60.811 Y91.109 E0.0499
G1 X61.039 Y89.892 E0.0504
G1 X61.321 Y88.712 E0.0494
G1 X61.664 Y87.536 E0.0499
G1 X62.067 Y86.379 E0.0499
G1 X62.531 Y85.232 E0.0504
G1 X63.045 Y84.128 E0.0496
G1 X63.325 Y83.578 E0.0251
G1 X63.923 Y82.511 E0.0498
G1 X64.242 Y81.985 E0.0251
G1 X64.914 Y80.970 E0.0496
G1 X65.642 Y79.983 E0.0500
